;1001
;Printer name: Creality Ender 3 V2
;Print time: 1h:56m:58s
;Extruder 1 material used: 3115mm
;Extruder 1 material name: PVA 1.75mm
;Extruder 1 filament diameter: 1.75mm
;Extruder 1 nozzle diameter: 0.4mm
;Extruder 1 offset x: 0mm
;Extruder 1 offset y: 0mm
;Extruder 1 offset z: 0mm
;Extruder 1 max temp: 220
;Bed temp: 60
;Layer count: 325
;Width: 220mm
;Depth: 220mm
;Height: 250mm
;Center x: 110mm
;Center y: 110mm
;Center z: 0mm
;Count of bodies: 1
;Fusion version: 2.0.10148
;--------------------------------
;Selected Profile: PVA 1.75mm, 0.4mm Nozzle
;Selected Printer: Creality, Ender 3 V2
;--------------------------------
T0
M140 S60
M190 S60
M104 S220 T0
M105
M109 S220 T0
G1 F236
G21
G90
M82
;Reset multiplier
M220 S100
M221 S100
;Enable auto bed leveling
M420 S1 Z2
G28
G1 Z10
G92 E0
G0 X10 Y10 Z10
G92 E0
;--------------------------------
;Layer : 1 of 325
M107
;rapid-leaky
G0 X20 Y20.8 Z0.3
G1 F1800 E10
;bead-prime
G1 X200 F270 E45.921
G1 F1800 E35.921
;rapid-dry
G1 F236
G0 X129.584 Y97.836
G1 F1800 E45.921
;bead-skirt/brim
G1 Y117.842 F780 E46.919
G1 X141.05 Y129.308 E47.728
G1 X148.443 Y121.917 E48.25
G1 X155.823 Y129.293 E48.77
G1 X153.648 Y131.468 E48.924
G1 X154.56 Y132.38 E48.988
G1 X146.15 Y140.791 E49.581
G1 X145.235 Y139.881 E49.646
G1 X141.467 Y143.649 E49.912
G1 X119.237 Y121.418 E51.48
G1 X116.895 Y113.457 E51.894
G1 X120.015 E52.05
G1 Y107.595 E52.342
G1 X111.232 E52.78
G1 Y113.457 E53.073
G1 X114.353 E53.229
G1 X112.008 Y121.429 E53.643
G1 X89.652 Y143.52 E55.211
G1 X85.956 Y139.824 E55.472
G1 X85.042 Y140.734 E55.536
G1 X77.211 Y132.903 E56.089
G1 X77.097 Y133.017 E56.097
G1 X62.121 Y118.041 E57.153
G1 X71.564 Y108.622 E57.819
G1 X71.671 Y108.729 E57.826
G1 X86.939 Y93.462 E58.904
G1 X92.768 Y99.292 E59.315
G1 X91.4 Y100.66 E59.411
G1 X94.482 Y103.742 E59.629
G1 X95.85 Y102.374 E59.725
G1 X101.664 Y108.188 E60.136
G1 Y105.613 E60.264
G1 X101.37 Y105.262 E60.287
G1 X100.431 Y105.27 E60.334
G1 X99.068 Y102.737 E60.477
G1 X88.366 Y92.034 E61.232
G1 X95.642 Y84.758 E61.746
G1 X95.529 Y84.644 E61.754
G1 X104.376 Y75.797 E62.378
G1 X110.32 Y81.74 E62.797
G1 X101.692 Y90.368 E63.406
G1 X105.448 Y94.123 E63.671
G1 X105.498 Y94.166 E63.674
G1 X106.659 Y94.693 E63.738
G1 X110.78 Y95.409 E63.947
G1 X110.1 Y97.836 E64.072
G1 X129.584 E65.044
;rapid-leaky
G1 F236
G0 X129.184 Y98.236
;bead-skirt/brim
G1 Y118.008 F780 E66.031
G1 X141.05 Y129.874 E66.868
G1 X148.443 Y122.482 E67.39
G1 X155.257 Y129.293 E67.87
G1 X153.082 Y131.468 E68.024
G1 X153.995 Y132.38 E68.088
G1 X146.149 Y140.226 E68.642
G1 X145.235 Y139.316 E68.706
G1 X141.467 Y143.083 E68.972
G1 X119.592 Y121.207 E70.515
G1 X117.43 Y113.857 E70.897
G1 X120.415 E71.046
G1 Y107.195 E71.379
G1 X110.832 E71.857
G1 Y113.857 E72.189
G1 X113.818 E72.338
G1 X111.653 Y121.217 E72.721
G1 X89.654 Y142.956 E74.264
G1 X85.957 Y139.259 E74.525
G1 X85.043 Y140.169 E74.589
G1 X77.211 Y132.337 E75.142
G1 X77.097 Y132.451 E75.15
G1 X62.687 Y118.042 E76.166
G1 X71.564 Y109.188 E76.792
G1 X71.671 Y109.295 E76.799
G1 X86.939 Y94.028 E77.877
G1 X92.203 Y99.292 E78.248
G1 X90.834 Y100.66 E78.345
G1 X94.482 Y104.308 E78.602
G1 X95.85 Y102.939 E78.698
G1 X101.114 Y108.203 E79.07
G1 X85.847 Y123.472 E80.147
G1 X85.96 Y123.585 E80.155
G1 X84.934 Y124.611 E80.227
G1 X90.197 Y129.874 E80.599
G1 X102.064 Y118.008 E81.436
G1 Y105.447 E82.063
G1 X102.05 Y105.451
G1 X101.556 Y104.861 E82.102
G1 X100.669 Y104.868 E82.146
G1 X99.392 Y102.495 E82.281
G1 X88.931 Y92.034 E83.019
G1 X96.208 Y84.758 E83.532
G1 X96.094 Y84.644 E83.54
G1 X104.376 Y76.363 E84.124
G1 X109.754 Y81.74 E84.504
G1 X101.126 Y90.368 E85.112
G1 X105.175 Y94.416 E85.398
G1 X105.28 Y94.506 E85.405
G1 X106.54 Y95.079 E85.474
G1 X110.275 Y95.728 E85.663
G1 X109.572 Y98.236 E85.793
G1 X129.184 E86.772
;rapid-leaky
G1 F236
G0 X128.784 Y98.636
;bead-skirt/brim
G1 Y118.173 F780 E87.746
G1 X141.05 Y130.439 E88.612
G1 X148.443 Y123.048 E89.133
G1 X154.691 Y129.293 E89.574
G1 X152.517 Y131.468 E89.727
G1 X153.429 Y132.38 E89.792
G1 X146.148 Y139.661 E90.306
G1 X145.234 Y138.751 E90.37
G1 X141.467 Y142.518 E90.636
G1 X119.947 Y120.996 E92.154
G1 X117.965 Y114.257 E92.505
G1 X120.815 E92.647
G1 Y106.795 E93.019
G1 X110.432 E93.537
G1 Y114.257 E93.909
G1 X113.283 E94.052
G1 X111.299 Y121.006 E94.403
G1 X89.655 Y142.392 E95.921
G1 X85.958 Y138.695 E96.181
G1 X85.043 Y139.604 E96.246
G1 X77.763 Y132.324 E96.759
G1 X78.675 Y131.412 E96.824
G1 X78.122 Y130.859 E96.863
G1 X77.097 Y131.885 E96.935
G1 X63.253 Y118.042 E97.912
G1 X71.563 Y109.753 E98.497
G1 X71.671 Y109.86 E98.505
G1 X86.939 Y94.594 E99.582
G1 X91.637 Y99.292 E99.914
G1 X90.269 Y100.66 E100.01
G1 X94.482 Y104.874 E100.308
G1 X95.85 Y103.505 E100.404
G1 X100.548 Y108.203 E100.736
G1 X85.281 Y123.472 E101.813
G1 X85.394 Y123.585 E101.821
G1 X84.368 Y124.611 E101.893
G1 X90.197 Y130.439 E102.304
G1 X102.464 Y118.173 E103.17
G1 Y104.903 E103.832
G1 X102.186 Y104.99 E103.847
G1 X101.742 Y104.46 E103.881
G1 X100.907 Y104.466 E103.923
G1 X99.716 Y102.254 E104.048
G1 X89.497 Y92.034 E104.769
G1 X96.774 Y84.758 E105.282
G1 X96.66 Y84.644 E105.29
G1 X104.376 Y76.928 E105.835
G1 X109.188 Y81.74 E106.174
G1 X100.56 Y90.368 E106.783
G1 X104.903 Y94.709 E107.089
G1 X105.079 Y94.854 E107.101
G1 X106.421 Y95.464 E107.174
G1 X109.771 Y96.046 E107.344
G1 X109.044 Y98.636 E107.478
G1 X128.784 E108.463
;rapid-leaky
G1 F236
G0 X128.384 Y99.036
;bead-skirt/brim
G1 Y118.339 F780 E109.426
G1 X141.05 Y131.005 E110.32
G1 X148.443 Y123.614 E110.841
G1 X154.125 Y129.294 E111.242
G1 X151.951 Y131.468 E111.395
G1 X152.863 Y132.38 E111.46
G1 X146.148 Y139.096 E111.934
G1 X145.233 Y138.186 E111.998
G1 X141.467 Y141.952 E112.264
G1 X120.302 Y120.786 E113.757
G1 X118.499 Y114.657 E114.076
G1 X121.215 E114.211
G1 Y106.395 E114.624
G1 X110.032 E115.181
G1 Y114.657 E115.594
G1 X112.749 E115.729
G1 X110.944 Y120.794 E116.048
G1 X89.657 Y141.828 E117.541
G1 X85.959 Y138.13 E117.802
G1 X85.044 Y139.039 E117.867
G1 X78.328 Y132.324 E118.34
G1 X79.241 Y131.412 E118.405
G1 X78.122 Y130.293 E118.484
G1 X77.097 Y131.32 E118.556
G1 X63.819 Y118.042 E119.493
G1 X71.563 Y110.318 E120.039
G1 X71.671 Y110.426 E120.046
G1 X86.939 Y95.159 E121.123
G1 X91.071 Y99.292 E121.415
G1 X89.703 Y100.66 E121.511
G1 X94.482 Y105.439 E121.849
G1 X95.85 Y104.071 E121.945
G1 X99.983 Y108.203 E122.237
G1 X84.715 Y123.472 E123.314
G1 X84.829 Y123.585 E123.322
G1 X83.803 Y124.611 E123.394
G1 X90.197 Y131.005 E123.846
G1 X102.864 Y118.339 E124.739
G1 Y104.36 E125.437
G1 X102.321 Y104.529 E125.465
G1 X101.927 Y104.058 E125.496
G1 X101.145 Y104.064 E125.535
G1 X100.035 Y102.007 E125.651
G1 X90.063 Y92.034 E126.355
G1 X97.34 Y84.758 E126.868
G1 X97.226 Y84.644 E126.876
G1 X104.376 Y77.494 E127.381
G1 X108.622 Y81.74 E127.68
G1 X99.995 Y90.368 E128.289
G1 X104.63 Y95.002 E128.616
G1 X104.808 Y95.156 E128.628
G1 X104.888 Y95.207 E128.633
G1 X106.326 Y95.853 E128.711
G1 X109.266 Y96.364 E128.86
G1 X108.517 Y99.036 E128.999
G1 X128.384 E129.99
;rapid-leaky
G1 F236
G0 X127.984 Y99.436
;bead-skirt/brim
G1 Y118.505 F780 E130.941
G1 X141.05 Y131.571 E131.863
G1 X148.443 Y124.179 E132.385
G1 X153.56 Y129.294 E132.745
G1 X151.385 Y131.468 E132.899
G1 X152.298 Y132.38 E132.963
G1 X146.147 Y138.531 E133.397
G1 X145.233 Y137.621 E133.462
G1 X141.467 Y141.386 E133.727
G1 X120.657 Y120.575 E135.196
G1 X119.034 Y115.057 E135.482
G1 X121.615 E135.611
G1 Y105.995 E136.063
G1 X109.632 E136.661
G1 Y115.057 E137.113
G1 X112.214 E137.242
G1 X110.589 Y120.582 E137.529
G1 X89.659 Y141.264 E138.997
G1 X85.959 Y137.565 E139.258
G1 X85.045 Y138.474 E139.323
G1 X78.894 Y132.324 E139.757
G1 X79.806 Y131.412 E139.821
G1 X78.122 Y129.728 E139.94
G1 X77.097 Y130.754 E140.012
G1 X64.385 Y118.043 E140.909
G1 X71.562 Y110.884 E141.415
G1 X71.671 Y110.992 E141.423
G1 X86.939 Y95.725 E142.5
G1 X90.506 Y99.292 E142.751
G1 X89.137 Y100.66 E142.848
G1 X94.482 Y106.005 E143.225
G1 X95.85 Y104.637 E143.322
G1 X99.417 Y108.203 E143.573
G1 X84.15 Y123.472 E144.651
G1 X84.263 Y123.585 E144.659
G1 X83.237 Y124.611 E144.731
G1 X90.197 Y131.571 E145.222
G1 X103.264 Y118.505 E146.144
G1 Y103.816 E146.877
G1 X102.457 Y104.067 E146.919
G1 X102.113 Y103.657 E146.946
G1 X101.383 Y103.662 E146.982
G1 X100.351 Y101.757 E147.09
G1 X90.628 Y92.034 E147.776
G1 X97.905 Y84.758 E148.29
G1 X97.792 Y84.644 E148.298
G1 X104.376 Y78.06 E148.762
G1 X108.057 Y81.74 E149.022
G1 X99.429 Y90.368 E149.631
G1 X104.358 Y95.295 E149.978
G1 X104.568 Y95.477 E149.992
G1 X104.697 Y95.559 E150
G1 X106.14 Y96.215 E150.079
G1 X106.232 Y96.243 E150.084
G1 X108.761 Y96.683 E150.212
G1 X107.989 Y99.436 E150.354
G1 X127.984 E151.352
;rapid-leaky
G1 F236
G0 X127.584 Y99.836
;bead-skirt/brim
G1 Y118.67 F780 E152.292
G1 X141.05 Y132.137 E153.242
G1 X148.443 Y124.745 E153.763
G1 X152.994 Y129.294 E154.084
G1 X150.82 Y131.468 E154.238
G1 X151.732 Y132.38 E154.302
G1 X146.146 Y137.966 E154.696
G1 X145.232 Y137.056 E154.76
G1 X141.467 Y140.821 E155.026
G1 X121.012 Y120.364 E156.469
G1 X119.568 Y115.457 E156.725
G1 X122.015 E156.847
G1 Y105.595 E157.339
G1 X109.232 E157.976
G1 Y115.457 E158.468
G1 X111.68 E158.591
G1 X110.235 Y120.37 E158.846
G1 X89.66 Y140.7 E160.289
G1 X85.96 Y137 E160.55
G1 X85.046 Y137.909 E160.614
G1 X79.46 Y132.324 E161.009
G1 X80.372 Y131.412 E161.073
G1 X78.143 Y129.182 E161.23
G1 X82.692 Y124.631 E161.551
G1 X90.197 Y132.136 E162.081
G1 X103.664 Y118.67 E163.031
G1 Y103.273 E163.799
G1 X102.592 Y103.606 E163.855
G1 X102.299 Y103.255 E163.878
G1 X101.621 Y103.26 E163.912
G1 X100.667 Y101.508 E164.011
G1 X91.194 Y92.034 E164.68
G1 X98.471 Y84.758 E165.193
G1 X98.357 Y84.644 E165.201
G1 X104.376 Y78.625 E165.626
G1 X107.491 Y81.74 E165.846
G1 X98.863 Y90.368 E166.454
G1 X104.085 Y95.588 E166.823
G1 X104.328 Y95.799 E166.839
G1 X104.505 Y95.912 E166.849
G1 X105.998 Y96.59 E166.931
G1 X106.139 Y96.633 E166.938
G1 X108.257 Y97.001 E167.046
G1 X107.462 Y99.836 E167.192
G1 X127.584 E168.196
;rapid-leaky
G1 F236
G0 X127.184 Y100.236
;bead-skirt/brim
G1 Y118.836 F780 E169.124
G1 X141.05 Y132.702 E170.103
G1 X148.443 Y125.31 E170.624
G1 X152.428 Y129.294 E170.905
G1 X150.254 Y131.468 E171.059
G1 X151.166 Y132.38 E171.123
G1 X146.146 Y137.401 E171.477
G1 X145.231 Y136.491 E171.542
G1 X141.467 Y140.255 E171.807
G1 X121.367 Y120.153 E173.226
G1 X120.103 Y115.857 E173.449
G1 X122.415 E173.564
G1 Y105.195 E174.096
G1 X108.832 E174.774
G1 Y115.857 E175.306
G1 X111.145 E175.421
G1 X109.88 Y120.158 E175.645
G1 X89.662 Y140.136 E177.063
G1 X85.961 Y136.435 E177.324
G1 X85.046 Y137.344 E177.388
G1 X80.026 Y132.324 E177.743
G1 X80.938 Y131.412 E177.807
G1 X78.708 Y129.182 E177.964
G1 X82.692 Y125.197 E178.245
G1 X90.197 Y132.702 E178.775
G1 X104.064 Y118.836 E179.753
G1 Y102.729 E180.557
G1 X102.728 Y103.145 E180.627
G1 X102.484 Y102.854 E180.646
G1 X101.859 Y102.859 E180.677
G1 X101.095 Y101.44 E180.757
G1 X100.983 Y101.258 E180.768
G1 X91.76 Y92.034 E181.419
G1 X99.037 Y84.758 E181.932
G1 X98.923 Y84.644 E181.94
G1 X104.376 Y79.191 E182.325
G1 X106.925 Y81.74 E182.505
G1 X98.298 Y90.368 E183.113
G1 X103.812 Y95.881 E183.503
G1 X104.089 Y96.12 E183.521
G1 X104.314 Y96.264 E183.534
G1 X105.857 Y96.965 E183.619
G1 X106.046 Y97.023 E183.629
G1 X107.752 Y97.319 E183.715
G1 X106.934 Y100.236 E183.866
G1 X127.184 E184.876
;rapid-leaky
G1 F236
G0 X126.784 Y100.636
;bead-skirt/brim
G1 Y119.002 F780 E185.793
G1 X141.05 Y133.268 E186.799
G1 X148.443 Y125.876 E187.321
G1 X151.862 Y129.294 E187.562
G1 X149.688 Y131.468 E187.715
G1 X150.601 Y132.38 E187.78
G1 X146.145 Y136.836 E188.094
G1 X145.231 Y135.926 E188.158
G1 X141.467 Y139.689 E188.424
G1 X121.722 Y119.943 E189.817
G1 X120.638 Y116.257 E190.009
G1 X122.815 E190.117
G1 Y104.795 E190.689
G1 X108.432 E191.407
G1 Y116.257 E191.979
G1 X110.61 E192.087
G1 X109.526 Y119.946 E192.279
G1 X89.664 Y139.572 E193.672
G1 X85.961 Y135.87 E193.933
G1 X85.047 Y136.779 E193.998
G1 X80.591 Y132.324 E194.312
G1 X81.504 Y131.412 E194.377
G1 X79.274 Y129.182 E194.534
G1 X82.692 Y125.763 E194.775
G1 X90.197 Y133.268 E195.305
G1 X104.464 Y119.002 E196.311
G1 Y102.186 E197.15
G1 X102.864 Y102.684 E197.234
G1 X102.67 Y102.452 E197.249
G1 X102.097 Y102.457 E197.277
G1 X101.442 Y101.24 E197.346
G1 X101.298 Y101.008 E197.36
G1 X92.326 Y92.034 E197.993
G1 X99.603 Y84.758 E198.507
G1 X99.489 Y84.644 E198.515
G1 X104.376 Y79.757 E198.859
G1 X106.36 Y81.74 E198.999
G1 X97.732 Y90.368 E199.608
G1 X103.54 Y96.174 E200.018
G1 X103.849 Y96.442 E200.038
G1 X104.123 Y96.616 E200.054
G1 X105.715 Y97.34 E200.142
G1 X105.953 Y97.413 E200.154
G1 X107.247 Y97.638 E200.22
G1 X106.568 Y100.06 E200.345
G1 X105.301 E200.408
G1 X104.57 Y100.019 E200.445
G1 X104.537 Y100.136 E200.451
G1 X104.194 Y100.243 E200.469
G1 X104.464 Y100.848 E200.502
G1 Y100.636 E200.512
G1 X126.784 E201.626
;rapid-leaky
G1 F236
G0 X126.384 Y101.036
;bead-skirt/brim
G1 Y119.167 F780 E202.531
G1 X141.05 Y133.833 E203.565
G1 X148.443 Y126.442 E204.087
G1 X151.297 Y129.294 E204.288
G1 X149.123 Y131.468 E204.442
G1 X150.035 Y132.38 E204.506
G1 X146.144 Y136.271 E204.78
G1 X145.23 Y135.361 E204.845
G1 X141.467 Y139.124 E205.11
G1 X122.077 Y119.732 E206.478
G1 X121.172 Y116.657 E206.638
G1 X123.215 E206.74
G1 Y104.395 E207.352
G1 X108.032 E208.11
G1 Y116.657 E208.721
G1 X110.076 E208.823
G1 X109.171 Y119.734 E208.983
G1 X89.665 Y139.008 E210.351
G1 X85.962 Y135.305 E210.613
G1 X85.048 Y136.215 E210.677
G1 X81.157 Y132.324 E210.951
G1 X82.069 Y131.412 E211.016
G1 X79.84 Y129.182 E211.173
G1 X82.692 Y126.328 E211.374
G1 X90.197 Y133.833 E211.904
G1 X104.864 Y119.167 E212.939
G1 Y101.036 E213.843
G1 X126.384 E214.917
;rapid-leaky
G1 F236
G0 X125.984 Y101.436
;bead-skirt/brim
G1 Y119.333 F780 E215.81
G1 X141.05 Y134.399 E216.873
G1 X148.443 Y127.007 E217.394
G1 X150.731 Y129.294 E217.556
G1 X141.467 Y138.558 E218.209
G1 X122.432 Y119.521 E219.553
G1 X121.707 Y117.057 E219.681
G1 X123.615 E219.776
G1 Y103.995 E220.428
G1 X107.632 E221.225
G1 Y117.057 E221.877
G1 X109.541 E221.972
G1 X108.816 Y119.522 E222.1
G1 X89.667 Y138.444 E223.443
G1 X80.405 Y129.182 E224.097
G1 X82.692 Y126.894 E224.258
G1 X90.197 Y134.399 E224.788
G1 X105.264 Y119.333 E225.851
G1 Y101.436 E226.743
G1 X125.984 E227.777
;rapid-leaky
G1 F236
G0 X106.743 Y97.956
;bead-skirt/brim
G1 X106.265 Y99.66 F780 E227.865
G1 X105.312 E227.913
G1 X104.271 Y99.602 E227.965
G1 X104.211 Y99.819 E227.976
G1 X103.637 Y99.998 E228.006
G1 X104 Y100.769 E228.049
G1 X104.413 Y101.783 E228.103
G1 X102.999 Y102.223 E228.177
G1 X102.856 Y102.051 E228.188
G1 X102.335 Y102.055 E228.214
G1 X101.788 Y101.04 E228.272
G1 X101.614 Y100.758 E228.288
G1 X92.891 Y92.034 E228.904
G1 X100.168 Y84.758 E229.417
G1 X100.055 Y84.644 E229.425
G1 X104.376 Y80.323 E229.73
G1 X105.794 Y81.74 E229.83
G1 X97.166 Y90.368 E230.439
G1 X103.267 Y96.467 E230.869
G1 X103.609 Y96.763 E230.892
G1 X103.931 Y96.969 E230.911
G1 X105.573 Y97.715 E231.001
G1 X105.86 Y97.803 E231.016
G1 X106.743 Y97.956 E231.061
;rapid-leaky
G1 F236
G0 X106.238 Y98.274
;bead-skirt/brim
G1 X105.961 Y99.26 F780 E231.112
G1 X105.323 E231.144
G1 X103.973 Y99.185 E231.211
G1 X103.884 Y99.502 E231.227
G1 X103.079 Y99.752 E231.27
G1 X103.634 Y100.93 E231.334
G1 X103.878 Y101.53 E231.367
G1 X103.135 Y101.762 E231.406
G1 X103.041 Y101.65 E231.413
G1 X102.573 Y101.653 E231.436
G1 X102.135 Y100.84 E231.482
G1 X101.93 Y100.508 E231.502
G1 X93.457 Y92.034 E232.1
G1 X100.734 Y84.758 E232.613
G1 X100.62 Y84.644 E232.621
G1 X104.376 Y80.888 E232.886
G1 X105.228 Y81.74 E232.946
G1 X96.6 Y90.368 E233.555
G1 X102.995 Y96.76 E234.006
G1 X103.369 Y97.085 E234.031
G1 X103.74 Y97.321 E234.053
G1 X105.431 Y98.09 E234.145
G1 X105.767 Y98.192 E234.163
G1 X106.238 Y98.274 E234.187
;rapid-leaky
G1 F236
G0 X101.664 Y108.219
;bead-skirt/brim
G1 X86.412 Y123.472 F780 E235.263
G1 X86.525 Y123.585 E235.271
G1 X85.5 Y124.611 E235.343
G1 X90.197 Y129.308 E235.675
G1 X101.664 Y117.842 E236.484
G1 Y108.219 E236.964
;rapid-leaky
G1 F236
G0 X98.851 Y108.203
;bead-skirt/brim
G1 X83.584 Y123.472 F780 E238.041
G1 X83.697 Y123.585 E238.049
G1 X77.096 Y130.188 E238.515
G1 X64.952 Y118.043 E239.372
G1 X71.562 Y111.449 E239.838
G1 X71.671 Y111.558 E239.845
G1 X86.939 Y96.291 E240.922
G1 X89.94 Y99.292 E241.134
G1 X88.572 Y100.66 E241.231
G1 X94.482 Y106.571 E241.648
G1 X95.85 Y105.202 E241.744
G1 X98.851 Y108.203 E241.956
;rapid-leaky
G1 F236
G0 X98.286
;bead-skirt/brim
G1 X83.018 Y123.472 F780 E243.033
G1 X83.132 Y123.585 E243.041
G1 X77.096 Y129.622 E243.467
G1 X65.518 Y118.044 E244.284
G1 X71.562 Y112.014 E244.71
G1 X71.671 Y112.123 E244.718
G1 X86.939 Y96.856 E245.795
G1 X89.374 Y99.292 E245.967
G1 X88.006 Y100.66 E246.063
G1 X94.482 Y107.136 E246.52
G1 X95.85 Y105.768 E246.617
G1 X98.286 Y108.203 E246.789
;rapid-leaky
G1 F236
G0 X97.72
;bead-skirt/brim
G1 X82.453 Y123.472 F780 E247.866
G1 X82.566 Y123.585 E247.874
G1 X77.096 Y129.057 E248.26
G1 X66.084 Y118.044 E249.037
G1 X71.561 Y112.58 E249.423
G1 X71.671 Y112.689 E249.43
G1 X86.939 Y97.422 E250.508
G1 X88.809 Y99.292 E250.64
G1 X87.44 Y100.66 E250.736
G1 X94.482 Y107.702 E251.233
G1 X95.85 Y106.334 E251.33
G1 X97.72 Y108.203 E251.461
;rapid-leaky
G1 F236
G0 X97.154
;bead-skirt/brim
G1 X81.887 Y123.472 F780 E252.539
G1 X82 Y123.585 E252.547
G1 X77.096 Y128.491 E252.893
G1 X66.65 Y118.044 E253.63
G1 X71.561 Y113.145 E253.976
G1 X71.671 Y113.255 E253.984
G1 X86.938 Y97.988 E255.061
G1 X88.243 Y99.292 E255.153
G1 X86.874 Y100.66 E255.249
G1 X94.482 Y108.268 E255.786
G1 X95.85 Y106.899 E255.883
G1 X97.154 Y108.203 E255.975
;rapid-leaky
G1 F236
G0 X96.589 Y108.204
;bead-skirt/brim
G1 X81.321 Y123.472 F780 E257.052
G1 X81.435 Y123.585 E257.06
G1 X77.096 Y127.925 E257.366
G1 X67.216 Y118.045 E258.063
G1 X71.561 Y113.711 E258.369
G1 X71.67 Y113.821 E258.377
G1 X86.938 Y98.553 E259.454
G1 X87.677 Y99.292 E259.507
G1 X86.309 Y100.66 E259.603
G1 X94.482 Y108.833 E260.18
G1 X95.85 Y107.465 E260.276
G1 X96.589 Y108.204 E260.328
;rapid-leaky
G1 F236
G0 X82.462 Y131.585
;bead-skirt/brim
G1 X85.789 Y134.912 F780 E260.563
G1 X85.048 Y135.65 E260.615
G1 X81.723 Y132.324 E260.85
G1 X82.462 Y131.585 E260.902
;rapid-leaky
G1 F236
G0 X145.403 Y134.969
;bead-skirt/brim
G1 X148.73 Y131.641 F780 E261.137
G1 X149.469 Y132.38 E261.189
G1 X146.144 Y135.706 E261.424
G1 X145.403 Y134.969 E261.476
G1 F1800 E251.476
;rapid-dry
G1 F236
G0 X141.05 Y135.481
G1 F1800 E261.476
;bead-perimeter_inner
G1 X148.443 Y128.089 F780 E261.997
G1 X149.649 Y129.294 E262.082
G1 X141.467 Y137.476 E262.66
G1 X123.11 Y119.118 E263.955
G1 X122.729 Y117.822 E264.022
G1 X124.38 E264.105
G1 Y103.23 E264.833
G1 X106.867 E265.706
G1 Y117.822 E266.434
G1 X108.519 E266.517
G1 X108.138 Y119.117 E266.584
G1 X89.67 Y137.365 E267.879
G1 X81.487 Y129.182 E268.457
G1 X82.692 Y127.976 E268.542
G1 X90.197 Y135.481 E269.071
G1 X106.029 Y119.65 E270.188
G1 Y102.201 E271.059
G1 X125.219 E272.016
G1 Y119.65 E272.887
G1 X141.05 Y135.481 E274.004
;rapid-leaky
G1 F236
G0 Y134.965
;bead-perimeter_outer
G1 X148.443 Y127.573 F540 E274.525
G1 X150.165 Y129.294 E274.647
G1 X141.467 Y137.992 E275.26
G1 X122.786 Y119.311 E276.579
G1 X122.241 Y117.457 E276.675
G1 X124.015 E276.763
G1 Y103.595 E277.455
G1 X107.232 E278.292
G1 Y117.457 E278.984
G1 X109.007 E279.072
G1 X108.462 Y119.31 E279.169
G1 X89.669 Y137.88 E280.487
G1 X80.971 Y129.182 E281.101
G1 X82.692 Y127.46 E281.222
G1 X90.197 Y134.965 E281.752
G1 X105.664 Y119.499 E282.843
G1 Y101.836 E283.724
G1 X125.584 E284.718
G1 Y119.499 E285.599
G1 X141.05 Y134.965 E286.69
G1 F1800 E276.69
;rapid-dry
G1 F236
G0 X141.191 Y136.747
G1 F1800 E286.69
;bead-solid_infill
G1 X148.92 Y129.018 F1200 E287.236
G1 X148.637 Y128.735 E287.256
G1 X140.908 Y136.464 E287.801
G1 X140.625 Y136.181 E287.821
G1 X140.962 Y135.845 E287.845
G1 X140.679 Y135.562 E287.865
G1 X140.342 Y135.899 E287.888
G1 X140.059 Y135.616 E287.908
G1 X140.396 Y135.279 E287.932
G1 X140.113 Y134.997 E287.952
G1 X139.777 Y135.333 E287.976
G1 X139.494 Y135.05 E287.996
G1 X139.83 Y134.714 E288.019
G1 X139.547 Y134.431 E288.039
G1 X139.211 Y134.767 E288.063
G1 X138.928 Y134.484 E288.083
G1 X139.264 Y134.148 E288.107
G1 X138.982 Y133.865 E288.127
G1 X138.645 Y134.202 E288.15
G1 X138.362 Y133.919 E288.17
G1 X138.699 Y133.582 E288.194
G1 X138.416 Y133.3 E288.214
G1 X138.08 Y133.636 E288.238
G1 X137.797 Y133.353 E288.258
G1 X138.133 Y133.017 E288.281
G1 X137.85 Y132.734 E288.301
G1 X137.514 Y133.07 E288.325
G1 X137.231 Y132.787 E288.345
G1 X137.567 Y132.451 E288.369
G1 X137.285 Y132.168 E288.389
G1 X136.948 Y132.504 E288.412
G1 X136.665 Y132.222 E288.432
G1 X137.002 Y131.885 E288.456
G1 X136.719 Y131.602 E288.476
G1 X136.383 Y131.939 E288.5
G1 X136.1 Y131.656 E288.52
G1 X136.436 Y131.32 E288.543
G1 X136.153 Y131.037 E288.563
G1 X135.817 Y131.373 E288.587
G1 X135.534 Y131.09 E288.607
G1 X135.87 Y130.754 E288.631
G1 X135.587 Y130.471 E288.651
G1 X135.251 Y130.807 E288.675
G1 X134.968 Y130.524 E288.694
G1 X135.305 Y130.188 E288.718
G1 X135.022 Y129.905 E288.738
G1 X134.686 Y130.242 E288.762
G1 X134.403 Y129.959 E288.782
G1 X134.739 Y129.623 E288.806
G1 X134.456 Y129.34 E288.826
G1 X134.12 Y129.676 E288.849
G1 X133.837 Y129.393 E288.869
G1 X134.173 Y129.057 E288.893
G1 X133.89 Y128.774 E288.913
G1 X133.554 Y129.11 E288.937
G1 X133.271 Y128.827 E288.957
G1 X133.608 Y128.491 E288.98
G1 X133.325 Y128.208 E289
G1 X132.989 Y128.545 E289.024
G1 X132.706 Y128.262 E289.044
G1 X133.042 Y127.925 E289.068
G1 X132.759 Y127.643 E289.088
G1 X132.423 Y127.979 E289.111
G1 X132.14 Y127.696 E289.131
G1 X132.476 Y127.36 E289.155
G1 X132.193 Y127.077 E289.175
G1 X131.857 Y127.413 E289.199
G1 X131.574 Y127.13 E289.219
G1 X131.911 Y126.794 E289.242
G1 X131.628 Y126.511 E289.262
G1 X131.292 Y126.847 E289.286
G1 X131.009 Y126.565 E289.306
G1 X131.345 Y126.228 E289.33
G1 X131.062 Y125.946 E289.35
G1 X130.726 Y126.282 E289.373
G1 X130.443 Y125.999 E289.393
G1 X130.779 Y125.663 E289.417
G1 X130.496 Y125.38 E289.437
G1 X130.16 Y125.716 E289.461
G1 X129.877 Y125.433 E289.481
G1 X130.213 Y125.097 E289.504
G1 X129.931 Y124.814 E289.524
G1 X129.595 Y125.15 E289.548
G1 X129.312 Y124.867 E289.568
G1 X129.648 Y124.531 E289.592
G1 X129.365 Y124.249 E289.612
G1 X129.029 Y124.585 E289.635
G1 X128.746 Y124.302 E289.655
G1 X129.082 Y123.966 E289.679
G1 X128.799 Y123.683 E289.699
G1 X128.463 Y124.019 E289.723
G1 X128.18 Y123.736 E289.743
G1 X128.516 Y123.4 E289.766
G1 X128.234 Y123.117 E289.786
G1 X127.898 Y123.453 E289.81
G1 X127.615 Y123.17 E289.83
G1 X127.951 Y122.834 E289.854
G1 X127.668 Y122.551 E289.874
G1 X127.332 Y122.888 E289.897
G1 X127.049 Y122.605 E289.917
G1 X127.385 Y122.269 E289.941
G1 X127.102 Y121.986 E289.961
G1 X126.766 Y122.322 E289.985
G1 X126.483 Y122.039 E290.005
G1 X126.819 Y121.703 E290.028
G1 X126.537 Y121.42 E290.048
G1 X126.201 Y121.756 E290.072
G1 X125.918 Y121.473 E290.092
G1 X126.254 Y121.137 E290.116
G1 X125.971 Y120.854 E290.136
G1 X125.635 Y121.19 E290.159
G1 X125.352 Y120.908 E290.179
G1 X125.688 Y120.572 E290.203
G1 X125.405 Y120.289 E290.223
G1 X125.069 Y120.625 E290.247
G1 X124.786 Y120.342 E290.267
G1 X125.122 Y120.006 E290.29
G1 X124.899 Y119.783 E290.306
G1 Y119.664 E290.312
G1 X124.504 Y120.059 E290.34
G1 X124.221 Y119.776 E290.36
G1 X124.899 Y119.098 E290.408
G1 Y118.532 E290.436
G1 X123.938 Y119.493 E290.504
G1 X123.655 Y119.21 E290.524
G1 X124.899 Y117.966 E290.611
G1 Y117.401 E290.64
G1 X124.7 Y117.6 E290.654
G1 Y117.034 E290.682
G1 X124.899 Y116.835 E290.696
G1 Y116.269 E290.724
G1 X124.7 Y116.468 E290.738
G1 Y115.903 E290.766
G1 X124.899 Y115.704 E290.78
G1 Y115.138 E290.809
G1 X124.7 Y115.337 E290.823
G1 Y114.771 E290.851
G1 X124.899 Y114.572 E290.865
G1 Y114.007 E290.893
G1 X124.7 Y114.206 E290.907
G1 Y113.64 E290.935
G1 X124.899 Y113.441 E290.95
G1 Y112.875 E290.978
G1 X124.7 Y113.074 E290.992
G1 Y112.509 E291.02
G1 X124.899 Y112.31 E291.034
G1 Y111.744 E291.062
G1 X124.7 Y111.943 E291.076
G1 Y111.377 E291.105
G1 X124.899 Y111.178 E291.119
G1 Y110.613 E291.147
G1 X124.7 Y110.812 E291.161
G1 Y110.246 E291.189
G1 X124.899 Y110.047 E291.203
G1 Y109.481 E291.231
G1 X124.7 Y109.68 E291.245
G1 Y109.115 E291.274
G1 X124.899 Y108.916 E291.288
G1 Y108.35 E291.316
G1 X124.7 Y108.549 E291.33
G1 Y107.983 E291.358
G1 X124.899 Y107.784 E291.372
G1 Y107.218 E291.4
G1 X124.7 Y107.417 E291.414
G1 Y106.852 E291.443
G1 X124.899 Y106.653 E291.457
G1 Y106.087 E291.485
G1 X124.7 Y106.286 E291.499
G1 Y105.72 E291.527
G1 X124.899 Y105.521 E291.541
G1 Y104.956 E291.569
G1 X124.7 Y105.155 E291.583
G1 Y104.589 E291.612
G1 X124.899 Y104.39 E291.626
G1 Y103.824 E291.654
G1 X124.7 Y104.023 E291.668
G1 Y103.458 E291.696
G1 X124.899 Y103.259 E291.71
G1 Y102.693 E291.738
G1 X124.682 Y102.91 E291.754
G1 X124.116 E291.782
G1 X124.505 Y102.521 E291.809
G1 X123.94 E291.838
G1 X123.551 Y102.91 E291.865
G1 X122.985 E291.893
G1 X123.374 Y102.521 E291.921
G1 X122.808 E291.949
G1 X122.419 Y102.91 E291.976
G1 X121.854 E292.005
G1 X122.243 Y102.521 E292.032
G1 X121.677 E292.06
G1 X121.288 Y102.91 E292.088
G1 X120.722 E292.116
G1 X121.111 Y102.521 E292.143
G1 X120.545 E292.172
G1 X120.156 Y102.91 E292.199
G1 X119.591 E292.227
G1 X119.98 Y102.521 E292.255
G1 X119.414 E292.283
G1 X119.025 Y102.91 E292.31
G1 X118.459 E292.339
G1 X118.848 Y102.521 E292.366
G1 X118.283 E292.394
G1 X117.894 Y102.91 E292.422
G1 X117.328 E292.45
G1 X117.717 Y102.521 E292.478
G1 X117.151 E292.506
G1 X116.762 Y102.91 E292.533
G1 X116.197 E292.561
G1 X116.586 Y102.521 E292.589
G1 X116.02 E292.617
G1 X115.631 Y102.91 E292.645
G1 X115.065 E292.673
G1 X115.454 Y102.521 E292.7
G1 X114.889 E292.728
G1 X114.5 Y102.91 E292.756
G1 X113.934 E292.784
G1 X114.323 Y102.521 E292.812
G1 X113.757 E292.84
G1 X113.368 Y102.91 E292.867
G1 X112.803 E292.895
G1 X113.192 Y102.521 E292.923
G1 X112.626 E292.951
G1 X112.237 Y102.91 E292.979
G1 X111.671 E293.007
G1 X112.06 Y102.521 E293.034
G1 X111.495 E293.062
G1 X111.105 Y102.91 E293.09
G1 X110.54 E293.118
G1 X110.929 Y102.521 E293.146
G1 X110.363 E293.174
G1 X109.974 Y102.91 E293.201
G1 X109.408 E293.229
G1 X109.797 Y102.521 E293.257
G1 X109.232 E293.285
G1 X108.843 Y102.91 E293.313
G1 X108.277 E293.341
G1 X108.666 Y102.521 E293.368
G1 X108.1 E293.396
G1 X107.711 Y102.91 E293.424
G1 X107.146 E293.452
G1 X107.535 Y102.521 E293.48
G1 F1800 E283.48
;rapid-dry
G1 F236
G0 X105.648 Y98.729
G1 F1800 E293.48
;bead-support-structure
G1 X104.813 Y98.681 F2100 E293.521
G1 X103.4 Y98.436 E293.593
G1 X102.991 Y99.223 E293.637
G1 X102.276 Y99.46 E293.675
G1 X103.158 Y101.096 E293.767
G1 X103.064 Y101.204 E293.775
G1 X102.169 Y99.55 E293.868
G1 X101.913 Y99.294 E293.887
G1 X102.91 Y97.859 E293.974
G1 X103.796 Y98.264 E294.022
G1 X104.353 Y98.435 E294.051
G1 X105.026 Y98.553 E294.086
G1 F1800 E284.086
G1 F236
G0 X104.353 Y98.435
G0 X104.242 Y98.401
G0 X104.353 Y98.435
G0 X105.026 Y98.553
;rapid-dry
G1 F236
G0 X95.475 Y90.929
G1 F1800 E294.086
;bead-support-structure
G1 X96.363 Y90.041 F2100 E294.148
G1 X96.503 Y90.181 E294.158
G1 X96.002 Y90.682 E294.193
G1 X95.862 Y90.542 E294.203
G1 X94.536 Y91.866 E294.297
G1 F1800 E284.297
G1 F236
G0 X95.102 Y91.301
G0 X94.536 Y91.866
;rapid-dry
G1 F236
G0 X90.253 Y104.889
G1 F1800 E294.297
;bead-support-structure
G1 X75.899 Y119.243 F2100 E295.31
G1 X75.956 Y119.3 E295.314
G1 X83.594 Y116.765 E295.715
G1 X78.377 Y111.548 E296.083
G1 X77.613 Y111.18 E296.125
G1 X82.077 Y106.717 E296.44
G1 X82.445 Y107.48 E296.483
G1 X87.662 Y112.697 E296.851
G1 X88.425 Y113.065 E296.893
G1 X83.962 Y117.529 E297.208
G1 X85.072 Y117.84 E297.266
G1 X88.736 Y114.175 E297.524
G1 F1800 E287.524
G1 F236
G0 X88.171 Y114.741
G0 X88.736 Y114.175
;rapid-dry
G1 F236
G0 X80.967 Y106.406
G1 F1800 E297.524
;bead-support-structure
G1 X77.302 Y110.07 F2100 E297.783
G1 F1800 E287.783
G1 F236
G0 X77.868 Y109.505
G0 X77.302 Y110.07
;rapid-dry
G1 F236
G0 X74.594 Y120.549
G1 F1800 E297.783
;bead-support-structure
G1 X74.059 Y121.084 F2100 E297.82
G1 F1800 E287.82
G1 F236
G0 X74.594 Y120.549
G0 X74.059 Y121.084
;rapid-dry
G1 F236
G0 X72.467 Y122.155
G1 F1800 E297.82
;bead-support-structure
G1 X73.033 Y122.721 F2100 E297.86
G1 F1800 E287.86
G1 F236
G0 X72.467 Y122.155
G0 X73.033 Y122.721
;rapid-dry
G1 F236
G0 X78.055 Y124.292
G1 F1800 E297.86
;bead-support-structure
G1 X77.096 Y125.252 F2100 E297.928
G1 X69.89 Y118.046 E298.436
G1 X71.559 Y116.382 E298.554
G1 X78.762 Y123.585 E299.062
G1 F1800 E289.062
G1 F236
G0 X78.196 Y123.019
G0 X78.762 Y123.585
;rapid-dry
G1 F236
G0 X82.725 Y128.462
G1 F1800 E299.062
;bead-solid_infill
G1 X81.972 Y129.215 F1200 E299.115
G1 X82.255 Y129.498 E299.135
G1 X83.008 Y128.745 E299.188
G1 X83.291 Y129.028 E299.208
G1 X82.538 Y129.78 E299.262
G1 X82.821 Y130.063 E299.281
G1 X83.574 Y129.31 E299.335
G1 X83.857 Y129.593 E299.355
G1 X83.104 Y130.346 E299.408
G1 X83.387 Y130.629 E299.428
G1 X84.139 Y129.876 E299.481
G1 X84.422 Y130.159 E299.501
G1 X83.669 Y130.912 E299.554
G1 X83.952 Y131.195 E299.574
G1 X84.705 Y130.442 E299.627
G1 X84.988 Y130.725 E299.647
G1 X84.235 Y131.477 E299.7
G1 X84.518 Y131.76 E299.72
G1 X85.271 Y131.007 E299.773
G1 X85.554 Y131.29 E299.793
G1 X84.801 Y132.043 E299.846
G1 X85.084 Y132.326 E299.866
G1 X85.837 Y131.573 E299.919
G1 X86.119 Y131.856 E299.939
G1 X85.366 Y132.609 E299.992
G1 X85.649 Y132.892 E300.012
G1 X86.402 Y132.139 E300.065
G1 X86.685 Y132.422 E300.085
G1 X85.932 Y133.175 E300.138
G1 X86.215 Y133.457 E300.158
G1 X86.968 Y132.704 E300.212
G1 X87.251 Y132.987 E300.231
G1 X86.498 Y133.74 E300.285
G1 X86.781 Y134.023 E300.305
G1 X87.534 Y133.27 E300.358
G1 X87.816 Y133.553 E300.378
G1 X87.064 Y134.306 E300.431
G1 X87.346 Y134.589 E300.451
G1 X88.099 Y133.836 E300.504
G1 X88.382 Y134.119 E300.524
G1 X87.629 Y134.872 E300.577
G1 X87.912 Y135.154 E300.597
G1 X88.665 Y134.402 E300.65
G1 X88.948 Y134.684 E300.67
G1 X88.195 Y135.437 E300.723
G1 X88.478 Y135.72 E300.743
G1 X89.231 Y134.967 E300.796
G1 X89.513 Y135.25 E300.816
G1 X88.761 Y136.003 E300.869
G1 X89.043 Y136.286 E300.889
G1 X89.796 Y135.533 E300.942
G1 X90.079 Y135.816 E300.962
G1 X89.326 Y136.569 E301.015
G1 X89.609 Y136.852 E301.035
G1 X107.997 Y118.464 E302.333
G1 X108.091 Y118.142 E302.349
G1 X107.753 E302.366
G1 X106.349 Y119.546 E302.465
G1 Y118.98 E302.494
G1 X107.187 Y118.142 E302.553
G1 X106.622 E302.581
G1 X106.349 Y118.415 E302.6
G1 Y117.849 E302.628
G1 X106.547 Y117.651 E302.642
G1 Y117.085 E302.671
G1 X106.349 Y117.283 E302.685
G1 Y116.717 E302.713
G1 X106.547 Y116.519 E302.727
G1 Y115.954 E302.755
G1 X106.349 Y116.152 E302.769
G1 Y115.586 E302.797
G1 X106.547 Y115.388 E302.811
G1 Y114.822 E302.839
G1 X106.349 Y115.02 E302.853
G1 Y114.455 E302.882
G1 X106.547 Y114.257 E302.896
G1 Y113.691 E302.924
G1 X106.349 Y113.889 E302.938
G1 Y113.323 E302.966
G1 X106.547 Y113.125 E302.98
G1 Y112.56 E303.008
G1 X106.349 Y112.758 E303.022
G1 Y112.192 E303.05
G1 X106.547 Y111.994 E303.064
G1 Y111.428 E303.093
G1 X106.349 Y111.626 E303.106
G1 Y111.061 E303.135
G1 X106.547 Y110.863 E303.149
G1 Y110.297 E303.177
G1 X106.349 Y110.495 E303.191
G1 Y109.929 E303.219
G1 X106.547 Y109.731 E303.233
G1 Y109.166 E303.261
G1 X106.349 Y109.364 E303.275
G1 Y108.798 E303.303
G1 X106.547 Y108.6 E303.317
G1 Y108.034 E303.346
G1 X106.349 Y108.232 E303.36
G1 Y107.667 E303.388
G1 X106.547 Y107.468 E303.402
G1 Y106.903 E303.43
G1 X106.349 Y107.101 E303.444
G1 Y106.535 E303.472
G1 X106.547 Y106.337 E303.486
G1 Y105.771 E303.514
G1 X106.349 Y105.969 E303.528
G1 Y105.404 E303.557
G1 X106.547 Y105.206 E303.571
G1 Y104.64 E303.599
G1 X106.349 Y104.838 E303.613
G1 Y104.272 E303.641
G1 X106.547 Y104.074 E303.655
G1 Y103.509 E303.683
G1 X106.349 Y103.707 E303.697
G1 Y103.141 E303.725
G1 X106.547 Y102.943 E303.739
G1 Y102.91 E303.741
G1 X106.58 E303.743
G1 X106.969 Y102.521 E303.77
G1 X106.403 E303.798
G1 X106.349 Y102.575 E303.802
G1 F1800 E293.802
;rapid-dry
G1 F236
G0 X123.256 Y118.478
G1 F1800 E303.802
;bead-solid_infill
G1 X123.592 Y118.142 F1200 E303.826
G1 X124.158 E303.854
G1 X123.384 Y118.916 E303.909
G1 F1800 E293.909
;Layer : 2 of 325
M106 S255
;rapid-leaky
G1 F236
G0 X123.11 Y119.118 Z0.5
G1 F1800 E303.909
;bead-perimeter_inner
G1 X122.729 Y117.822 F1560 E303.954
G1 X124.38 E304.009
G1 Y103.23 E304.494
G1 X106.867 E305.076
G1 Y117.822 E305.562
G1 X108.519 E305.617
G1 X108.138 Y119.117 E305.662
G1 X89.67 Y137.365 E306.525
G1 X81.487 Y129.182 E306.91
G1 X82.692 Y127.976 E306.967
G1 X90.197 Y135.481 E307.32
G1 X106.029 Y119.65 E308.064
G1 Y102.201 E308.645
G1 X125.219 E309.283
G1 Y119.65 E309.863
G1 X141.05 Y135.481 E310.608
G1 X148.443 Y128.089 E310.956
G1 X149.649 Y129.294 E311.012
G1 X141.467 Y137.476 E311.397
G1 X123.11 Y119.118 E312.261
;rapid-leaky
G1 F236
G0 X122.786 Y119.311
;bead-perimeter_outer
G1 X122.241 Y117.457 F1080 E312.325
G1 X124.015 E312.384
G1 Y103.595 E312.845
G1 X107.232 E313.403
G1 Y117.457 E313.864
G1 X109.007 E313.923
G1 X108.462 Y119.31 E313.988
G1 X89.669 Y137.88 E314.866
G1 X80.971 Y129.182 E315.275
G1 X82.692 Y127.46 E315.356
G1 X90.197 Y134.965 E315.709
G1 X105.664 Y119.499 E316.437
G1 Y101.836 E317.024
G1 X125.584 E317.687
G1 Y119.499 E318.274
G1 X141.05 Y134.965 E319.002
G1 X148.443 Y127.573 E319.35
G1 X150.165 Y129.294 E319.431
G1 X141.467 Y137.992 E319.84
G1 X122.786 Y119.311 E320.718
G1 F1800 E310.718
;rapid-dry
G1 F236
G0 X107.98 Y118.52
G1 F1800 E320.718
;bead-solid_infill
G1 X107.602 Y118.142 F2400 E320.736
G1 X107.036 E320.755
G1 X107.848 Y118.954 E320.793
G1 F1800 E310.793
;rapid-dry
G1 F236
G0 X88.736 Y114.175
G1 F1800 E320.793
;bead-support-structure
G1 X85.072 Y117.84 F4200 E320.922
G1 X83.962 Y117.529 E320.951
G1 X88.425 Y113.065 E321.109
G1 X87.662 Y112.697 E321.13
G1 X82.445 Y107.48 E321.314
G1 X82.077 Y106.717 E321.335
G1 X77.613 Y111.18 E321.492
G1 X78.377 Y111.548 E321.514
G1 X83.594 Y116.765 E321.698
G1 X75.956 Y119.3 E321.898
G1 X75.899 Y119.243 E321.9
G1 X90.253 Y104.889 E322.407
G1 F1800 E312.407
G1 F236
G0 X89.688 Y105.454
G0 X90.253 Y104.889
;rapid-dry
G1 F236
G0 X80.967 Y106.406
G1 F1800 E322.407
;bead-support-structure
G1 X77.302 Y110.07 F4200 E322.536
G1 F1800 E312.536
G1 F236
G0 X77.868 Y109.505
G0 X77.302 Y110.07
;rapid-dry
G1 F236
G0 X74.594 Y120.549
G1 F1800 E322.536
;bead-support-structure
G1 X74.059 Y121.084 F4200 E322.555
G1 F1800 E312.555
G1 F236
G0 X74.594 Y120.549
G0 X74.059 Y121.084
;rapid-dry
G1 F236
G0 X72.467 Y122.155
G1 F1800 E322.555
;bead-support-structure
G1 X73.033 Y122.721 F4200 E322.575
G1 F1800 E312.575
G1 F236
G0 X72.467 Y122.155
G0 X73.033 Y122.721
;rapid-dry
G1 F236
G0 X78.055 Y124.292
G1 F1800 E322.575
;bead-support-structure
G1 X77.096 Y125.252 F4200 E322.609
G1 X69.89 Y118.046 E322.863
G1 X71.559 Y116.382 E322.922
G1 X78.762 Y123.585 E323.176
G1 F1800 E313.176
G1 F236
G0 X78.196 Y123.019
G0 X78.762 Y123.585
;rapid-dry
G1 F236
G0 X89.923 Y136.666
G1 F1800 E323.176
;bead-solid_infill
G1 X82.189 Y128.932 F2400 E323.54
G1 X82.471 Y128.65 E323.553
G1 X90.207 Y136.385 E323.917
G1 X90.492 Y136.104 E323.93
G1 X90.259 Y135.872 E323.941
G1 X90.542 Y135.589 E323.954
G1 X90.776 Y135.823 E323.965
G1 X91.061 Y135.542 E323.979
G1 X90.825 Y135.306 E323.99
G1 X91.108 Y135.023 E324.003
G1 X91.345 Y135.261 E324.014
G1 X91.63 Y134.979 E324.028
G1 X91.39 Y134.74 E324.039
G1 X91.673 Y134.457 E324.052
G1 X91.914 Y134.698 E324.063
G1 X92.199 Y134.417 E324.077
G1 X91.956 Y134.175 E324.088
G1 X92.239 Y133.892 E324.101
G1 X92.483 Y134.136 E324.113
G1 X92.768 Y133.855 E324.126
G1 X92.522 Y133.609 E324.138
G1 X92.805 Y133.326 E324.151
G1 X93.052 Y133.574 E324.163
G1 X93.337 Y133.292 E324.176
G1 X93.088 Y133.043 E324.188
G1 X93.37 Y132.76 E324.201
G1 X93.621 Y133.011 E324.213
G1 X93.906 Y132.73 E324.226
G1 X93.653 Y132.478 E324.238
G1 X93.936 Y132.195 E324.251
G1 X94.19 Y132.449 E324.263
G1 X94.475 Y132.168 E324.277
G1 X94.219 Y131.912 E324.289
G1 X94.502 Y131.629 E324.302
G1 X94.76 Y131.887 E324.314
G1 X95.044 Y131.606 E324.327
G1 X94.785 Y131.346 E324.34
G1 X95.068 Y131.063 E324.353
G1 X95.329 Y131.324 E324.365
G1 X95.613 Y131.043 E324.379
G1 X95.35 Y130.781 E324.391
G1 X95.633 Y130.498 E324.404
G1 X95.898 Y130.762 E324.417
G1 X96.182 Y130.481 E324.43
G1 X95.916 Y130.215 E324.442
G1 X96.199 Y129.932 E324.456
G1 X96.467 Y130.2 E324.468
G1 X96.751 Y129.919 E324.482
G1 X96.482 Y129.649 E324.494
G1 X96.765 Y129.366 E324.508
G1 X97.036 Y129.637 E324.52
G1 X97.32 Y129.356 E324.534
G1 X97.047 Y129.084 E324.547
G1 X97.33 Y128.801 E324.56
G1 X97.605 Y129.075 E324.573
G1 X97.889 Y128.794 E324.586
G1 X97.613 Y128.518 E324.599
G1 X97.896 Y128.235 E324.612
G1 X98.174 Y128.513 E324.625
G1 X98.458 Y128.232 E324.639
G1 X98.179 Y127.952 E324.652
G1 X98.462 Y127.669 E324.665
G1 X98.743 Y127.951 E324.678
G1 X99.027 Y127.669 E324.692
G1 X98.745 Y127.387 E324.705
G1 X99.027 Y127.104 E324.718
G1 X99.312 Y127.388 E324.732
G1 X99.597 Y127.107 E324.745
G1 X99.31 Y126.821 E324.758
G1 X99.593 Y126.538 E324.772
G1 X99.881 Y126.826 E324.785
G1 X100.166 Y126.545 E324.799
G1 X99.876 Y126.255 E324.812
G1 X100.159 Y125.972 E324.826
G1 X100.45 Y126.264 E324.839
G1 X100.735 Y125.982 E324.853
G1 X100.442 Y125.69 E324.866
G1 X100.725 Y125.407 E324.88
G1 X101.019 Y125.701 E324.893
G1 X101.304 Y125.42 E324.907
G1 X101.007 Y125.124 E324.921
G1 X101.29 Y124.841 E324.934
G1 X101.588 Y125.139 E324.948
G1 X101.873 Y124.858 E324.961
G1 X101.573 Y124.558 E324.975
G1 X101.856 Y124.275 E324.989
G1 X102.157 Y124.577 E325.003
G1 X102.442 Y124.296 E325.016
G1 X102.139 Y123.993 E325.03
G1 X102.422 Y123.71 E325.044
G1 X102.726 Y124.014 E325.058
G1 X103.011 Y123.733 E325.071
G1 X102.705 Y123.427 E325.086
G1 X102.987 Y123.144 E325.099
G1 X103.295 Y123.452 E325.114
G1 X103.58 Y123.171 E325.127
G1 X103.27 Y122.861 E325.141
G1 X103.553 Y122.578 E325.155
G1 X103.864 Y122.89 E325.169
G1 X104.149 Y122.609 E325.183
G1 X103.836 Y122.296 E325.197
G1 X104.119 Y122.013 E325.211
G1 X104.434 Y122.327 E325.226
G1 X104.718 Y122.046 E325.239
G1 X104.402 Y121.73 E325.254
G1 X104.684 Y121.447 E325.267
G1 X105.003 Y121.765 E325.282
G1 X105.287 Y121.484 E325.295
G1 X104.967 Y121.164 E325.31
G1 X105.25 Y120.881 E325.324
G1 X105.572 Y121.203 E325.339
G1 X105.856 Y120.922 E325.352
G1 X105.533 Y120.599 E325.367
G1 X105.816 Y120.316 E325.381
G1 X106.141 Y120.641 E325.396
G1 X106.425 Y120.359 E325.409
G1 X106.099 Y120.033 E325.425
G1 X106.349 Y119.783 E325.436
G1 Y119.717 E325.438
G1 X106.71 Y120.078 E325.455
G1 X106.994 Y119.797 E325.469
G1 X106.349 Y119.152 E325.499
G1 Y118.586 E325.518
G1 X107.279 Y119.516 E325.562
G1 X107.563 Y119.235 E325.575
G1 X106.349 Y118.02 E325.632
G1 Y117.455 E325.651
G1 X106.547 Y117.653 E325.66
G1 Y117.087 E325.679
G1 X106.349 Y116.889 E325.688
G1 Y116.323 E325.707
G1 X106.547 Y116.521 E325.716
G1 Y115.956 E325.735
G1 X106.349 Y115.758 E325.745
G1 Y115.192 E325.763
G1 X106.547 Y115.39 E325.773
G1 Y114.824 E325.792
G1 X106.349 Y114.626 E325.801
G1 Y114.061 E325.82
G1 X106.547 Y114.259 E325.829
G1 Y113.693 E325.848
G1 X106.349 Y113.495 E325.857
G1 Y112.929 E325.876
G1 X106.547 Y113.127 E325.885
G1 Y112.562 E325.904
G1 X106.349 Y112.364 E325.913
G1 Y111.798 E325.932
G1 X106.547 Y111.996 E325.941
G1 Y111.43 E325.96
G1 X106.349 Y111.232 E325.97
G1 Y110.666 E325.988
G1 X106.547 Y110.864 E325.998
G1 Y110.299 E326.017
G1 X106.349 Y110.101 E326.026
G1 Y109.535 E326.045
G1 X106.547 Y109.733 E326.054
G1 Y109.167 E326.073
G1 X106.349 Y108.969 E326.082
G1 Y108.404 E326.101
G1 X106.547 Y108.602 E326.11
G1 Y108.036 E326.129
G1 X106.349 Y107.838 E326.138
G1 Y107.272 E326.157
G1 X106.547 Y107.47 E326.167
G1 Y106.905 E326.185
G1 X106.349 Y106.707 E326.195
G1 Y106.141 E326.213
G1 X106.547 Y106.339 E326.223
G1 Y105.773 E326.242
G1 X106.349 Y105.575 E326.251
G1 Y105.01 E326.27
G1 X106.547 Y105.208 E326.279
G1 Y104.642 E326.298
G1 X106.349 Y104.444 E326.307
G1 Y103.878 E326.326
G1 X106.547 Y104.076 E326.335
G1 Y103.511 E326.354
G1 X106.349 Y103.313 E326.363
G1 Y102.747 E326.382
G1 X106.547 Y102.945 E326.392
G1 Y102.91 E326.393
G1 X107.078 E326.41
G1 X106.689 Y102.521 E326.429
G1 X107.255 E326.447
G1 X107.644 Y102.91 E326.466
G1 X108.209 E326.485
G1 X107.82 Y102.521 E326.503
G1 X108.386 E326.522
G1 X108.775 Y102.91 E326.54
G1 X109.341 E326.559
G1 X108.952 Y102.521 E326.577
G1 X109.517 E326.596
G1 X109.906 Y102.91 E326.614
G1 X110.472 E326.633
G1 X110.083 Y102.521 E326.651
G1 X110.649 E326.67
G1 X111.038 Y102.91 E326.688
G1 X111.603 E326.707
G1 X111.214 Y102.521 E326.726
G1 X111.78 E326.744
G1 X112.169 Y102.91 E326.763
G1 X112.735 E326.781
G1 X112.346 Y102.521 E326.8
G1 X112.911 E326.819
G1 X113.3 Y102.91 E326.837
G1 X113.866 E326.856
G1 X113.477 Y102.521 E326.874
G1 X114.043 E326.893
G1 X114.432 Y102.91 E326.911
G1 X114.997 E326.93
G1 X114.608 Y102.521 E326.948
G1 X115.174 E326.967
G1 X115.563 Y102.91 E326.985
G1 X116.129 E327.004
G1 X115.74 Y102.521 E327.022
G1 X116.305 E327.041
G1 X116.695 Y102.91 E327.06
G1 X117.26 E327.078
G1 X116.871 Y102.521 E327.097
G1 X117.437 E327.116
G1 X117.826 Y102.91 E327.134
G1 X118.392 E327.153
G1 X118.003 Y102.521 E327.171
G1 X118.568 E327.19
G1 X118.957 Y102.91 E327.208
G1 X119.523 E327.227
G1 X119.134 Y102.521 E327.245
G1 X119.7 E327.264
G1 X120.089 Y102.91 E327.282
G1 X120.654 E327.301
G1 X120.265 Y102.521 E327.319
G1 X120.831 E327.338
G1 X121.22 Y102.91 E327.356
G1 X121.786 E327.375
G1 X121.397 Y102.521 E327.394
G1 X121.962 E327.412
G1 X122.351 Y102.91 E327.431
G1 X122.917 E327.45
G1 X122.528 Y102.521 E327.468
G1 X123.094 E327.487
G1 X123.483 Y102.91 E327.505
G1 X124.048 E327.524
G1 X123.659 Y102.521 E327.542
G1 X124.225 E327.561
G1 X124.614 Y102.91 E327.579
G1 X124.7 E327.582
G1 Y102.996 E327.585
G1 X124.899 Y103.195 E327.594
G1 Y103.761 E327.613
G1 X124.7 Y103.562 E327.622
G1 Y104.127 E327.641
G1 X124.899 Y104.326 E327.651
G1 Y104.892 E327.669
G1 X124.7 Y104.693 E327.679
G1 Y105.259 E327.698
G1 X124.899 Y105.458 E327.707
G1 Y106.023 E327.726
G1 X124.7 Y105.824 E327.735
G1 Y106.39 E327.754
G1 X124.899 Y106.589 E327.763
G1 Y107.155 E327.782
G1 X124.7 Y106.956 E327.791
G1 Y107.521 E327.81
G1 X124.899 Y107.72 E327.82
G1 Y108.286 E327.838
G1 X124.7 Y108.087 E327.848
G1 Y108.653 E327.867
G1 X124.899 Y108.852 E327.876
G1 Y109.417 E327.895
G1 X124.7 Y109.218 E327.904
G1 Y109.784 E327.923
G1 X124.899 Y109.983 E327.932
G1 Y110.549 E327.951
G1 X124.7 Y110.35 E327.961
G1 Y110.916 E327.979
G1 X124.899 Y111.115 E327.989
G1 Y111.68 E328.008
G1 X124.7 Y111.481 E328.017
G1 Y112.047 E328.036
G1 X124.899 Y112.246 E328.045
G1 Y112.812 E328.064
G1 X124.7 Y112.613 E328.073
G1 Y113.178 E328.092
G1 X124.899 Y113.377 E328.101
G1 Y113.943 E328.12
G1 X124.7 Y113.744 E328.13
G1 Y114.31 E328.148
G1 X124.899 Y114.509 E328.158
G1 Y115.074 E328.177
G1 X124.7 Y114.875 E328.186
G1 Y115.441 E328.205
G1 X124.899 Y115.64 E328.214
G1 Y116.206 E328.233
G1 X124.7 Y116.007 E328.242
G1 Y116.572 E328.261
G1 X124.899 Y116.771 E328.27
G1 Y117.337 E328.289
G1 X124.7 Y117.138 E328.299
G1 Y117.704 E328.317
G1 X124.899 Y117.903 E328.327
G1 Y118.468 E328.346
G1 X124.573 Y118.142 E328.361
G1 X124.007 E328.38
G1 X124.899 Y119.034 E328.422
G1 Y119.6 E328.441
G1 X123.441 Y118.142 E328.509
G1 X123.157 E328.519
G1 X123.274 Y118.54 E328.532
G1 X141.612 Y136.878 E329.395
G1 X141.895 Y136.596 E329.408
G1 X141.141 Y135.842 E329.444
G1 X141.424 Y135.559 E329.457
G1 X142.178 Y136.313 E329.492
G1 X142.46 Y136.03 E329.506
G1 X141.707 Y135.277 E329.541
G1 X141.99 Y134.994 E329.554
G1 X142.743 Y135.747 E329.59
G1 X143.026 Y135.464 E329.603
G1 X142.273 Y134.711 E329.639
G1 X142.556 Y134.428 E329.652
G1 X143.309 Y135.181 E329.687
G1 X143.592 Y134.899 E329.701
G1 X142.839 Y134.145 E329.736
G1 X143.121 Y133.862 E329.749
G1 X143.875 Y134.616 E329.785
G1 X144.158 Y134.333 E329.798
G1 X143.404 Y133.58 E329.834
G1 X143.687 Y133.297 E329.847
G1 X144.44 Y134.05 E329.882
G1 X144.723 Y133.767 E329.896
G1 X143.97 Y133.014 E329.931
G1 X144.253 Y132.731 E329.944
G1 X145.006 Y133.484 E329.98
G1 X145.289 Y133.201 E329.993
G1 X144.536 Y132.448 E330.029
G1 X144.819 Y132.165 E330.042
G1 X145.572 Y132.919 E330.077
G1 X145.855 Y132.636 E330.091
G1 X145.101 Y131.883 E330.126
G1 X145.384 Y131.6 E330.139
G1 X146.137 Y132.353 E330.175
G1 X146.42 Y132.07 E330.188
G1 X145.667 Y131.317 E330.223
G1 X145.95 Y131.034 E330.237
G1 X146.703 Y131.787 E330.272
G1 X146.986 Y131.504 E330.285
G1 X146.233 Y130.751 E330.321
G1 X146.516 Y130.469 E330.334
G1 X147.269 Y131.222 E330.37
G1 X147.552 Y130.939 E330.383
G1 X146.799 Y130.186 E330.418
G1 X147.081 Y129.903 E330.432
G1 X147.835 Y130.656 E330.467
G1 X148.117 Y130.373 E330.48
G1 X147.364 Y129.62 E330.516
G1 X147.647 Y129.337 E330.529
G1 X148.4 Y130.09 E330.565
G1 X148.683 Y129.807 E330.578
G1 X147.93 Y129.054 E330.613
G1 X148.213 Y128.772 E330.627
G1 X148.966 Y129.525 E330.662
G1 F1800 E320.662
;rapid-dry
G1 F236
G0 X124.899 Y102.629
G1 F1800 E330.662
;bead-solid_infill
G1 X124.791 Y102.521 F2400 E330.667
G1 F1800 E320.667
;rapid-dry
G1 F236
G0 X105.648 Y98.729
G1 F1800 E330.667
;bead-support-structure
G1 X104.813 Y98.681 F4200 E330.688
G1 X103.4 Y98.436 E330.724
G1 X102.991 Y99.223 E330.746
G1 X102.276 Y99.46 E330.765
G1 X103.158 Y101.096 E330.811
G1 X103.064 Y101.204 E330.815
G1 X102.169 Y99.55 E330.862
G1 X101.913 Y99.294 E330.871
G1 X102.91 Y97.859 E330.914
G1 X103.796 Y98.264 E330.938
G1 X104.353 Y98.435 E330.953
G1 X105.026 Y98.553 E330.97
G1 F1800 E320.97
G1 F236
G0 X104.353 Y98.435
G0 X104.242 Y98.401
G0 X104.353 Y98.435
G0 X105.026 Y98.553
;rapid-dry
G1 F236
G0 X95.475 Y90.929
G1 F1800 E330.97
;bead-support-structure
G1 X96.363 Y90.041 F4200 E331.001
G1 X96.503 Y90.181 E331.006
G1 X96.002 Y90.682 E331.024
G1 X95.862 Y90.542 E331.029
G1 X94.536 Y91.866 E331.076
G1 F1800 E321.076
G1 F236
G0 X95.102 Y91.301
G0 X94.536 Y91.866
;Layer : 3 of 325
;rapid-dry
G1 F236
G0 Z0.7
G1 F1800 E331.076
;bead-support-structure
G1 X95.862 Y90.542 F4200 E331.122
G1 X96.002 Y90.682 E331.127
G1 X96.503 Y90.181 E331.145
G1 X96.363 Y90.041 E331.15
G1 X95.475 Y90.929 E331.181
G1 F1800 E321.181
G1 F236
G0 X96.04 Y90.364
G0 X95.475 Y90.929
;rapid-dry
G1 F236
G0 X105.026 Y98.553
G1 F1800 E331.181
;bead-support-structure
G1 X104.353 Y98.435 F4200 E331.198
G1 X103.796 Y98.264 E331.213
G1 X102.91 Y97.859 E331.237
G1 X101.913 Y99.294 E331.281
G1 X102.169 Y99.55 E331.29
G1 X103.064 Y101.204 E331.337
G1 X103.158 Y101.096 E331.34
G1 X102.276 Y99.46 E331.387
G1 X102.991 Y99.223 E331.406
G1 X103.4 Y98.436 E331.428
G1 X104.813 Y98.681 E331.464
G1 X105.648 Y98.729 E331.484
G1 F1800 E321.484
G1 F236
G0 X104.85 Y98.683
G0 X105.648 Y98.729
;rapid-dry
G1 F236
G0 X106.029 Y102.201
G1 F1800 E331.484
;bead-perimeter_inner
G1 X125.219 F1560 E332.123
G1 Y119.65 E332.703
G1 X141.05 Y135.481 E333.448
G1 X144.072 Y132.459 E333.59
G1 X144.966 Y131.594 E333.631
G1 X146.22 Y130.312 E333.691
G1 X148.443 Y128.089 E333.795
G1 X149.649 Y129.294 E333.852
G1 X141.467 Y137.476 E334.237
G1 X123.11 Y119.118 E335.1
G1 X122.729 Y117.822 E335.145
G1 X124.38 E335.2
G1 Y103.23 E335.686
G1 X106.867 E336.268
G1 Y117.822 E336.753
G1 X108.519 E336.808
G1 X108.138 Y119.117 E336.853
G1 X89.67 Y137.365 E337.717
G1 X81.487 Y129.182 E338.102
G1 X82.692 Y127.976 E338.158
G1 X84.972 Y130.256 E338.266
G1 X85.925 Y131.238 E338.311
G1 X87.12 Y132.404 E338.367
G1 X90.197 Y135.481 E338.511
G1 X106.029 Y119.65 E339.256
G1 Y102.201 E339.836
;rapid-leaky
G1 F236
G0 X106.349 Y102.575
;bead-solid_infill
G1 X106.403 Y102.521 F2400 E339.839
G1 X106.969 E339.858
G1 X106.58 Y102.91 E339.876
G1 X106.547 E339.877
G1 Y102.943 E339.878
G1 X106.349 Y103.141 E339.888
G1 Y103.707 E339.906
G1 X106.547 Y103.509 E339.916
G1 Y104.074 E339.935
G1 X106.349 Y104.272 E339.944
G1 Y104.838 E339.963
G1 X106.547 Y104.64 E339.972
G1 Y105.206 E339.991
G1 X106.349 Y105.404 E340
G1 Y105.969 E340.019
G1 X106.547 Y105.771 E340.028
G1 Y106.337 E340.047
G1 X106.349 Y106.535 E340.056
G1 Y107.101 E340.075
G1 X106.547 Y106.903 E340.084
G1 Y107.468 E340.103
G1 X106.349 Y107.667 E340.113
G1 Y108.232 E340.131
G1 X106.547 Y108.034 E340.141
G1 Y108.6 E340.16
G1 X106.349 Y108.798 E340.169
G1 Y109.364 E340.188
G1 X106.547 Y109.166 E340.197
G1 Y109.731 E340.216
G1 X106.349 Y109.929 E340.225
G1 Y110.495 E340.244
G1 X106.547 Y110.297 E340.253
G1 Y110.863 E340.272
G1 X106.349 Y111.061 E340.281
G1 Y111.626 E340.3
G1 X106.547 Y111.428 E340.31
G1 Y111.994 E340.328
G1 X106.349 Y112.192 E340.338
G1 Y112.758 E340.356
G1 X106.547 Y112.56 E340.366
G1 Y113.125 E340.385
G1 X106.349 Y113.323 E340.394
G1 Y113.889 E340.413
G1 X106.547 Y113.691 E340.422
G1 Y114.257 E340.441
G1 X106.349 Y114.455 E340.45
G1 Y115.02 E340.469
G1 X106.547 Y114.822 E340.478
G1 Y115.388 E340.497
G1 X106.349 Y115.586 E340.506
G1 Y116.152 E340.525
G1 X106.547 Y115.954 E340.535
G1 Y116.519 E340.553
G1 X106.349 Y116.717 E340.563
G1 Y117.283 E340.581
G1 X106.547 Y117.085 E340.591
G1 Y117.651 E340.61
G1 X106.349 Y117.849 E340.619
G1 Y118.415 E340.638
G1 X106.622 Y118.142 E340.651
G1 X107.187 E340.669
G1 X106.349 Y118.98 E340.709
G1 Y119.546 E340.728
G1 X107.753 Y118.142 E340.794
G1 X108.091 E340.805
G1 X107.997 Y118.464 E340.816
G1 X89.609 Y136.852 E341.681
G1 X89.326 Y136.569 E341.694
G1 X90.079 Y135.816 E341.73
G1 X89.796 Y135.533 E341.743
G1 X89.043 Y136.286 E341.778
G1 X88.761 Y136.003 E341.792
G1 X89.513 Y135.25 E341.827
G1 X89.231 Y134.967 E341.84
G1 X88.478 Y135.72 E341.876
G1 X88.195 Y135.437 E341.889
G1 X88.948 Y134.684 E341.925
G1 X88.665 Y134.402 E341.938
G1 X87.912 Y135.154 E341.973
G1 X87.629 Y134.872 E341.987
G1 X88.382 Y134.119 E342.022
G1 X88.099 Y133.836 E342.035
G1 X87.346 Y134.589 E342.071
G1 X87.064 Y134.306 E342.084
G1 X87.816 Y133.553 E342.119
G1 X87.534 Y133.27 E342.133
G1 X86.781 Y134.023 E342.168
G1 X86.498 Y133.74 E342.181
G1 X87.251 Y132.987 E342.217
G1 X86.968 Y132.704 E342.23
G1 X86.215 Y133.457 E342.266
G1 X85.932 Y133.175 E342.279
G1 X86.682 Y132.424 E342.314
G1 X86.396 Y132.145 E342.327
G1 X85.649 Y132.892 E342.363
G1 X85.366 Y132.609 E342.376
G1 X86.11 Y131.865 E342.411
G1 X85.824 Y131.586 E342.424
G1 X85.084 Y132.326 E342.459
G1 X84.801 Y132.043 E342.472
G1 X85.542 Y131.302 E342.507
G1 X85.537 Y131.297
G1 X85.263 Y131.015 E342.52
G1 X84.518 Y131.76 E342.555
G1 X84.235 Y131.477 E342.569
G1 X84.984 Y130.728 E342.604
G1 X84.743 Y130.48 E342.616
G1 X84.705 Y130.442 E342.617
G1 X83.952 Y131.195 E342.653
G1 X83.669 Y130.912 E342.666
G1 X84.422 Y130.159 E342.701
G1 X84.139 Y129.876 E342.715
G1 X83.387 Y130.629 E342.75
G1 X83.104 Y130.346 E342.763
G1 X83.857 Y129.593 E342.799
G1 X83.574 Y129.31 E342.812
G1 X82.821 Y130.063 E342.848
G1 X82.538 Y129.78 E342.861
G1 X83.291 Y129.028 E342.896
G1 X83.008 Y128.745 E342.91
G1 X82.255 Y129.498 E342.945
G1 X81.972 Y129.215 E342.958
G1 X82.725 Y128.462 E342.994
;rapid-leaky
G1 F236
G0 X82.692 Y127.46
;bead-perimeter_outer
G1 X85.232 Y129.999 F1080 E343.113
G1 X86.184 Y130.981 E343.159
G1 X87.375 Y132.143 E343.214
G1 X90.197 Y134.965 E343.347
G1 X105.664 Y119.499 E344.074
G1 Y101.836 E344.662
G1 X125.584 E345.324
G1 Y119.499 E345.912
G1 X141.05 Y134.965 E346.639
G1 X143.816 Y132.199 E346.769
G1 X144.709 Y131.334 E346.811
G1 X145.96 Y130.056 E346.87
G1 X148.443 Y127.573 E346.987
G1 X150.165 Y129.294 E347.068
G1 X141.467 Y137.992 E347.477
G1 X122.786 Y119.311 E348.356
G1 X122.241 Y117.457 E348.42
G1 X124.015 E348.479
G1 Y103.595 E348.94
G1 X107.232 E349.498
G1 Y117.457 E349.959
G1 X109.007 E350.018
G1 X108.462 Y119.31 E350.083
G1 X89.669 Y137.88 E350.961
G1 X80.971 Y129.182 E351.37
G1 X82.692 Y127.46 E351.451
G1 F1800 E341.451
;rapid-dry
G1 F236
G0 X78.762 Y123.585
G1 F1800 E351.451
;bead-support-structure
G1 X71.559 Y116.382 F4200 E351.706
G1 X69.89 Y118.046 E351.764
G1 X77.096 Y125.252 E352.019
G1 X78.055 Y124.292 E352.052
G1 F1800 E342.052
G1 F236
G0 X77.49 Y124.858
G0 X78.055 Y124.292
;rapid-dry
G1 F236
G0 X73.033 Y122.721
G1 F1800 E352.052
;bead-support-structure
G1 X72.467 Y122.155 F4200 E352.072
G1 F1800 E342.072
G1 F236
G0 X73.033 Y122.721
G0 X72.467 Y122.155
;rapid-dry
G1 F236
G0 X74.059 Y121.084
G1 F1800 E352.072
;bead-support-structure
G1 X74.594 Y120.549 F4200 E352.091
G1 F1800 E342.091
G1 F236
G0 X74.059 Y121.084
G0 X74.594 Y120.549
;rapid-dry
G1 F236
G0 X77.302 Y110.07
G1 F1800 E352.091
;bead-support-structure
G1 X80.967 Y106.406 F4200 E352.221
G1 F1800 E342.221
G1 F236
G0 X80.401 Y106.971
G0 X80.967 Y106.406
;rapid-dry
G1 F236
G0 X88.736 Y114.175
G1 F1800 E352.221
;bead-support-structure
G1 X85.072 Y117.84 F4200 E352.35
G1 X83.962 Y117.529 E352.379
G1 X88.425 Y113.065 E352.536
G1 X87.662 Y112.697 E352.557
G1 X82.445 Y107.48 E352.741
G1 X82.077 Y106.717 E352.762
G1 X77.613 Y111.18 E352.92
G1 X78.377 Y111.548 E352.941
G1 X83.594 Y116.765 E353.125
G1 X75.956 Y119.3 E353.326
G1 X75.899 Y119.243 E353.328
G1 X90.253 Y104.889 E353.834
G1 F1800 E343.834
G1 F236
G0 X89.688 Y105.454
G0 X90.253 Y104.889
;rapid-dry
G1 F236
G0 X107.535 Y102.521
G1 F1800 E353.834
;bead-solid_infill
G1 X107.146 Y102.91 F2400 E353.852
G1 X107.711 E353.871
G1 X108.1 Y102.521 E353.89
G1 X108.666 E353.908
G1 X108.277 Y102.91 E353.927
G1 X108.843 E353.946
G1 X109.232 Y102.521 E353.964
G1 X109.797 E353.983
G1 X109.408 Y102.91 E354.001
G1 X109.974 E354.02
G1 X110.363 Y102.521 E354.038
G1 X110.929 E354.057
G1 X110.54 Y102.91 E354.075
G1 X111.105 E354.094
G1 X111.495 Y102.521 E354.112
G1 X112.06 E354.131
G1 X111.671 Y102.91 E354.149
G1 X112.237 E354.168
G1 X112.626 Y102.521 E354.186
G1 X113.192 E354.205
G1 X112.803 Y102.91 E354.224
G1 X113.368 E354.242
G1 X113.757 Y102.521 E354.261
G1 X114.323 E354.28
G1 X113.934 Y102.91 E354.298
G1 X114.5 E354.317
G1 X114.889 Y102.521 E354.335
G1 X115.454 E354.354
G1 X115.065 Y102.91 E354.372
G1 X115.631 E354.391
G1 X116.02 Y102.521 E354.409
G1 X116.586 E354.428
G1 X116.197 Y102.91 E354.446
G1 X116.762 E354.465
G1 X117.151 Y102.521 E354.483
G1 X117.717 E354.502
G1 X117.328 Y102.91 E354.521
G1 X117.894 E354.539
G1 X118.283 Y102.521 E354.558
G1 X118.848 E354.576
G1 X118.459 Y102.91 E354.595
G1 X119.025 E354.614
G1 X119.414 Y102.521 E354.632
G1 X119.98 E354.651
G1 X119.591 Y102.91 E354.669
G1 X120.156 E354.688
G1 X120.545 Y102.521 E354.706
G1 X121.111 E354.725
G1 X120.722 Y102.91 E354.743
G1 X121.288 E354.762
G1 X121.677 Y102.521 E354.78
G1 X122.243 E354.799
G1 X121.854 Y102.91 E354.817
G1 X122.419 E354.836
G1 X122.808 Y102.521 E354.855
G1 X123.374 E354.873
G1 X122.985 Y102.91 E354.892
G1 X123.551 E354.91
G1 X123.94 Y102.521 E354.929
G1 X124.505 E354.948
G1 X124.116 Y102.91 E354.966
G1 X124.682 E354.985
G1 X124.899 Y102.693 E354.995
G1 Y103.259 E355.014
G1 X124.7 Y103.458 E355.023
G1 Y104.023 E355.042
G1 X124.899 Y103.824 E355.051
G1 Y104.39 E355.07
G1 X124.7 Y104.589 E355.079
G1 Y105.155 E355.098
G1 X124.899 Y104.956 E355.108
G1 Y105.521 E355.126
G1 X124.7 Y105.72 E355.136
G1 Y106.286 E355.155
G1 X124.899 Y106.087 E355.164
G1 Y106.653 E355.183
G1 X124.7 Y106.852 E355.192
G1 Y107.417 E355.211
G1 X124.899 Y107.218 E355.22
G1 Y107.784 E355.239
G1 X124.7 Y107.983 E355.248
G1 Y108.549 E355.267
G1 X124.899 Y108.35 E355.277
G1 Y108.916 E355.295
G1 X124.7 Y109.115 E355.305
G1 Y109.68 E355.324
G1 X124.899 Y109.481 E355.333
G1 Y110.047 E355.352
G1 X124.7 Y110.246 E355.361
G1 Y110.812 E355.38
G1 X124.899 Y110.613 E355.389
G1 Y111.178 E355.408
G1 X124.7 Y111.377 E355.418
G1 Y111.943 E355.436
G1 X124.899 Y111.744 E355.446
G1 Y112.31 E355.465
G1 X124.7 Y112.509 E355.474
G1 Y113.074 E355.493
G1 X124.899 Y112.875 E355.502
G1 Y113.441 E355.521
G1 X124.7 Y113.64 E355.53
G1 Y114.206 E355.549
G1 X124.899 Y114.007 E355.558
G1 Y114.572 E355.577
G1 X124.7 Y114.771 E355.587
G1 Y115.337 E355.605
G1 X124.899 Y115.138 E355.615
G1 Y115.704 E355.634
G1 X124.7 Y115.903 E355.643
G1 Y116.468 E355.662
G1 X124.899 Y116.269 E355.671
G1 Y116.835 E355.69
G1 X124.7 Y117.034 E355.699
G1 Y117.6 E355.718
G1 X124.899 Y117.401 E355.727
G1 Y117.966 E355.746
G1 X123.655 Y119.21 E355.805
G1 X123.938 Y119.493 E355.818
G1 X124.899 Y118.532 E355.863
G1 Y119.098 E355.882
G1 X124.221 Y119.776 E355.914
G1 X124.504 Y120.059 E355.927
G1 X124.899 Y119.664 E355.946
G1 Y119.783 E355.95
G1 X125.122 Y120.006 E355.96
G1 X124.786 Y120.342 E355.976
G1 X125.069 Y120.625 E355.989
G1 X125.405 Y120.289 E356.005
G1 X125.688 Y120.572 E356.019
G1 X125.352 Y120.908 E356.034
G1 X125.635 Y121.19 E356.048
G1 X125.971 Y120.854 E356.063
G1 X126.254 Y121.137 E356.077
G1 X125.918 Y121.473 E356.093
G1 X126.201 Y121.756 E356.106
G1 X126.537 Y121.42 E356.122
G1 X126.819 Y121.703 E356.135
G1 X126.483 Y122.039 E356.151
G1 X126.766 Y122.322 E356.164
G1 X127.102 Y121.986 E356.18
G1 X127.385 Y122.269 E356.193
G1 X127.049 Y122.605 E356.209
G1 X127.332 Y122.888 E356.222
G1 X127.668 Y122.551 E356.238
G1 X127.951 Y122.834 E356.251
G1 X127.615 Y123.17 E356.267
G1 X127.898 Y123.453 E356.281
G1 X128.234 Y123.117 E356.296
G1 X128.516 Y123.4 E356.31
G1 X128.18 Y123.736 E356.325
G1 X128.463 Y124.019 E356.339
G1 X128.799 Y123.683 E356.355
G1 X129.082 Y123.966 E356.368
G1 X128.746 Y124.302 E356.384
G1 X129.029 Y124.585 E356.397
G1 X129.365 Y124.249 E356.413
G1 X129.648 Y124.531 E356.426
G1 X129.312 Y124.867 E356.442
G1 X129.595 Y125.15 E356.455
G1 X129.931 Y124.814 E356.471
G1 X130.213 Y125.097 E356.484
G1 X129.877 Y125.433 E356.5
G1 X130.16 Y125.716 E356.513
G1 X130.496 Y125.38 E356.529
G1 X130.779 Y125.663 E356.543
G1 X130.443 Y125.999 E356.558
G1 X130.726 Y126.282 E356.572
G1 X131.062 Y125.946 E356.587
G1 X131.345 Y126.228 E356.601
G1 X131.009 Y126.565 E356.617
G1 X131.292 Y126.847 E356.63
G1 X131.628 Y126.511 E356.646
G1 X131.911 Y126.794 E356.659
G1 X131.574 Y127.13 E356.675
G1 X131.857 Y127.413 E356.688
G1 X132.193 Y127.077 E356.704
G1 X132.476 Y127.36 E356.717
G1 X132.14 Y127.696 E356.733
G1 X132.423 Y127.979 E356.746
G1 X132.759 Y127.643 E356.762
G1 X133.042 Y127.925 E356.775
G1 X132.706 Y128.262 E356.791
G1 X132.989 Y128.545 E356.805
G1 X133.325 Y128.208 E356.82
G1 X133.608 Y128.491 E356.834
G1 X133.271 Y128.827 E356.85
G1 X133.554 Y129.11 E356.863
G1 X133.89 Y128.774 E356.879
G1 X134.173 Y129.057 E356.892
G1 X133.837 Y129.393 E356.908
G1 X134.12 Y129.676 E356.921
G1 X134.456 Y129.34 E356.937
G1 X134.739 Y129.623 E356.95
G1 X134.403 Y129.959 E356.966
G1 X134.686 Y130.242 E356.979
G1 X135.022 Y129.905 E356.995
G1 X135.305 Y130.188 E357.008
G1 X134.968 Y130.524 E357.024
G1 X135.251 Y130.807 E357.038
G1 X135.587 Y130.471 E357.053
G1 X135.87 Y130.754 E357.067
G1 X135.534 Y131.09 E357.082
G1 X135.817 Y131.373 E357.096
G1 X136.153 Y131.037 E357.112
G1 X136.436 Y131.32 E357.125
G1 X136.1 Y131.656 E357.141
G1 X136.383 Y131.939 E357.154
G1 X136.719 Y131.602 E357.17
G1 X137.002 Y131.885 E357.183
G1 X136.665 Y132.222 E357.199
G1 X136.948 Y132.504 E357.212
G1 X137.285 Y132.168 E357.228
G1 X137.567 Y132.451 E357.241
G1 X137.231 Y132.787 E357.257
G1 X137.514 Y133.07 E357.271
G1 X137.85 Y132.734 E357.286
G1 X138.133 Y133.017 E357.3
G1 X137.797 Y133.353 E357.315
G1 X138.08 Y133.636 E357.329
G1 X138.416 Y133.299 E357.345
G1 X138.699 Y133.582 E357.358
G1 X138.362 Y133.919 E357.374
G1 X138.645 Y134.202 E357.387
G1 X138.982 Y133.865 E357.403
G1 X139.264 Y134.148 E357.416
G1 X138.928 Y134.484 E357.432
G1 X139.211 Y134.767 E357.445
G1 X139.547 Y134.431 E357.461
G1 X139.83 Y134.714 E357.474
G1 X139.494 Y135.05 E357.49
G1 X139.777 Y135.333 E357.503
G1 X140.113 Y134.997 E357.519
G1 X140.396 Y135.279 E357.533
G1 X140.059 Y135.616 E357.548
G1 X140.342 Y135.899 E357.562
G1 X140.679 Y135.562 E357.578
G1 X140.962 Y135.845 E357.591
G1 X140.625 Y136.181 E357.607
G1 X140.908 Y136.464 E357.62
G1 X148.637 Y128.735 E357.984
G1 X148.92 Y129.018 E357.997
G1 X141.191 Y136.747 E358.36
G1 F1800 E348.36
;rapid-dry
G1 F236
G0 X123.384 Y118.916
G1 F1800 E358.36
;bead-solid_infill
G1 X124.158 Y118.142 F2400 E358.397
G1 X123.592 E358.416
G1 X123.256 Y118.478 E358.431
G1 F1800 E348.431
;Layer : 4 of 325
;rapid-leaky
G1 F236
G0 X123.11 Y119.118 Z0.9
G1 F1800 E358.431
;bead-perimeter_inner
G1 X122.729 Y117.822 F1560 E358.476
G1 X124.38 E358.531
G1 Y103.23 E359.017
G1 X106.867 E359.599
G1 Y117.822 E360.084
G1 X108.519 E360.139
G1 X108.138 Y119.117 E360.184
G1 X89.67 Y137.365 E361.048
G1 X81.487 Y129.182 E361.433
G1 X82.692 Y127.976 E361.489
G1 X84.607 Y129.891 E361.579
G1 X86.015 Y131.355 E361.647
G1 X87.484 Y132.768 E361.715
G1 X90.197 Y135.481 E361.842
G1 X106.029 Y119.65 E362.587
G1 Y102.201 E363.167
G1 X125.219 E363.806
G1 Y119.65 E364.386
G1 X141.05 Y135.481 E365.131
G1 X143.708 Y132.824 E365.256
G1 X145.005 Y131.58 E365.315
G1 X145.692 Y130.886 E365.348
G1 X146.584 Y129.947 E365.391
G1 X148.443 Y128.089 E365.478
G1 X149.649 Y129.294 E365.535
G1 X141.467 Y137.476 E365.92
G1 X123.11 Y119.118 E366.783
;rapid-leaky
G1 F236
G0 X122.786 Y119.311
;bead-perimeter_outer
G1 X122.241 Y117.457 F1080 E366.848
G1 X124.015 E366.907
G1 Y103.595 E367.368
G1 X107.232 E367.926
G1 Y117.457 E368.387
G1 X109.007 E368.446
G1 X108.462 Y119.31 E368.51
G1 X89.669 Y137.88 E369.389
G1 X80.971 Y129.182 E369.798
G1 X82.692 Y127.46 E369.879
G1 X84.869 Y129.636 E369.982
G1 X86.274 Y131.096 E370.049
G1 X87.739 Y132.506 E370.117
G1 X90.197 Y134.965 E370.232
G1 X105.664 Y119.499 E370.96
G1 Y101.836 E371.547
G1 X125.584 E372.21
G1 Y119.499 E372.797
G1 X141.05 Y134.965 E373.525
G1 X143.453 Y132.562 E373.638
G1 X144.748 Y131.321 E373.697
G1 X145.43 Y130.632 E373.73
G1 X146.322 Y129.693 E373.773
G1 X148.443 Y127.573 E373.872
G1 X150.165 Y129.294 E373.953
G1 X141.467 Y137.992 E374.363
G1 X122.786 Y119.311 E375.241
G1 F1800 E365.241
;rapid-dry
G1 F236
G0 X146.208 Y130.807
G1 F1800 E375.241
;bead-sparse_infill
G1 X146.63 Y131.573 F3600 E375.27
G1 X146.66 Y131.831 E375.279
G1 F1800 E365.279
;rapid-dry
G1 F236
G0 X138.43 Y133.314
G1 F1800 E375.279
;bead-sparse_infill
G1 X138.392 Y133.383 F3600 E375.282
G1 X138.093 Y133.649 E375.295
G1 X128.475 Y124.03 E375.747
G1 X128.714 Y123.597 E375.764
G1 X123.614 Y119.17 E375.988
G1 X123.913 Y118.904 E376.002
G1 X124.333 Y118.142 E376.031
G1 X124.7 Y117.477 E376.056
G1 X124.899 Y117.116 E376.07
G1 Y114.895 E376.143
G1 X124.7 Y114.541 E376.157
G1 Y102.998 E376.541
G1 X124.899 Y102.637 E376.555
G1 X117.706 Y102.91 E376.794
G1 X117.672 Y102.614 E376.804
G1 X117.62 Y102.521 E376.807
G1 X110.443 E377.046
G1 X110.432 Y102.614 E377.049
G1 X110.269 Y102.91 E377.061
G1 F1800 E367.061
;rapid-dry
G1 F236
G0 X106.547 Y109.488
G1 F1800 E377.061
;bead-sparse_infill
G1 X106.382 Y108.044 F3600 E377.109
G1 X106.547 Y107.752 E377.12
G1 F1800 E367.12
;rapid-dry
G1 F236
G0 X105.648 Y98.729
G1 F1800 E377.12
;bead-support-structure
G1 X104.813 Y98.681 F4200 E377.141
G1 X103.4 Y98.436 E377.177
G1 X102.991 Y99.223 E377.199
G1 X102.276 Y99.46 E377.218
G1 X103.158 Y101.096 E377.264
G1 X103.064 Y101.204 E377.268
G1 X102.169 Y99.55 E377.314
G1 X101.913 Y99.294 E377.324
G1 X102.91 Y97.859 E377.367
G1 X103.796 Y98.264 E377.391
G1 X104.353 Y98.435 E377.406
G1 X105.026 Y98.553 E377.423
G1 F1800 E367.423
G1 F236
G0 X104.353 Y98.435
G0 X104.242 Y98.401
G0 X104.353 Y98.435
G0 X105.026 Y98.553
;rapid-dry
G1 F236
G0 X95.475 Y90.929
G1 F1800 E377.423
;bead-support-structure
G1 X96.363 Y90.041 F4200 E377.454
G1 X96.503 Y90.181 E377.459
G1 X96.002 Y90.682 E377.477
G1 X95.862 Y90.542 E377.482
G1 X94.536 Y91.866 E377.529
G1 F1800 E367.529
G1 F236
G0 X95.102 Y91.301
G0 X94.536 Y91.866
;rapid-dry
G1 F236
G0 X90.253 Y104.889
G1 F1800 E377.529
;bead-support-structure
G1 X75.899 Y119.243 F4200 E378.035
G1 X75.956 Y119.3 E378.037
G1 X83.594 Y116.765 E378.238
G1 X78.377 Y111.548 E378.422
G1 X77.613 Y111.18 E378.443
G1 X82.077 Y106.717 E378.6
G1 X82.445 Y107.48 E378.622
G1 X87.662 Y112.697 E378.806
G1 X88.425 Y113.065 E378.827
G1 X83.962 Y117.529 E378.984
G1 X85.072 Y117.84 E379.013
G1 X88.736 Y114.175 E379.142
G1 F1800 E369.142
G1 F236
G0 X88.171 Y114.741
G0 X88.736 Y114.175
;rapid-dry
G1 F236
G0 X80.967 Y106.406
G1 F1800 E379.142
;bead-support-structure
G1 X77.302 Y110.07 F4200 E379.272
G1 F1800 E369.272
G1 F236
G0 X77.868 Y109.505
G0 X77.302 Y110.07
;rapid-dry
G1 F236
G0 X74.594 Y120.549
G1 F1800 E379.272
;bead-support-structure
G1 X74.059 Y121.084 F4200 E379.29
G1 F1800 E369.29
G1 F236
G0 X74.594 Y120.549
G0 X74.059 Y121.084
;rapid-dry
G1 F236
G0 X72.467 Y122.155
G1 F1800 E379.29
;bead-support-structure
G1 X73.033 Y122.721 F4200 E379.31
G1 F1800 E369.31
G1 F236
G0 X72.467 Y122.155
G0 X73.033 Y122.721
;rapid-dry
G1 F236
G0 X78.055 Y124.292
G1 F1800 E379.31
;bead-support-structure
G1 X77.096 Y125.252 F4200 E379.344
G1 X69.89 Y118.046 E379.598
G1 X71.559 Y116.382 E379.657
G1 X78.762 Y123.585 E379.911
G1 F1800 E369.911
G1 F236
G0 X78.196 Y123.019
G0 X78.762 Y123.585
;rapid-dry
G1 F236
G0 X87.919 Y135.162
G1 F1800 E379.911
;bead-sparse_infill
G1 X88.461 Y134.198 F3600 E379.948
G1 F1800 E369.948
;rapid-dry
G1 F236
G0 X96.064 Y130.598
G1 F1800 E379.948
;bead-sparse_infill
G1 X96.132 Y129.999 F3600 E379.968
G1 X99.653 Y127.051 E380.121
G1 X99.447 Y126.684 E380.135
G1 F1800 E370.135
;Layer : 5 of 325
;rapid-leaky
G1 F236
G0 X106.029 Y119.65 Z1.1
G1 F1800 E380.135
;bead-perimeter_inner
G1 Y102.201 F1560 E380.715
G1 X125.219 E381.354
G1 Y119.65 E381.934
G1 X141.05 Y135.481 E382.679
G1 X143.431 Y133.101 E382.79
G1 X145.046 Y131.612 E382.864
G1 X145.696 Y130.945 E382.895
G1 X146.114 Y130.471 E382.916
G1 X146.861 Y129.67 E382.952
G1 X148.443 Y128.089 E383.026
G1 X149.649 Y129.294 E383.083
G1 X141.467 Y137.476 E383.468
G1 X123.11 Y119.118 E384.331
G1 X122.729 Y117.822 E384.376
G1 X124.38 E384.431
G1 Y103.23 E384.917
G1 X106.867 E385.499
G1 Y117.822 E385.984
G1 X108.519 E386.039
G1 X108.138 Y119.117 E386.084
G1 X89.67 Y137.365 E386.948
G1 X81.487 Y129.182 E387.333
G1 X82.692 Y127.976 E387.389
G1 X84.329 Y129.613 E387.466
G1 X85.658 Y131.062 E387.532
G1 X85.98 Y131.394 E387.547
G1 X86.313 Y131.717 E387.563
G1 X87.762 Y133.046 E387.628
G1 X90.197 Y135.481 E387.743
G1 X106.029 Y119.65 E388.487
;rapid-leaky
G1 F236
G0 X105.664 Y119.499
;bead-perimeter_outer
G1 Y101.836 F1080 E389.075
G1 X125.584 E389.737
G1 Y119.499 E390.325
G1 X141.05 Y134.965 E391.052
G1 X143.177 Y132.839 E391.152
G1 X144.792 Y131.35 E391.225
G1 X145.427 Y130.698 E391.255
G1 X145.844 Y130.225 E391.276
G1 X146.599 Y129.416 E391.313
G1 X148.443 Y127.573 E391.4
G1 X150.165 Y129.294 E391.481
G1 X141.467 Y137.992 E391.89
G1 X122.786 Y119.311 E392.769
G1 X122.241 Y117.457 E392.833
G1 X124.015 E392.892
G1 Y103.595 E393.353
G1 X107.232 E393.911
G1 Y117.457 E394.372
G1 X109.007 E394.431
G1 X108.462 Y119.31 E394.496
G1 X89.669 Y137.88 E395.374
G1 X80.971 Y129.182 E395.784
G1 X82.692 Y127.46 E395.864
G1 X84.592 Y129.36 E395.954
G1 X85.923 Y130.811 E396.019
G1 X86.239 Y131.135 E396.034
G1 X86.564 Y131.452 E396.049
G1 X88.015 Y132.783 E396.115
G1 X90.197 Y134.965 E396.218
G1 X105.664 Y119.499 E396.945
;rapid-leaky
G1 F236
G0 X99.301 Y126.83
;bead-sparse_infill
G1 X99.492 Y127.211 F3600 E396.959
G1 X96.339 Y129.792 E397.095
G1 X96.216 Y130.448 E397.117
G1 F1800 E387.117
;rapid-dry
G1 F236
G0 X88.618 Y134.355
G1 F1800 E397.117
;bead-sparse_infill
G1 X88.199 Y135.193 F3600 E397.148
G1 X88.061 Y135.304 E397.154
G1 F1800 E387.154
;rapid-dry
G1 F236
G0 X78.762 Y123.585
G1 F1800 E397.154
;bead-support-structure
G1 X71.559 Y116.382 F4200 E397.408
G1 X69.89 Y118.046 E397.467
G1 X77.096 Y125.252 E397.721
G1 X78.055 Y124.292 E397.755
G1 F1800 E387.755
G1 F236
G0 X77.49 Y124.858
G0 X78.055 Y124.292
;rapid-dry
G1 F236
G0 X73.033 Y122.721
G1 F1800 E397.755
;bead-support-structure
G1 X72.467 Y122.155 F4200 E397.775
G1 F1800 E387.775
G1 F236
G0 X73.033 Y122.721
G0 X72.467 Y122.155
;rapid-dry
G1 F236
G0 X74.059 Y121.084
G1 F1800 E397.775
;bead-support-structure
G1 X74.594 Y120.549 F4200 E397.794
G1 F1800 E387.794
G1 F236
G0 X74.059 Y121.084
G0 X74.594 Y120.549
;rapid-dry
G1 F236
G0 X77.302 Y110.07
G1 F1800 E397.794
;bead-support-structure
G1 X80.967 Y106.406 F4200 E397.923
G1 F1800 E387.923
G1 F236
G0 X80.401 Y106.971
G0 X80.967 Y106.406
;rapid-dry
G1 F236
G0 X88.736 Y114.175
G1 F1800 E397.923
;bead-support-structure
G1 X85.072 Y117.84 F4200 E398.052
G1 X83.962 Y117.529 E398.081
G1 X88.425 Y113.065 E398.239
G1 X87.662 Y112.697 E398.26
G1 X82.445 Y107.48 E398.444
G1 X82.077 Y106.717 E398.465
G1 X77.613 Y111.18 E398.622
G1 X78.377 Y111.548 E398.644
G1 X83.594 Y116.765 E398.828
G1 X75.956 Y119.3 E399.028
G1 X75.899 Y119.243 E399.03
G1 X90.253 Y104.889 E399.537
G1 F1800 E389.537
G1 F236
G0 X89.688 Y105.454
G0 X90.253 Y104.889
;rapid-dry
G1 F236
G0 X94.536 Y91.866
G1 F1800 E399.537
;bead-support-structure
G1 X95.862 Y90.542 F4200 E399.583
G1 X96.002 Y90.682 E399.588
G1 X96.503 Y90.181 E399.606
G1 X96.363 Y90.041 E399.611
G1 X95.475 Y90.929 E399.642
G1 F1800 E389.642
G1 F236
G0 X96.04 Y90.364
G0 X95.475 Y90.929
;rapid-dry
G1 F236
G0 X105.026 Y98.553
G1 F1800 E399.642
;bead-support-structure
G1 X104.353 Y98.435 F4200 E399.659
G1 X103.796 Y98.264 E399.674
G1 X102.91 Y97.859 E399.698
G1 X101.913 Y99.294 E399.742
G1 X102.169 Y99.55 E399.751
G1 X103.064 Y101.204 E399.798
G1 X103.158 Y101.096 E399.801
G1 X102.276 Y99.46 E399.848
G1 X102.991 Y99.223 E399.867
G1 X103.4 Y98.436 E399.889
G1 X104.813 Y98.681 E399.925
G1 X105.648 Y98.729 E399.945
G1 F1800 E389.945
G1 F236
G0 X104.85 Y98.683
G0 X105.648 Y98.729
;rapid-dry
G1 F236
G0 X106.547 Y107.346
G1 F1800 E399.945
;bead-sparse_infill
G1 X106.349 Y107.741 F3600 E399.96
G1 Y108.851 E399.997
G1 X106.537 Y109.854 E400.031
G1 X106.547 Y109.87 E400.032
G1 F1800 E390.032
;rapid-dry
G1 F236
G0 X146.22 Y130.835
G1 F1800 E400.032
;bead-sparse_infill
G1 X146.682 Y131.573 F3600 E400.061
G1 X146.719 Y131.771 E400.067
G1 F1800 E390.067
;rapid-dry
G1 F236
G0 X138.382 Y133.265
G1 F1800 E400.067
;bead-sparse_infill
G1 X138.308 Y133.383 F3600 E400.072
G1 X138.041 Y133.598 E400.083
G1 X128.457 Y124.013 E400.534
G1 X128.716 Y123.6 E400.55
G1 X123.563 Y119.118 E400.777
G1 X123.829 Y118.904 E400.789
G1 X124.306 Y118.142 E400.819
G1 X124.7 Y117.513 E400.843
G1 X124.899 Y117.196 E400.856
G1 Y114.477 E400.946
G1 X124.7 Y114.079 E400.961
G1 X124.899 Y102.717 E401.339
G1 X124.7 Y103.034 E401.352
G1 X110.299 Y102.91 E401.831
G1 X110.484 Y102.614 E401.842
G1 X110.501 Y102.521 E401.845
G1 X117.779 Y102.91 E402.088
G1 X117.723 Y102.614 E402.098
G1 X117.665 Y102.521 E402.101
G1 F1800 E392.101
;Layer : 6 of 325
;rapid-leaky
G1 F236
G0 X124.38 Y103.23 Z1.3
G1 F1800 E402.101
;bead-perimeter_inner
G1 X106.867 F1560 E402.684
G1 Y117.822 E403.169
G1 X108.519 E403.224
G1 X108.138 Y119.117 E403.269
G1 X89.67 Y137.365 E404.133
G1 X81.487 Y129.182 E404.517
G1 X82.692 Y127.976 E404.574
G1 X84.091 Y129.375 E404.64
G1 X84.682 Y130.019 E404.669
G1 X85.327 Y130.782 E404.702
G1 X85.917 Y131.406 E404.731
G1 X86.593 Y132.048 E404.762
G1 X87.355 Y132.692 E404.795
G1 X88 Y133.284 E404.824
G1 X90.197 Y135.481 E404.927
G1 X106.029 Y119.65 E405.672
G1 Y102.201 E406.253
G1 X125.219 E406.891
G1 Y119.65 E407.471
G1 X141.05 Y135.481 E408.216
G1 X143.191 Y133.34 E408.316
G1 X143.841 Y132.743 E408.346
G1 X144.425 Y132.256 E408.371
G1 X144.767 Y131.95 E408.386
G1 X145.375 Y131.36 E408.415
G1 X145.913 Y130.782 E408.441
G1 X146.503 Y130.082 E408.471
G1 X147.101 Y129.431 E408.501
G1 X148.443 Y128.089 E408.564
G1 X149.649 Y129.294 E408.621
G1 X141.467 Y137.476 E409.005
G1 X123.11 Y119.118 E409.869
G1 X122.729 Y117.822 E409.914
G1 X124.38 E409.969
G1 Y103.23 E410.454
;rapid-leaky
G1 F236
G0 X125.584 Y101.836
;bead-perimeter_outer
G1 Y119.499 F1080 E411.041
G1 X141.05 Y134.965 E411.769
G1 X142.938 Y133.076 E411.858
G1 X143.603 Y132.466 E411.888
G1 X144.185 Y131.982 E411.913
G1 X144.52 Y131.681 E411.928
G1 X145.114 Y131.105 E411.955
G1 X145.638 Y130.541 E411.981
G1 X146.226 Y129.844 E412.011
G1 X146.837 Y129.178 E412.041
G1 X148.443 Y127.573 E412.117
G1 X150.165 Y129.294 E412.198
G1 X141.467 Y137.992 E412.607
G1 X122.786 Y119.311 E413.486
G1 X122.241 Y117.457 E413.55
G1 X124.015 E413.609
G1 Y103.595 E414.07
G1 X107.232 E414.628
G1 Y117.457 E415.089
G1 X109.007 E415.148
G1 X108.462 Y119.31 E415.213
G1 X89.669 Y137.88 E416.091
G1 X80.971 Y129.182 E416.5
G1 X82.692 Y127.46 E416.581
G1 X84.355 Y129.122 E416.66
G1 X84.957 Y129.779 E416.689
G1 X85.599 Y130.538 E416.722
G1 X86.175 Y131.148 E416.75
G1 X86.837 Y131.776 E416.781
G1 X87.595 Y132.417 E416.814
G1 X88.253 Y133.02 E416.843
G1 X90.197 Y134.965 E416.935
G1 X105.664 Y119.499 E417.662
G1 Y101.836 E418.25
G1 X125.584 E418.912
G1 F1800 E408.912
;rapid-dry
G1 F236
G0 X105.648 Y98.729
G1 F1800 E418.912
;bead-support-structure
G1 X104.813 Y98.681 F4200 E418.933
G1 X103.4 Y98.436 E418.969
G1 X102.991 Y99.223 E418.991
G1 X102.276 Y99.46 E419.01
G1 X103.158 Y101.096 E419.056
G1 X103.064 Y101.204 E419.06
G1 X102.169 Y99.55 E419.107
G1 X101.913 Y99.294 E419.116
G1 X102.91 Y97.859 E419.159
G1 X103.796 Y98.264 E419.184
G1 X104.353 Y98.435 E419.198
G1 X105.026 Y98.553 E419.215
G1 F1800 E409.215
G1 F236
G0 X104.353 Y98.435
G0 X104.242 Y98.401
G0 X104.353 Y98.435
G0 X105.026 Y98.553
;rapid-dry
G1 F236
G0 X95.475 Y90.929
G1 F1800 E419.215
;bead-support-structure
G1 X96.363 Y90.041 F4200 E419.247
G1 X96.503 Y90.181 E419.252
G1 X96.002 Y90.682 E419.269
G1 X95.862 Y90.542 E419.274
G1 X94.536 Y91.866 E419.321
G1 F1800 E409.321
G1 F236
G0 X95.102 Y91.301
G0 X94.536 Y91.866
;rapid-dry
G1 F236
G0 X90.253 Y104.889
G1 F1800 E419.321
;bead-support-structure
G1 X75.899 Y119.243 F4200 E419.827
G1 X75.956 Y119.3 E419.829
G1 X83.594 Y116.765 E420.03
G1 X78.377 Y111.548 E420.214
G1 X77.613 Y111.18 E420.235
G1 X82.077 Y106.717 E420.393
G1 X82.445 Y107.48 E420.414
G1 X87.662 Y112.697 E420.598
G1 X88.425 Y113.065 E420.619
G1 X83.962 Y117.529 E420.777
G1 X85.072 Y117.84 E420.805
G1 X88.736 Y114.175 E420.935
G1 F1800 E410.935
G1 F236
G0 X88.171 Y114.741
G0 X88.736 Y114.175
;rapid-dry
G1 F236
G0 X80.967 Y106.406
G1 F1800 E420.935
;bead-support-structure
G1 X77.302 Y110.07 F4200 E421.064
G1 F1800 E411.064
G1 F236
G0 X77.868 Y109.505
G0 X77.302 Y110.07
;rapid-dry
G1 F236
G0 X74.594 Y120.549
G1 F1800 E421.064
;bead-support-structure
G1 X74.059 Y121.084 F4200 E421.083
G1 F1800 E411.083
G1 F236
G0 X74.594 Y120.549
G0 X74.059 Y121.084
;rapid-dry
G1 F236
G0 X72.467 Y122.155
G1 F1800 E421.083
;bead-support-structure
G1 X73.033 Y122.721 F4200 E421.103
G1 F1800 E411.103
G1 F236
G0 X72.467 Y122.155
G0 X73.033 Y122.721
;rapid-dry
G1 F236
G0 X78.055 Y124.292
G1 F1800 E421.103
;bead-support-structure
G1 X77.096 Y125.252 F4200 E421.137
G1 X69.89 Y118.046 E421.391
G1 X71.559 Y116.382 E421.45
G1 X78.762 Y123.585 E421.704
G1 F1800 E411.704
G1 F236
G0 X78.196 Y123.019
G0 X78.762 Y123.585
;rapid-dry
G1 F236
G0 X88.206 Y135.448
G1 F1800 E421.704
;bead-sparse_infill
G1 X88.563 Y135.193 F3600 E421.718
G1 X88.824 Y134.561 E421.741
G1 F1800 E411.741
;rapid-dry
G1 F236
G0 X96.421 Y130.245
G1 F1800 E421.741
;bead-sparse_infill
G1 X96.549 Y129.763 F3600 E421.758
G1 X96.496 Y129.635 E421.762
G1 X99.28 Y127.42 E421.88
G1 X99.114 Y127.018 E421.895
G1 F1800 E411.895
;rapid-dry
G1 F236
G0 X106.547 Y109.956
G1 F1800 E421.895
;bead-sparse_infill
G1 X106.475 Y109.854 F3600 E421.899
G1 X106.349 Y109.382 E421.915
G1 Y107.18 E421.989
G1 X106.547 Y106.7 E422.006
G1 F1800 E412.006
;rapid-dry
G1 F236
G0 X110.338 Y102.91
G1 F1800 E422.006
;bead-sparse_infill
G1 X110.546 Y102.614 F3600 E422.018
G1 X110.571 Y102.521 E422.021
G1 X117.72 E422.259
G1 X117.786 Y102.614 E422.263
G1 X117.865 Y102.91 E422.273
G1 X124.7 Y103.076 E422.5
G1 X124.899 Y102.794 E422.512
G1 X124.7 Y113.43 E422.866
G1 X124.761 Y113.474 E422.868
G1 X124.899 Y113.808 E422.88
G1 Y117.273 E422.995
G1 X124.7 Y117.555 E423.007
G1 X124.286 Y118.142 E423.031
G1 X123.749 Y118.904 E423.062
G1 X123.515 Y119.071 E423.071
G1 X128.713 Y123.597 E423.301
G1 X128.435 Y123.991 E423.317
G1 X137.994 Y133.55 E423.766
G1 X138.228 Y133.383 E423.776
G1 X138.34 Y133.224 E423.782
G1 F1800 E413.782
;rapid-dry
G1 F236
G0 X146.252 Y130.875
G1 F1800 E423.782
;bead-sparse_infill
G1 X146.744 Y131.573 F3600 E423.811
G1 X146.781 Y131.71 E423.815
G1 F1800 E413.815
;Layer : 7 of 325
;rapid-leaky
G1 F236
G0 X145.755 Y131.071 Z1.5
G1 F1800 E423.815
;bead-perimeter_inner
G1 X146.786 Y129.798 F1560 E423.87
G1 X147.297 Y129.234 E423.895
G1 X148.443 Y128.089 E423.949
G1 X149.649 Y129.294 E424.006
G1 X141.467 Y137.476 E424.391
G1 X123.11 Y119.118 E425.254
G1 X122.729 Y117.822 E425.299
G1 X124.38 E425.354
G1 Y103.23 E425.839
G1 X106.867 E426.422
G1 Y117.822 E426.907
G1 X108.519 E426.962
G1 X108.138 Y119.117 E427.007
G1 X89.67 Y137.365 E427.87
G1 X81.487 Y129.182 E428.255
G1 X82.692 Y127.976 E428.312
G1 X83.894 Y129.178 E428.369
G1 X84.396 Y129.733 E428.393
G1 X85.292 Y130.845 E428.441
G1 X85.581 Y131.18 E428.456
G1 X85.88 Y131.494 E428.47
G1 X86.195 Y131.794 E428.485
G1 X86.53 Y132.083 E428.499
G1 X87.643 Y132.978 E428.547
G1 X88.197 Y133.481 E428.572
G1 X90.197 Y135.481 E428.666
G1 X106.029 Y119.65 E429.41
G1 Y102.201 E429.991
G1 X125.219 E430.629
G1 Y119.65 E431.209
G1 X141.05 Y135.481 E431.954
G1 X142.995 Y133.537 E432.046
G1 X143.559 Y133.025 E432.071
G1 X144.834 Y131.993 E432.125
G1 X145.269 Y131.588 E432.145
G1 X145.755 Y131.071 E432.169
;rapid-leaky
G1 F236
G0 X146.844 Y131.646
;bead-sparse_infill
G1 X146.818 Y131.573 F3600 E432.171
G1 X146.296 Y130.911 E432.199
;rapid-leaky
G1 F236
G0 X145.479 Y130.832
;bead-perimeter_outer
G1 X146.508 Y129.561 F1080 E432.254
G1 X147.033 Y128.982 E432.28
G1 X148.443 Y127.573 E432.346
G1 X150.165 Y129.294 E432.427
G1 X141.467 Y137.992 E432.836
G1 X122.786 Y119.311 E433.715
G1 X122.241 Y117.457 E433.779
G1 X124.015 E433.838
G1 Y103.595 E434.299
G1 X107.232 E434.857
G1 Y117.457 E435.318
G1 X109.007 E435.377
G1 X108.462 Y119.31 E435.442
G1 X89.669 Y137.88 E436.32
G1 X80.971 Y129.182 E436.73
G1 X82.692 Y127.46 E436.811
G1 X84.158 Y128.926 E436.88
G1 X84.675 Y129.497 E436.905
G1 X85.574 Y130.612 E436.953
G1 X85.852 Y130.934 E436.967
G1 X86.139 Y131.235 E436.981
G1 X86.441 Y131.523 E436.995
G1 X86.763 Y131.801 E437.009
G1 X87.878 Y132.699 E437.056
G1 X88.449 Y133.217 E437.082
G1 X90.197 Y134.965 E437.164
G1 X105.664 Y119.499 E437.892
G1 Y101.836 E438.479
G1 X125.584 E439.142
G1 Y119.499 E439.729
G1 X141.05 Y134.965 E440.457
G1 X142.743 Y133.273 E440.536
G1 X143.322 Y132.747 E440.562
G1 X144.593 Y131.719 E440.617
G1 X145.015 Y131.326 E440.636
G1 X145.479 Y130.832 E440.658
G1 F1800 E430.658
;rapid-dry
G1 F236
G0 X138.304 Y133.188
G1 F1800 E440.658
;bead-sparse_infill
G1 X138.15 Y133.383 F3600 E440.667
G1 X137.95 Y133.506 E440.675
G1 X128.41 Y123.965 E441.123
G1 X128.706 Y123.59 E441.139
G1 X123.471 Y119.026 E441.37
G1 X123.671 Y118.904 E441.378
G1 X124.272 Y118.142 E441.41
G1 X124.7 Y117.6 E441.433
G1 X124.899 Y117.348 E441.444
G1 Y113.254 E441.58
G1 X124.7 Y113.132 E441.588
G1 Y103.121 E441.921
G1 X124.899 Y102.869 E441.931
G1 X117.964 Y102.91 E442.162
G1 X117.86 Y102.614 E442.173
G1 X117.786 Y102.521 E442.177
G1 X110.653 E442.414
G1 X110.62 Y102.614 E442.417
G1 X110.387 Y102.91 E442.43
G1 F1800 E432.43
;rapid-dry
G1 F236
G0 X106.547 Y110.04
G1 F1800 E442.43
;bead-sparse_infill
G1 X106.401 Y109.854 F3600 E442.437
G1 X106.349 Y109.707 E442.443
G1 Y106.169 E442.56
G1 X106.547 Y106.048 E442.568
G1 F1800 E432.568
;rapid-dry
G1 F236
G0 X105.648 Y98.729
G1 F1800 E442.568
;bead-support-structure
G1 X104.813 Y98.681 F4200 E442.589
G1 X103.4 Y98.436 E442.625
G1 X102.991 Y99.223 E442.647
G1 X102.276 Y99.46 E442.666
G1 X103.158 Y101.096 E442.712
G1 X103.064 Y101.204 E442.716
G1 X102.169 Y99.55 E442.762
G1 X101.913 Y99.294 E442.772
G1 X102.91 Y97.859 E442.815
G1 X103.796 Y98.264 E442.839
G1 X104.353 Y98.435 E442.854
G1 X105.026 Y98.553 E442.871
G1 F1800 E432.871
G1 F236
G0 X104.353 Y98.435
G0 X104.242 Y98.401
G0 X104.353 Y98.435
G0 X105.026 Y98.553
;rapid-dry
G1 F236
G0 X95.475 Y90.929
G1 F1800 E442.871
;bead-support-structure
G1 X96.363 Y90.041 F4200 E442.902
G1 X96.503 Y90.181 E442.907
G1 X96.002 Y90.682 E442.925
G1 X95.862 Y90.542 E442.93
G1 X94.536 Y91.866 E442.977
G1 F1800 E432.977
G1 F236
G0 X95.102 Y91.301
G0 X94.536 Y91.866
;rapid-dry
G1 F236
G0 X90.253 Y104.889
G1 F1800 E442.977
;bead-support-structure
G1 X75.899 Y119.243 F4200 E443.483
G1 X75.956 Y119.3 E443.485
G1 X83.594 Y116.765 E443.686
G1 X78.377 Y111.548 E443.87
G1 X77.613 Y111.18 E443.891
G1 X82.077 Y106.717 E444.048
G1 X82.445 Y107.48 E444.07
G1 X87.662 Y112.697 E444.254
G1 X88.425 Y113.065 E444.275
G1 X83.962 Y117.529 E444.432
G1 X85.072 Y117.84 E444.461
G1 X88.736 Y114.175 E444.59
G1 F1800 E434.59
G1 F236
G0 X88.171 Y114.741
G0 X88.736 Y114.175
;rapid-dry
G1 F236
G0 X80.967 Y106.406
G1 F1800 E444.59
;bead-support-structure
G1 X77.302 Y110.07 F4200 E444.72
G1 F1800 E434.72
G1 F236
G0 X77.868 Y109.505
G0 X77.302 Y110.07
;rapid-dry
G1 F236
G0 X74.594 Y120.549
G1 F1800 E444.72
;bead-support-structure
G1 X74.059 Y121.084 F4200 E444.738
G1 F1800 E434.738
G1 F236
G0 X74.594 Y120.549
G0 X74.059 Y121.084
;rapid-dry
G1 F236
G0 X72.467 Y122.155
G1 F1800 E444.738
;bead-support-structure
G1 X73.033 Y122.721 F4200 E444.758
G1 F1800 E434.758
G1 F236
G0 X72.467 Y122.155
G0 X73.033 Y122.721
;rapid-dry
G1 F236
G0 X78.055 Y124.292
G1 F1800 E444.758
;bead-support-structure
G1 X77.096 Y125.252 F4200 E444.792
G1 X69.89 Y118.046 E445.046
G1 X71.559 Y116.382 E445.105
G1 X78.762 Y123.585 E445.359
G1 F1800 E435.359
G1 F236
G0 X78.196 Y123.019
G0 X78.762 Y123.585
;rapid-dry
G1 F236
G0 X82.102 Y129.02
G1 F1800 E445.359
;bead-sparse_infill
G1 X82.219 Y129.461 F3600 E445.375
G1 X88.372 Y135.614 E445.664
G1 X89.059 Y135.193 E445.691
G1 X89.142 Y134.879 E445.702
G1 F1800 E435.702
;rapid-dry
G1 F236
G0 X96.708 Y129.961
G1 F1800 E445.702
;bead-sparse_infill
G1 X96.778 Y129.763 F3600 E445.709
G1 X96.692 Y129.439 E445.72
G1 X98.949 Y127.747 E445.814
G1 X98.831 Y127.3 E445.829
G1 F1800 E435.829
;Layer : 8 of 325
;rapid-leaky
G1 F236
G0 X106.029 Y119.65 Z1.7
G1 F1800 E445.829
;bead-perimeter_inner
G1 Y102.201 F1560 E446.409
G1 X125.219 E447.048
G1 Y119.65 E447.628
G1 X141.05 Y135.481 E448.373
G1 X142.821 Y133.711 E448.456
G1 X143.327 Y133.256 E448.478
G1 X144.589 Y132.313 E448.531
G1 X144.92 Y132.04 E448.545
G1 X145.492 Y131.497 E448.571
G1 X145.799 Y131.161 E448.587
G1 X146.074 Y130.829 E448.601
G1 X146.506 Y130.232 E448.625
G1 X147.017 Y129.566 E448.653
G1 X147.472 Y129.06 E448.676
G1 X148.443 Y128.089 E448.722
G1 X149.649 Y129.294 E448.778
G1 X141.467 Y137.476 E449.163
G1 X123.11 Y119.118 E450.027
G1 X122.729 Y117.822 E450.072
G1 X124.38 E450.126
G1 Y103.23 E450.612
G1 X106.867 E451.194
G1 Y117.822 E451.68
G1 X108.519 E451.735
G1 X108.138 Y119.117 E451.779
G1 X89.67 Y137.365 E452.643
G1 X81.487 Y129.182 E453.028
G1 X82.692 Y127.976 E453.085
G1 X83.72 Y129.004 E453.133
G1 X84.169 Y129.505 E453.155
G1 X85.254 Y130.942 E453.215
G1 X85.789 Y131.533 E453.242
G1 X86.113 Y131.845 E453.257
G1 X86.433 Y132.121 E453.271
G1 X87.869 Y133.205 E453.331
G1 X88.371 Y133.655 E453.353
G1 X90.197 Y135.481 E453.439
G1 X106.029 Y119.65 E454.184
;rapid-leaky
G1 F236
G0 X105.664 Y119.499
;bead-perimeter_outer
G1 Y101.836 F1080 E454.771
G1 X125.584 E455.434
G1 Y119.499 E456.021
G1 X141.05 Y134.965 E456.749
G1 X142.57 Y133.446 E456.82
G1 X143.094 Y132.975 E456.843
G1 X144.363 Y132.026 E456.896
G1 X144.681 Y131.764 E456.91
G1 X145.228 Y131.244 E456.935
G1 X145.524 Y130.921 E456.949
G1 X145.787 Y130.603 E456.963
G1 X146.211 Y130.018 E456.987
G1 X146.736 Y129.333 E457.016
G1 X147.207 Y128.809 E457.039
G1 X148.443 Y127.573 E457.098
G1 X150.165 Y129.294 E457.178
G1 X141.467 Y137.992 E457.588
G1 X122.786 Y119.311 E458.466
G1 X122.241 Y117.457 E458.531
G1 X124.015 E458.59
G1 Y103.595 E459.051
G1 X107.232 E459.609
G1 Y117.457 E460.07
G1 X109.007 E460.129
G1 X108.462 Y119.31 E460.193
G1 X89.669 Y137.88 E461.072
G1 X80.971 Y129.182 E461.481
G1 X82.692 Y127.46 E461.562
G1 X83.985 Y128.753 E461.623
G1 X84.452 Y129.274 E461.646
G1 X85.536 Y130.709 E461.706
G1 X86.048 Y131.276 E461.731
G1 X86.359 Y131.575 E461.746
G1 X86.666 Y131.839 E461.759
G1 X88.101 Y132.923 E461.819
G1 X88.622 Y133.39 E461.842
G1 X90.197 Y134.965 E461.916
G1 X105.664 Y119.499 E462.644
;rapid-leaky
G1 F236
G0 X106.349 Y105.701
;bead-sparse_infill
G1 X106.547 Y105.61 F3600 E462.651
G1 Y110.12 E462.801
G1 X106.349 Y109.894 E462.811
G1 X106.832 Y119.958 E463.146
G1 X105.611 Y120.52 E463.191
G1 X105.226 Y120.906 E463.209
G1 X105.321 Y121.451 E463.227
G1 X98.49 Y128.201 E463.547
G1 X98.107 Y128.024 E463.561
G1 X97.175 Y128.956 E463.605
G1 X97.06 Y129.613 E463.627
G1 X92.027 Y134.587 E463.862
G1 X91.13 Y135.001 E463.895
G1 X90.746 Y135.384 E463.913
G1 X90.816 Y135.783 E463.927
G1 X89.662 Y135.399 E463.967
G1 X88.632 Y135.874 E464.005
G1 X82.544 Y129.787 E464.291
G1 X82.555 Y129.763 E464.292
G1 X82.773 Y128.51 E464.334
;rapid-leaky
G1 F236
G0 X86.071 Y132.249
;bead-solid_infill
G1 X85.938 Y132.116 F2400 E464.34
G1 X85.898 Y132.082 E464.342
G1 X85.667 Y131.86 E464.353
G1 X85.559 Y131.756 E464.358
G1 X85.381 Y131.56 E464.367
G1 X85.127 Y131.305 E464.379
G1 F1800 E454.379
;rapid-dry
G1 F236
G0 X78.762 Y123.585
G1 F1800 E464.379
;bead-support-structure
G1 X71.559 Y116.382 F4200 E464.633
G1 X69.89 Y118.046 E464.692
G1 X77.096 Y125.252 E464.946
G1 X78.055 Y124.292 E464.98
G1 F1800 E454.98
G1 F236
G0 X77.49 Y124.858
G0 X78.055 Y124.292
;rapid-dry
G1 F236
G0 X73.033 Y122.721
G1 F1800 E464.98
;bead-support-structure
G1 X72.467 Y122.155 F4200 E465
G1 F1800 E455
G1 F236
G0 X73.033 Y122.721
G0 X72.467 Y122.155
;rapid-dry
G1 F236
G0 X74.059 Y121.084
G1 F1800 E465
;bead-support-structure
G1 X74.594 Y120.549 F4200 E465.018
G1 F1800 E455.018
G1 F236
G0 X74.059 Y121.084
G0 X74.594 Y120.549
;rapid-dry
G1 F236
G0 X77.302 Y110.07
G1 F1800 E465.018
;bead-support-structure
G1 X80.967 Y106.406 F4200 E465.148
G1 F1800 E455.148
G1 F236
G0 X80.401 Y106.971
G0 X80.967 Y106.406
;rapid-dry
G1 F236
G0 X88.736 Y114.175
G1 F1800 E465.148
;bead-support-structure
G1 X85.072 Y117.84 F4200 E465.277
G1 X83.962 Y117.529 E465.306
G1 X88.425 Y113.065 E465.463
G1 X87.662 Y112.697 E465.484
G1 X82.445 Y107.48 E465.668
G1 X82.077 Y106.717 E465.69
G1 X77.613 Y111.18 E465.847
G1 X78.377 Y111.548 E465.868
G1 X83.594 Y116.765 E466.052
G1 X75.956 Y119.3 E466.253
G1 X75.899 Y119.243 E466.255
G1 X90.253 Y104.889 E466.761
G1 F1800 E456.761
G1 F236
G0 X89.688 Y105.454
G0 X90.253 Y104.889
;rapid-dry
G1 F236
G0 X94.536 Y91.866
G1 F1800 E466.761
;bead-support-structure
G1 X95.862 Y90.542 F4200 E466.808
G1 X96.002 Y90.682 E466.813
G1 X96.503 Y90.181 E466.831
G1 X96.363 Y90.041 E466.836
G1 X95.475 Y90.929 E466.867
G1 F1800 E456.867
G1 F236
G0 X96.04 Y90.364
G0 X95.475 Y90.929
;rapid-dry
G1 F236
G0 X105.026 Y98.553
G1 F1800 E466.867
;bead-support-structure
G1 X104.353 Y98.435 F4200 E466.884
G1 X103.796 Y98.264 E466.899
G1 X102.91 Y97.859 E466.923
G1 X101.913 Y99.294 E466.967
G1 X102.169 Y99.55 E466.976
G1 X103.064 Y101.204 E467.022
G1 X103.158 Y101.096 E467.026
G1 X102.276 Y99.46 E467.072
G1 X102.991 Y99.223 E467.091
G1 X103.4 Y98.436 E467.113
G1 X104.813 Y98.681 E467.149
G1 X105.648 Y98.729 E467.17
G1 F1800 E457.17
G1 F236
G0 X104.85 Y98.683
G0 X105.648 Y98.729
;rapid-dry
G1 F236
G0 X110.448 Y102.91
G1 F1800 E467.17
;bead-sparse_infill
G1 X110.707 Y102.614 F3600 E467.183
G1 X110.749 Y102.521 E467.186
G1 X117.865 E467.423
G1 X117.947 Y102.614 E467.427
G1 X118.079 Y102.91 E467.438
G1 X124.7 Y103.168 E467.658
G1 X124.899 Y102.942 E467.668
G1 X124.7 Y112.732 E467.994
G1 X124.899 Y112.824 E468.001
G1 Y117.421 E468.154
G1 X124.7 Y117.648 E468.164
G1 X124.266 Y118.142 E468.186
G1 X123.597 Y118.904 E468.22
G1 X123.427 Y118.982 E468.226
G1 X128.695 Y123.579 E468.459
G1 X128.381 Y123.937 E468.475
G1 X137.905 Y133.462 E468.923
G1 X138.076 Y133.383 E468.929
G1 X138.274 Y133.157 E468.939
G1 F1800 E458.939
;rapid-dry
G1 F236
G0 X145.137 Y132.484
G1 F1800 E468.939
;bead-solid_infill
G1 X145.023 Y132.37 F2400 E468.944
G1 X145.132 Y132.28 E468.949
G1 X145.32 Y132.101 E468.958
G1 X145.448 Y132.229 E468.964
G1 X145.598 Y132.107 E468.97
G1 X145.744 Y131.96 E468.977
G1 X145.61 Y131.826 E468.983
G1 X145.721 Y131.721 E468.988
G1 X145.888 Y131.538 E468.997
G1 X146.011 Y131.661 E469.002
;rapid-leaky
G1 F236
G0 X146.748 Y131.394
;bead-sparse_infill
G1 X146.905 Y131.573 F3600 E469.01
G1 X146.909 Y131.581 E469.011
G1 F1800 E459.011
;Layer : 9 of 325
;rapid-leaky
G1 F236
G0 X145.878 Y131.255 Z1.9
G1 F1800 E469.011
;bead-perimeter_inner
G1 X146.364 Y130.589 F1560 E469.038
G1 X146.789 Y129.945 E469.064
G1 X147.215 Y129.367 E469.088
G1 X147.623 Y128.909 E469.108
G1 X148.443 Y128.089 E469.147
G1 X149.649 Y129.294 E469.203
G1 X141.467 Y137.476 E469.588
G1 X123.11 Y119.118 E470.452
G1 X122.729 Y117.822 E470.496
G1 X124.38 E470.551
G1 Y103.23 E471.037
G1 X106.867 E471.619
G1 Y117.822 E472.105
G1 X108.519 E472.159
G1 X108.138 Y119.117 E472.204
G1 X89.67 Y137.365 E473.068
G1 X81.487 Y129.182 E473.453
G1 X82.692 Y127.976 E473.509
G1 X83.569 Y128.853 E473.551
G1 X83.979 Y129.315 E473.571
G1 X84.4 Y129.888 E473.595
G1 X84.695 Y130.344 E473.613
G1 X85.186 Y131.035 E473.641
G1 X85.444 Y131.356 E473.655
G1 X85.721 Y131.653 E473.668
G1 X86.018 Y131.931 E473.682
G1 X86.34 Y132.189 E473.696
G1 X87.03 Y132.68 E473.724
G1 X87.487 Y132.975 E473.742
G1 X88.06 Y133.396 E473.766
G1 X88.522 Y133.806 E473.786
G1 X90.197 Y135.481 E473.865
G1 X106.029 Y119.65 E474.61
G1 Y102.201 E475.19
G1 X125.219 E475.828
G1 Y119.65 E476.409
G1 X141.05 Y135.481 E477.153
G1 X142.67 Y133.862 E477.229
G1 X143.127 Y133.456 E477.25
G1 X143.706 Y133.03 E477.274
G1 X143.966 Y132.867 E477.284
G1 X144.675 Y132.372 E477.313
G1 X145.015 Y132.118 E477.327
G1 X145.324 Y131.849 E477.34
G1 X145.609 Y131.564 E477.354
G1 X145.878 Y131.255 E477.367
;rapid-leaky
G1 F236
G0 X146.855 Y131.458
;bead-sparse_infill
G1 X146.922 Y131.568 F3600 E477.372
;rapid-leaky
G1 F236
G0 X146.302 Y131.636
;bead-solid_infill
G1 X145.395 Y132.543 F2400 E477.414
;rapid-leaky
G1 F236
G0 X145.594 Y131.026
;bead-perimeter_outer
G1 X146.068 Y130.377 F1080 E477.441
G1 X146.487 Y129.74 E477.466
G1 X146.932 Y129.137 E477.491
G1 X147.358 Y128.658 E477.513
G1 X148.443 Y127.573 E477.564
G1 X150.165 Y129.294 E477.645
G1 X141.467 Y137.992 E478.054
G1 X122.786 Y119.311 E478.932
G1 X122.241 Y117.457 E478.997
G1 X124.015 E479.056
G1 Y103.595 E479.517
G1 X107.232 E480.075
G1 Y117.457 E480.536
G1 X109.007 E480.595
G1 X108.462 Y119.31 E480.659
G1 X89.669 Y137.88 E481.538
G1 X80.971 Y129.182 E481.947
G1 X82.692 Y127.46 E482.028
G1 X83.834 Y128.602 E482.082
G1 X84.263 Y129.085 E482.103
G1 X84.7 Y129.681 E482.128
G1 X84.997 Y130.139 E482.146
G1 X85.477 Y130.815 E482.174
G1 X85.721 Y131.117 E482.187
G1 X85.979 Y131.395 E482.199
G1 X86.257 Y131.654 E482.212
G1 X86.56 Y131.898 E482.225
G1 X87.235 Y132.378 E482.252
G1 X87.695 Y132.674 E482.27
G1 X88.29 Y133.112 E482.295
G1 X88.773 Y133.541 E482.317
G1 X90.197 Y134.965 E482.384
G1 X105.664 Y119.499 E483.111
G1 Y101.836 E483.699
G1 X125.584 E484.361
G1 Y119.499 E484.949
G1 X141.05 Y134.965 E485.676
G1 X142.419 Y133.597 E485.74
G1 X142.897 Y133.172 E485.762
G1 X143.501 Y132.728 E485.787
G1 X143.766 Y132.561 E485.797
G1 X144.466 Y132.072 E485.825
G1 X144.786 Y131.834 E485.839
G1 X145.075 Y131.582 E485.851
G1 X145.342 Y131.315 E485.864
G1 X145.594 Y131.026 E485.877
G1 F1800 E475.877
;rapid-dry
G1 F236
G0 X138.213 Y133.097
G1 F1800 E485.877
;bead-sparse_infill
G1 X137.839 Y133.395 F3600 E485.893
G1 X128.301 Y123.856 E486.341
G1 X128.419 Y123.659 E486.349
G1 X128.618 Y123.501 E486.357
G1 X123.38 Y118.9 E486.589
G1 X124.33 Y118.142 E486.63
G1 X124.7 Y117.847 E486.645
G1 X124.8 Y117.768 E486.65
G1 X124.899 Y117.603 E486.656
G1 Y112.601 E486.822
G1 X124.8 Y112.625 E486.826
G1 X124.7 Y112.589 E486.829
G1 Y103.368 E487.136
G1 X124.8 Y103.288 E487.14
G1 X124.899 Y103.124 E487.147
G1 X118.144 Y102.91 E487.371
G1 X117.91 Y102.521 E487.387
G1 X110.783 E487.624
G1 X110.548 Y102.91 E487.639
G1 F1800 E477.639
;rapid-dry
G1 F236
G0 X106.547 Y105.348
G1 F1800 E487.639
;bead-sparse_infill
G1 X106.349 Y105.299 F3600 E487.646
G1 Y109.945 E487.8
G1 X106.547 Y110.273 E487.813
G1 X106.349 Y119.779 E488.129
G1 X106.701 Y119.864 E488.141
G1 X107.056 Y119.736 E488.154
G1 X104.787 Y121.979 E488.26
G1 X104.277 Y121.854 E488.277
G1 X92.303 Y134.314 E488.852
G1 X92.221 Y134.344 E488.855
G1 X91.872 Y134.259 E488.867
G1 X90.168 Y136.424 E488.958
G1 X88.863 Y136.106 E489.003
;rapid-leaky
G1 F236
G0 X86.448 Y132.659
;bead-solid_infill
G1 X86.347 Y132.76 F2400 E489.008
G1 X85.96 Y132.581 E489.022
G1 X86.119 Y132.422 E489.029
G1 X85.866 Y132.219 E489.04
G1 X85.808 Y132.173 E489.043
G1 X85.805 Y132.17
G1 X85.61 Y132.365 E489.052
G1 X85.581 Y132.347 E489.053
G1 X85.303 Y132.106 E489.065
G1 X85.513 Y131.897 E489.075
G1 X85.494 Y131.88 E489.076
G1 X85.239 Y131.605 E489.089
G1 X85.039 Y131.805 E489.098
G1 X85.029 Y131.793
G1 X84.816 Y131.462 E489.112
G1 X84.984 Y131.294 E489.119
G1 X84.931 Y131.228 E489.122
G1 X84.745 Y130.967 E489.133
G1 X84.637 Y131.076 E489.138
;rapid-leaky
G1 F236
G0 X82.732 Y129.974
;bead-sparse_infill
G1 X83.172 Y129.244 F3600 E489.166
G1 X83.432 Y129.18 E489.175
G1 F1800 E479.175
;rapid-dry
G1 F236
G0 X78.762 Y123.585
G1 F1800 E489.175
;bead-support-structure
G1 X71.559 Y116.382 F4200 E489.429
G1 X69.89 Y118.046 E489.488
G1 X77.096 Y125.252 E489.742
G1 X78.055 Y124.292 E489.776
G1 F1800 E479.776
G1 F236
G0 X77.49 Y124.858
G0 X78.055 Y124.292
;rapid-dry
G1 F236
G0 X73.033 Y122.721
G1 F1800 E489.776
;bead-support-structure
G1 X72.467 Y122.155 F4200 E489.796
G1 F1800 E479.796
G1 F236
G0 X73.033 Y122.721
G0 X72.467 Y122.155
;rapid-dry
G1 F236
G0 X74.059 Y121.084
G1 F1800 E489.796
;bead-support-structure
G1 X74.594 Y120.549 F4200 E489.815
G1 F1800 E479.815
G1 F236
G0 X74.059 Y121.084
G0 X74.594 Y120.549
;rapid-dry
G1 F236
G0 X77.302 Y110.07
G1 F1800 E489.815
;bead-support-structure
G1 X80.967 Y106.406 F4200 E489.944
G1 F1800 E479.944
G1 F236
G0 X80.401 Y106.971
G0 X80.967 Y106.406
;rapid-dry
G1 F236
G0 X88.736 Y114.175
G1 F1800 E489.944
;bead-support-structure
G1 X85.072 Y117.84 F4200 E490.074
G1 X83.962 Y117.529 E490.102
G1 X88.425 Y113.065 E490.26
G1 X87.662 Y112.697 E490.281
G1 X82.445 Y107.48 E490.465
G1 X82.077 Y106.717 E490.486
G1 X77.613 Y111.18 E490.644
G1 X78.377 Y111.548 E490.665
G1 X83.594 Y116.765 E490.849
G1 X75.956 Y119.3 E491.05
G1 X75.899 Y119.243 E491.052
G1 X90.253 Y104.889 E491.558
G1 F1800 E481.558
G1 F236
G0 X89.688 Y105.454
G0 X90.253 Y104.889
;rapid-dry
G1 F236
G0 X105.648 Y98.729
G1 F1800 E491.558
;bead-support-structure
G1 X104.813 Y98.681 F4200 E491.579
G1 X103.4 Y98.436 E491.615
G1 X102.991 Y99.223 E491.637
G1 X102.276 Y99.46 E491.656
G1 X103.158 Y101.096 E491.702
G1 X103.064 Y101.204 E491.706
G1 X102.169 Y99.55 E491.752
G1 X101.913 Y99.294 E491.762
G1 X102.91 Y97.859 E491.805
G1 X103.796 Y98.264 E491.829
G1 X104.353 Y98.435 E491.844
G1 X105.026 Y98.553 E491.861
G1 F1800 E481.861
G1 F236
G0 X104.353 Y98.435
G0 X104.242 Y98.401
G0 X104.353 Y98.435
G0 X105.026 Y98.553
;rapid-dry
G1 F236
G0 X95.475 Y90.929
G1 F1800 E491.861
;bead-support-structure
G1 X96.363 Y90.041 F4200 E491.892
G1 X96.503 Y90.181 E491.897
G1 X96.002 Y90.682 E491.915
G1 X95.862 Y90.542 E491.92
G1 X94.536 Y91.866 E491.967
G1 F1800 E481.967
G1 F236
G0 X95.102 Y91.301
G0 X94.536 Y91.866
;Layer : 10 of 325
;rapid-dry
G1 F236
G0 Z2.1
G1 F1800 E491.967
;bead-support-structure
G1 X95.862 Y90.542 F4200 E492.013
G1 X96.002 Y90.682 E492.018
G1 X96.503 Y90.181 E492.036
G1 X96.363 Y90.041 E492.041
G1 X95.475 Y90.929 E492.072
G1 F1800 E482.072
G1 F236
G0 X96.04 Y90.364
G0 X95.475 Y90.929
;rapid-dry
G1 F236
G0 X105.026 Y98.553
G1 F1800 E492.072
;bead-support-structure
G1 X104.353 Y98.435 F4200 E492.089
G1 X103.796 Y98.264 E492.104
G1 X102.91 Y97.859 E492.128
G1 X101.913 Y99.294 E492.172
G1 X102.169 Y99.55 E492.181
G1 X103.064 Y101.204 E492.228
G1 X103.158 Y101.096 E492.231
G1 X102.276 Y99.46 E492.278
G1 X102.991 Y99.223 E492.297
G1 X103.4 Y98.436 E492.319
G1 X104.813 Y98.681 E492.354
G1 X105.648 Y98.729 E492.375
G1 F1800 E482.375
G1 F236
G0 X104.85 Y98.683
G0 X105.648 Y98.729
;rapid-dry
G1 F236
G0 X106.029 Y102.201
G1 F1800 E492.375
;bead-perimeter_inner
G1 X125.219 F1560 E493.014
G1 Y119.65 E493.594
G1 X141.05 Y135.481 E494.339
G1 X142.53 Y134.002 E494.408
G1 X142.962 Y133.62 E494.427
G1 X143.475 Y133.255 E494.448
G1 X144.459 Y132.668 E494.486
G1 X144.815 Y132.438 E494.5
G1 X145.138 Y132.196 E494.514
G1 X145.428 Y131.942 E494.527
G1 X145.699 Y131.671 E494.539
G1 X145.956 Y131.378 E494.552
G1 X146.198 Y131.055 E494.566
G1 X146.429 Y130.699 E494.58
G1 X147.016 Y129.715 E494.618
G1 X147.382 Y129.2 E494.639
G1 X147.762 Y128.769 E494.658
G1 X148.443 Y128.089 E494.69
G1 X149.649 Y129.294 E494.747
G1 X141.467 Y137.476 E495.132
G1 X123.11 Y119.118 E495.995
G1 X122.729 Y117.822 E496.04
G1 X124.38 E496.095
G1 Y103.23 E496.58
G1 X106.867 E497.163
G1 Y117.822 E497.648
G1 X108.519 E497.703
G1 X108.138 Y119.117 E497.748
G1 X89.67 Y137.365 E498.612
G1 X81.487 Y129.182 E498.997
G1 X82.692 Y127.976 E499.053
G1 X83.429 Y128.713 E499.088
G1 X83.807 Y129.142 E499.107
G1 X84.172 Y129.657 E499.128
G1 X84.877 Y130.826 E499.173
G1 X85.114 Y131.163 E499.187
G1 X85.358 Y131.468 E499.2
G1 X85.621 Y131.753 E499.213
G1 X85.906 Y132.017 E499.226
