;1001
;Printer name: Creality Ender 3 V2
;Print time: 21m:53s
;Extruder 1 material used: 801mm
;Extruder 1 material name: PVA 1.75mm
;Extruder 1 filament diameter: 1.75mm
;Extruder 1 nozzle diameter: 0.4mm
;Extruder 1 offset x: 0mm
;Extruder 1 offset y: 0mm
;Extruder 1 offset z: 0mm
;Extruder 1 max temp: 220
;Bed temp: 60
;Layer count: 50
;Width: 220mm
;Depth: 220mm
;Height: 250mm
;Center x: 110mm
;Center y: 110mm
;Center z: 0mm
;Count of bodies: 1
;Fusion version: 2.0.10032
;--------------------------------
;Selected Profile: PVA 1.75mm, 0.4mm Nozzle
;Selected Printer: Creality, Ender 3 V2
;--------------------------------
T0
M140 S60
M190 S60
M104 S220 T0
M105
M109 S220 T0
G1 F236
G21
G90
M82
;Reset multiplier
M220 S100
M221 S100
;Enable auto bed leveling
M420 S1 Z2
G28
G1 Z10
G92 E0
G0 X10 Y10 Z10
G92 E0
;--------------------------------
;Layer : 1 of 50
M107
;rapid-leaky
G0 X20 Y20.8 Z0.3
G1 F1800 E10
;bead-prime
G1 X200 F270 E45.921
G1 F1800 E35.921
;rapid-dry
G1 F236
G0 X123.007 Y89.151
G1 F1800 E45.921
;bead-skirt/brim
G1 Y101.133 F780 E46.519
G1 X123.038 Y102.19 E46.571
G1 X123.118 Y103.01 E46.613
G1 X123.254 Y103.832 E46.654
G1 X123.442 Y104.641 E46.696
G1 X123.684 Y105.437 E46.737
G1 X123.977 Y106.216 E46.779
G1 X124.32 Y106.973 E46.82
G1 X124.712 Y107.706 E46.862
G1 X125.15 Y108.411 E46.903
G1 X125.646 Y109.102 E46.945
G1 X126.163 Y109.73 E46.986
G1 X126.774 Y110.383 E47.031
G1 X136.256 Y119.865 E47.7
G1 X133.499 Y122.622 E47.894
G1 X134.411 Y123.534 E47.958
G1 X126.287 Y131.658 E48.532
G1 X125.375 Y130.746 E48.596
G1 X123.698 Y132.423 E48.714
G1 X116.975 Y125.7 E49.189
G1 X119.751 Y122.924 E49.385
G1 X119.007 Y120.262 E49.522
G1 X122.033 Y119.28 E49.681
G1 X122.212 Y118.729 E49.71
G1 X113.248 Y109.765 E50.343
G1 Y103.121 E50.674
G1 X114.137 E50.718
G1 Y98.021 E50.973
G1 X105.862 E51.386
G1 Y103.121 E51.64
G1 X106.751 E51.684
G1 Y109.769 E52.016
G1 X97.898 Y118.591 E52.64
G1 X98.048 Y119.181 E52.67
G1 X101.082 Y119.954 E52.826
G1 X100.249 Y122.945 E52.981
G1 X103.011 Y125.717 E53.176
G1 X98.113 Y130.611 E53.522
G1 X98.104 Y130.643 E53.523
G1 X98.093 Y130.632 E53.524
G1 X96.301 Y132.422 E53.651
G1 X94.607 Y130.728 E53.77
G1 X93.693 Y131.638 E53.835
G1 X85.573 Y123.518 E54.407
G1 X86.486 Y122.607 E54.472
G1 X83.744 Y119.865 E54.665
G1 X93.226 Y110.383 E55.334
G1 X93.837 Y109.73 E55.379
G1 X94.365 Y109.088 E55.42
G1 X94.849 Y108.413 E55.462
G1 X95.288 Y107.706 E55.503
G1 X95.68 Y106.973 E55.545
G1 X96.023 Y106.216 E55.586
G1 X96.315 Y105.439 E55.628
G1 X96.562 Y104.622 E55.67
G1 X96.746 Y103.832 E55.711
G1 X96.882 Y103.011 E55.752
G1 X96.963 Y102.184 E55.794
G1 X96.992 Y101.29 E55.838
G1 Y89.151 E56.444
G1 X123.007 E57.742
;rapid-leaky
G1 F236
G0 X122.607 Y89.551
;bead-skirt/brim
G1 Y101.139 F780 E58.32
G1 X122.638 Y102.216 E58.374
G1 X122.722 Y103.063 E58.416
G1 X122.862 Y103.91 E58.459
G1 X123.056 Y104.744 E58.502
G1 X123.305 Y105.566 E58.545
G1 X123.607 Y106.369 E58.587
G1 X123.961 Y107.15 E58.63
G1 X124.365 Y107.906 E58.673
G1 X124.818 Y108.633 E58.716
G1 X125.329 Y109.346 E58.759
G1 X125.862 Y109.994 E58.801
G1 X126.487 Y110.661 E58.847
G1 X135.69 Y119.865 E59.496
G1 X132.933 Y122.622 E59.691
G1 X133.846 Y123.534 E59.755
G1 X126.287 Y131.093 E60.288
G1 X125.375 Y130.18 E60.353
G1 X123.698 Y131.857 E60.471
G1 X117.541 Y125.7 E60.905
G1 X120.199 Y123.042 E61.093
G1 X119.495 Y120.524 E61.223
G1 X122.35 Y119.597 E61.373
G1 X122.668 Y118.619 E61.425
G1 X113.648 Y109.599 E62.061
G1 Y103.521 E62.364
G1 X114.537 E62.409
G1 Y97.621 E62.703
G1 X105.462 E63.156
G1 Y103.521 E63.45
G1 X106.351 E63.494
G1 Y109.603 E63.798
G1 X97.454 Y118.469 E64.424
G1 X97.719 Y119.51 E64.478
G1 X100.587 Y120.24 E64.626
G1 X99.801 Y123.062 E64.772
G1 X102.446 Y125.716 E64.959
G1 X96.301 Y131.856 E65.392
G1 X94.608 Y130.163 E65.512
G1 X93.694 Y131.073 E65.576
G1 X86.139 Y123.518 E66.109
G1 X87.052 Y122.607 E66.173
G1 X84.31 Y119.865 E66.367
G1 X93.513 Y110.661 E67.016
G1 X94.138 Y109.994 E67.062
G1 X94.683 Y109.332 E67.105
G1 X95.182 Y108.635 E67.147
G1 X95.635 Y107.906 E67.19
G1 X96.039 Y107.15 E67.233
G1 X96.393 Y106.369 E67.276
G1 X96.694 Y105.568 E67.318
G1 X96.949 Y104.726 E67.362
G1 X97.138 Y103.91 E67.404
G1 X97.278 Y103.063 E67.447
G1 X97.362 Y102.21 E67.49
G1 X97.392 Y101.297 E67.535
G1 Y89.551 E68.121
G1 X122.607 E69.379
;rapid-leaky
G1 F236
G0 X122.207 Y89.951
;bead-skirt/brim
G1 Y101.145 F780 E69.938
G1 X122.239 Y102.241 E69.992
G1 X122.325 Y103.115 E70.036
G1 X122.469 Y103.988 E70.08
G1 X122.669 Y104.848 E70.124
G1 X122.926 Y105.694 E70.169
G1 X123.237 Y106.522 E70.213
G1 X123.602 Y107.327 E70.257
G1 X124.019 Y108.106 E70.301
G1 X124.485 Y108.856 E70.345
G1 X125.012 Y109.59 E70.39
G1 X125.561 Y110.258 E70.433
G1 X126.199 Y110.939 E70.48
G1 X135.125 Y119.865 E71.109
G1 X132.368 Y122.622 E71.304
G1 X133.28 Y123.534 E71.368
G1 X126.287 Y130.527 E71.862
G1 X125.375 Y129.615 E71.926
G1 X123.698 Y131.292 E72.044
G1 X118.106 Y125.7 E72.439
G1 X120.647 Y123.159 E72.618
G1 X119.984 Y120.786 E72.741
G1 X122.668 Y119.915 E72.882
G1 X123.124 Y118.51 E72.956
G1 X114.048 Y109.434 E73.596
G1 Y103.921 E73.871
G1 X114.937 E73.915
G1 Y97.221 E74.25
G1 X105.062 E74.742
G1 Y103.921 E75.076
G1 X105.951 E75.121
G1 Y109.437 E75.396
G1 X97.011 Y118.347 E76.026
G1 X97.39 Y119.839 E76.103
G1 X100.092 Y120.527 E76.242
G1 X99.353 Y123.179 E76.379
G1 X101.881 Y125.715 E76.558
G1 X96.301 Y131.291 E76.951
G1 X94.608 Y129.598 E77.071
G1 X93.694 Y130.508 E77.135
G1 X86.705 Y123.519 E77.628
G1 X87.618 Y122.608 E77.692
G1 X84.875 Y119.865 E77.886
G1 X93.801 Y110.939 E78.516
G1 X94.439 Y110.258 E78.562
G1 X95 Y109.575 E78.606
G1 X95.514 Y108.857 E78.65
G1 X95.981 Y108.106 E78.695
G1 X96.398 Y107.327 E78.739
G1 X96.763 Y106.522 E78.783
G1 X97.073 Y105.696 E78.827
G1 X97.335 Y104.829 E78.872
G1 X97.531 Y103.988 E78.915
G1 X97.675 Y103.115 E78.959
G1 X97.762 Y102.236 E79.003
G1 X97.792 Y101.303 E79.05
G1 Y89.951 E79.616
G1 X122.207 E80.834
;rapid-leaky
G1 F236
G0 X121.807 Y90.351
;bead-skirt/brim
G1 Y101.15 F780 E81.373
G1 X121.839 Y102.267 E81.429
G1 X121.928 Y103.167 E81.474
G1 X122.076 Y104.066 E81.519
G1 X122.283 Y104.952 E81.565
G1 X122.547 Y105.823 E81.61
G1 X122.868 Y106.675 E81.656
G1 X123.243 Y107.504 E81.701
G1 X123.672 Y108.306 E81.746
G1 X124.152 Y109.079 E81.792
G1 X124.695 Y109.834 E81.838
G1 X125.26 Y110.522 E81.883
G1 X125.912 Y111.218 E81.93
G1 X134.559 Y119.865 E82.54
G1 X131.802 Y122.622 E82.735
G1 X132.714 Y123.534 E82.799
G1 X126.287 Y129.961 E83.253
G1 X125.375 Y129.049 E83.317
G1 X123.698 Y130.726 E83.435
G1 X118.672 Y125.7 E83.79
G1 X121.095 Y123.277 E83.961
G1 X120.472 Y121.048 E84.076
G1 X122.985 Y120.232 E84.208
G1 X123.58 Y118.4 E84.304
G1 X114.448 Y109.268 E84.948
G1 Y104.321 E85.195
G1 X115.337 E85.24
G1 Y96.821 E85.614
G1 X104.662 E86.146
G1 Y104.321 E86.521
G1 X105.551 E86.565
G1 Y109.271 E86.812
G1 X96.567 Y118.224 E87.445
G1 X97.061 Y120.168 E87.545
G1 X99.597 Y120.814 E87.675
G1 X98.905 Y123.296 E87.804
G1 X101.316 Y125.715 E87.974
G1 X96.301 Y130.725 E88.328
G1 X94.609 Y129.033 E88.447
G1 X93.695 Y129.943 E88.512
G1 X87.271 Y123.519 E88.965
G1 X88.184 Y122.608 E89.029
G1 X85.441 Y119.865 E89.223
G1 X94.088 Y111.218 E89.833
G1 X94.74 Y110.522 E89.88
G1 X95.317 Y109.819 E89.926
G1 X95.847 Y109.08 E89.971
G1 X96.328 Y108.307 E90.017
G1 X96.757 Y107.504 E90.062
G1 X97.132 Y106.675 E90.107
G1 X97.452 Y105.824 E90.153
G1 X97.722 Y104.932 E90.199
G1 X97.924 Y104.066 E90.244
G1 X98.072 Y103.167 E90.289
G1 X98.161 Y102.262 E90.334
G1 X98.192 Y101.31 E90.382
G1 Y90.351 E90.929
G1 X121.807 E92.107
;rapid-leaky
G1 F236
G0 X121.407 Y90.751
;bead-skirt/brim
G1 Y101.156 F780 E92.626
G1 X121.44 Y102.292 E92.683
G1 X121.531 Y103.22 E92.729
G1 X121.684 Y104.144 E92.776
G1 X121.896 Y105.055 E92.823
G1 X122.168 Y105.952 E92.869
G1 X122.498 Y106.828 E92.916
G1 X122.884 Y107.681 E92.963
G1 X123.325 Y108.507 E93.009
G1 X123.82 Y109.301 E93.056
G1 X124.377 Y110.078 E93.104
G1 X124.959 Y110.786 E93.15
G1 X125.624 Y111.496 E93.198
G1 X133.993 Y119.865 E93.789
G1 X131.236 Y122.622 E93.983
G1 X132.149 Y123.534 E94.047
G1 X126.287 Y129.396 E94.461
G1 X125.375 Y128.483 E94.525
G1 X123.698 Y130.16 E94.644
G1 X119.238 Y125.7 E94.958
G1 X121.543 Y123.395 E95.121
G1 X120.961 Y121.31 E95.229
G1 X123.303 Y120.55 E95.352
G1 X124.036 Y118.29 E95.47
G1 X114.848 Y109.102 E96.119
G1 Y104.721 E96.337
G1 X115.737 E96.382
G1 Y96.421 E96.796
G1 X104.262 E97.368
G1 Y104.721 E97.782
G1 X105.151 E97.827
G1 Y109.104 E98.045
G1 X96.08 Y118.145 E98.684
G1 X96.13 Y118.131 E98.687
G1 X96.732 Y120.497 E98.809
G1 X99.102 Y121.1 E98.931
G1 X98.458 Y123.414 E99.05
G1 X100.75 Y125.714 E99.213
G1 X96.301 Y130.16 E99.526
G1 X94.61 Y128.468 E99.646
G1 X93.695 Y129.378 E99.71
G1 X87.837 Y123.519 E100.123
G1 X88.75 Y122.608 E100.188
G1 X86.007 Y119.865 E100.381
G1 X94.376 Y111.496 E100.972
G1 X95.04 Y110.786 E101.02
G1 X95.635 Y110.063 E101.067
G1 X96.18 Y109.302 E101.114
G1 X96.675 Y108.507 E101.16
G1 X97.116 Y107.681 E101.207
G1 X97.502 Y106.828 E101.254
G1 X97.831 Y105.953 E101.3
G1 X98.108 Y105.036 E101.348
G1 X98.316 Y104.144 E101.394
G1 X98.469 Y103.22 E101.441
G1 X98.561 Y102.288 E101.487
G1 X98.592 Y101.316 E101.536
G1 Y90.751 E102.063
G1 X121.407 E103.201
;rapid-leaky
G1 F236
G0 X121.007 Y91.151
;bead-skirt/brim
G1 Y101.162 F780 E103.701
G1 X121.04 Y102.317 E103.758
G1 X121.135 Y103.272 E103.806
G1 X121.291 Y104.222 E103.854
G1 X121.51 Y105.159 E103.902
G1 X121.789 Y106.08 E103.95
G1 X122.128 Y106.981 E103.998
G1 X122.525 Y107.858 E104.046
G1 X122.979 Y108.707 E104.094
G1 X123.487 Y109.524 E104.142
G1 X124.06 Y110.321 E104.191
G1 X124.659 Y111.05 E104.238
G1 X125.337 Y111.774 E104.288
G1 X133.428 Y119.865 E104.859
G1 X130.671 Y122.622 E105.053
G1 X131.583 Y123.534 E105.118
G1 X126.287 Y128.83 E105.491
G1 X125.375 Y127.918 E105.556
G1 X123.698 Y129.595 E105.674
G1 X119.803 Y125.7 E105.949
G1 X121.991 Y123.512 E106.103
G1 X121.449 Y121.572 E106.204
G1 X123.62 Y120.867 E106.317
G1 X124.325 Y118.695 E106.431
G1 X125.271 Y118.96 E106.48
G1 X115.248 Y108.937 E107.188
G1 Y105.121 E107.378
G1 X116.137 E107.422
G1 Y96.021 E107.876
G1 X103.862 E108.489
G1 Y105.121 E108.943
G1 X104.751 E108.987
G1 Y108.938 E109.178
G1 X94.721 Y118.935 E109.884
G1 X95.843 Y118.625 E109.942
G1 X96.403 Y120.826 E110.055
G1 X98.607 Y121.387 E110.169
G1 X98.01 Y123.531 E110.28
G1 X100.185 Y125.714 E110.434
G1 X96.302 Y129.594 E110.708
G1 X94.61 Y127.903 E110.827
G1 X93.696 Y128.813 E110.891
G1 X88.403 Y123.52 E111.265
G1 X89.316 Y122.608 E111.329
G1 X86.572 Y119.865 E111.523
G1 X94.663 Y111.774 E112.093
G1 X95.341 Y111.05 E112.143
G1 X95.952 Y110.306 E112.191
G1 X96.513 Y109.524 E112.239
G1 X97.021 Y108.707 E112.287
G1 X97.475 Y107.858 E112.335
G1 X97.872 Y106.981 E112.383
G1 X98.21 Y106.081 E112.431
G1 X98.495 Y105.139 E112.48
G1 X98.709 Y104.222 E112.527
G1 X98.865 Y103.272 E112.575
G1 X98.96 Y102.314 E112.623
G1 X98.992 Y101.323 E112.673
G1 Y91.151 E113.18
G1 X121.007 E114.278
;rapid-leaky
G1 F236
G0 X120.607 Y91.551
;bead-skirt/brim
G1 Y101.168 F780 E114.758
G1 X120.641 Y102.343 E114.817
G1 X120.738 Y103.324 E114.866
G1 X120.899 Y104.3 E114.915
G1 X121.123 Y105.262 E114.965
G1 X121.41 Y106.209 E115.014
G1 X121.758 Y107.134 E115.063
G1 X122.166 Y108.035 E115.113
G1 X122.632 Y108.907 E115.162
G1 X123.154 Y109.746 E115.211
G1 X123.743 Y110.565 E115.262
G1 X124.358 Y111.314 E115.31
G1 X125.049 Y112.052 E115.36
G1 X132.862 Y119.865 E115.912
G1 X130.105 Y122.622 E116.106
G1 X131.017 Y123.534 E116.171
G1 X126.287 Y128.264 E116.504
G1 X125.375 Y127.352 E116.569
G1 X123.698 Y129.029 E116.687
G1 X120.369 Y125.7 E116.922
G1 X122.439 Y123.63 E117.068
G1 X121.938 Y121.834 E117.161
G1 X123.938 Y121.185 E117.266
G1 X124.587 Y119.184 E117.371
G1 X126.383 Y119.686 E117.464
G1 X126.473 Y119.596 E117.47
G1 X115.648 Y108.771 E118.234
G1 Y105.521 E118.396
G1 X116.537 E118.44
G1 Y95.621 E118.934
G1 X103.462 E119.587
G1 Y105.521 E120.081
G1 X104.351 E120.125
G1 Y108.772 E120.287
G1 X93.507 Y119.579 E121.051
G1 X93.589 Y119.662 E121.057
G1 X95.556 Y119.119 E121.159
G1 X96.074 Y121.155 E121.263
G1 X98.112 Y121.674 E121.368
G1 X97.562 Y123.648 E121.471
G1 X99.62 Y125.713 E121.616
G1 X96.302 Y129.029 E121.85
G1 X94.611 Y127.338 E121.969
G1 X93.697 Y128.248 E122.034
G1 X88.969 Y123.52 E122.367
G1 X89.882 Y122.609 E122.432
G1 X87.138 Y119.865 E122.625
G1 X94.951 Y112.052 E123.176
G1 X95.642 Y111.314 E123.227
G1 X96.27 Y110.55 E123.276
G1 X96.845 Y109.747 E123.325
G1 X97.368 Y108.907 E123.375
G1 X97.834 Y108.035 E123.424
G1 X98.242 Y107.134 E123.473
G1 X98.589 Y106.21 E123.523
G1 X98.882 Y105.242 E123.573
G1 X99.101 Y104.3 E123.621
G1 X99.262 Y103.324 E123.671
G1 X99.359 Y102.341 E123.72
G1 X99.392 Y101.329 E123.771
G1 Y91.551 E124.258
G1 X120.607 E125.317
;rapid-leaky
G1 F236
G0 X120.207 Y91.951
;bead-skirt/brim
G1 Y101.174 F780 E125.777
G1 X120.242 Y102.368 E125.837
G1 X120.341 Y103.376 E125.887
G1 X120.506 Y104.378 E125.938
G1 X120.736 Y105.366 E125.988
G1 X121.031 Y106.337 E126.039
G1 X121.388 Y107.287 E126.09
G1 X121.807 Y108.212 E126.14
G1 X122.286 Y109.107 E126.191
G1 X122.822 Y109.969 E126.242
G1 X123.425 Y110.809 E126.293
G1 X124.057 Y111.578 E126.343
G1 X124.762 Y112.331 E126.394
G1 X132.296 Y119.865 E126.926
G1 X129.539 Y122.622 E127.12
G1 X130.451 Y123.534 E127.185
G1 X126.287 Y127.699 E127.479
G1 X125.375 Y126.786 E127.543
G1 X123.698 Y128.463 E127.661
G1 X120.935 Y125.7 E127.856
G1 X122.888 Y123.747 E127.994
G1 X122.426 Y122.096 E128.079
G1 X124.255 Y121.502 E128.175
G1 X124.849 Y119.673 E128.271
G1 X126.5 Y120.134 E128.357
G1 X127.039 Y119.596 E128.395
G1 X116.048 Y108.605 E129.17
G1 Y105.921 E129.304
G1 X116.937 E129.349
G1 Y95.221 E129.882
G1 X103.062 E130.575
G1 Y105.921 E131.109
G1 X103.951 E131.153
G1 Y108.606 E131.287
G1 X92.941 Y119.578 E132.062
G1 X93.47 Y120.109 E132.1
G1 X95.269 Y119.613 E132.193
G1 X95.745 Y121.484 E132.289
G1 X97.617 Y121.961 E132.385
G1 X97.114 Y123.765 E132.479
G1 X99.054 Y125.712 E132.616
G1 X96.302 Y128.463 E132.81
G1 X94.612 Y126.773 E132.929
G1 X93.697 Y127.683 E132.994
G1 X89.535 Y123.52 E133.288
G1 X90.448 Y122.609 E133.352
G1 X87.704 Y119.865 E133.546
G1 X95.238 Y112.33 E134.077
G1 X95.943 Y111.578 E134.129
G1 X96.587 Y110.794 E134.179
G1 X97.178 Y109.969 E134.23
G1 X97.714 Y109.107 E134.28
G1 X98.193 Y108.212 E134.331
G1 X98.612 Y107.287 E134.382
G1 X98.968 Y106.338 E134.432
G1 X99.268 Y105.346 E134.484
G1 X99.494 Y104.378 E134.534
G1 X99.659 Y103.376 E134.584
G1 X99.759 Y102.367 E134.635
G1 X99.792 Y101.336 E134.686
G1 Y91.951 E135.155
G1 X120.207 E136.173
;rapid-leaky
G1 F236
G0 X119.807 Y92.351
;bead-skirt/brim
G1 Y101.179 F780 E136.613
G1 X119.842 Y102.394 E136.674
G1 X119.944 Y103.429 E136.726
G1 X120.114 Y104.456 E136.778
G1 X120.35 Y105.47 E136.83
G1 X120.652 Y106.466 E136.882
G1 X121.019 Y107.44 E136.934
G1 X121.448 Y108.389 E136.986
G1 X121.939 Y109.307 E137.038
G1 X122.489 Y110.191 E137.09
G1 X123.108 Y111.053 E137.143
G1 X123.756 Y111.842 E137.193
G1 X124.474 Y112.609 E137.246
G1 X131.731 Y119.865 E137.758
G1 X128.974 Y122.622 E137.952
G1 X129.886 Y123.534 E138.017
G1 X126.287 Y127.133 E138.271
G1 X125.375 Y126.221 E138.335
G1 X123.698 Y127.898 E138.453
G1 X121.5 Y125.7 E138.608
G1 X123.336 Y123.865 E138.738
G1 X122.915 Y122.358 E138.816
G1 X124.363 Y121.888 E138.892
G1 X124.724 Y122.476 E138.926
G1 X125.227 Y121.974 E138.962
G1 X124.65 Y121.582 E138.997
G1 X125.111 Y120.161 E139.071
G1 X126.618 Y120.583 E139.149
G1 X127.604 Y119.596 E139.219
G1 X116.448 Y108.44 E140.006
G1 Y106.321 E140.112
G1 X117.337 E140.156
G1 Y94.821 E140.73
G1 X102.662 E141.462
G1 Y106.321 E142.036
G1 X103.551 E142.08
G1 Y108.44 E142.186
G1 X92.376 Y119.577 E142.973
G1 X93.352 Y120.557 E143.042
G1 X94.982 Y120.107 E143.126
G1 X95.394 Y121.724 E143.209
G1 X94.832 Y122.043 E143.242
G1 X95.182 Y122.393 E143.266
G1 X95.5 Y121.834 E143.298
G1 X97.122 Y122.247 E143.382
G1 X96.666 Y123.883 E143.466
G1 X98.489 Y125.712 E143.595
G1 X96.302 Y127.897 E143.75
G1 X94.612 Y126.208 E143.869
G1 X93.698 Y127.118 E143.933
G1 X90.101 Y123.521 E144.187
G1 X91.014 Y122.609 E144.251
G1 X88.269 Y119.865 E144.445
G1 X95.526 Y112.609 E144.957
G1 X96.244 Y111.842 E145.009
G1 X96.905 Y111.037 E145.061
G1 X97.511 Y110.191 E145.113
G1 X98.061 Y109.307 E145.165
G1 X98.552 Y108.389 E145.217
G1 X98.981 Y107.44 E145.269
G1 X99.347 Y106.466 E145.321
G1 X99.655 Y105.449 E145.374
G1 X99.886 Y104.456 E145.425
G1 X100.056 Y103.429 E145.477
G1 X100.158 Y102.393 E145.529
G1 X100.192 Y101.342 E145.581
G1 Y92.351 E146.03
G1 X119.807 E147.008
;rapid-leaky
G1 F236
G0 X119.407 Y92.751
;bead-skirt/brim
G1 Y101.185 F780 E147.429
G1 X119.443 Y102.419 E147.491
G1 X119.547 Y103.481 E147.544
G1 X119.721 Y104.534 E147.597
G1 X119.963 Y105.573 E147.65
G1 X120.273 Y106.595 E147.704
G1 X120.649 Y107.593 E147.757
G1 X121.089 Y108.566 E147.81
G1 X121.592 Y109.507 E147.863
G1 X122.156 Y110.414 E147.917
G1 X122.791 Y111.297 E147.971
G1 X123.455 Y112.106 E148.023
G1 X124.187 Y112.887 E148.077
G1 X131.165 Y119.865 E148.569
G1 X123.698 Y127.332 E149.096
G1 X122.066 Y125.7 E149.211
G1 X128.17 Y119.596 E149.642
G1 X116.848 Y108.274 E150.44
G1 Y106.721 E150.518
G1 X117.737 E150.562
G1 Y94.421 E151.176
G1 X102.262 E151.948
G1 Y106.721 E152.562
G1 X103.151 E152.606
G1 Y108.274 E152.683
G1 X91.81 Y119.576 E153.482
G1 X97.924 Y125.711 E153.914
G1 X96.302 Y127.332 E154.029
G1 X88.835 Y119.865 E154.556
G1 X95.813 Y112.887 E155.048
G1 X96.545 Y112.106 E155.101
G1 X97.222 Y111.281 E155.154
G1 X97.844 Y110.414 E155.208
G1 X98.408 Y109.507 E155.261
G1 X98.911 Y108.566 E155.314
G1 X99.351 Y107.593 E155.367
G1 X99.726 Y106.595 E155.421
G1 X100.042 Y105.552 E155.475
G1 X100.279 Y104.534 E155.527
G1 X100.453 Y103.481 E155.58
G1 X100.557 Y102.419 E155.634
G1 X100.592 Y101.349 E155.687
G1 Y92.751 E156.116
G1 X119.407 E157.055
;rapid-leaky
G1 F236
G0 X125.373 Y120.65
;bead-skirt/brim
G1 X126.464 Y120.955 F780 E157.111
G1 X125.645 Y121.775 E157.169
G1 X125.123 Y121.42 E157.201
G1 X125.373 Y120.65 E157.241
;rapid-leaky
G1 F236
G0 X124.187 Y122.366
;bead-skirt/brim
G1 X124.516 Y122.903 F780 E157.272
G1 X123.708 Y123.711 E157.329
G1 X123.403 Y122.62 E157.386
G1 X124.187 Y122.366 E157.427
;rapid-leaky
G1 F236
G0 X125.548 Y125.828
;bead-skirt/brim
G1 X128.581 Y122.795 F780 E157.641
G1 X129.32 Y123.534 E157.693
G1 X126.287 Y126.567 E157.907
G1 X125.548 Y125.828 E157.959
;rapid-leaky
G1 F236
G0 X96.626 Y122.534
;bead-skirt/brim
G1 X96.294 Y123.728 F780 E158.021
G1 X95.395 Y122.827 E158.085
G1 X95.697 Y122.297 E158.115
G1 X96.626 Y122.534 E158.163
;rapid-leaky
G1 F236
G0 X94.931 Y121.527
;bead-skirt/brim
G1 X94.4 Y121.828 F780 E158.193
G1 X93.504 Y120.93 E158.257
G1 X94.695 Y120.601 E158.318
G1 X94.931 Y121.527 E158.366
;rapid-leaky
G1 F236
G0 X91.406 Y122.783
;bead-skirt/brim
G1 X94.439 Y125.816 F780 E158.58
G1 X93.699 Y126.553 E158.632
G1 X90.667 Y123.521 E158.846
G1 X91.406 Y122.783 E158.898
G1 F1800 E148.898
;rapid-dry
G1 F236
G0 X89.917 Y119.865
G1 F1800 E158.898
;bead-perimeter_inner
G1 X96.363 Y113.419 F780 E159.353
G1 X97.12 Y112.611 E159.408
G1 X97.829 Y111.747 E159.464
G1 X98.48 Y110.839 E159.52
G1 X99.071 Y109.89 E159.576
G1 X99.597 Y108.904 E159.631
G1 X100.058 Y107.886 E159.687
G1 X100.451 Y106.84 E159.743
G1 X100.781 Y105.75 E159.8
G1 X101.029 Y104.683 E159.854
G1 X101.211 Y103.581 E159.91
G1 X101.321 Y102.469 E159.966
G1 X101.357 Y101.361 E160.021
G1 Y93.516 E160.412
G1 X118.642 E161.275
G1 Y101.196 E161.658
G1 X118.679 Y102.468 E161.721
G1 X118.789 Y103.581 E161.777
G1 X118.971 Y104.683 E161.833
G1 X119.224 Y105.771 E161.889
G1 X119.549 Y106.841 E161.944
G1 X119.942 Y107.886 E162
G1 X120.403 Y108.904 E162.056
G1 X120.929 Y109.89 E162.112
G1 X121.52 Y110.839 E162.167
G1 X122.184 Y111.764 E162.224
G1 X122.88 Y112.611 E162.279
G1 X123.637 Y113.419 E162.334
G1 X130.083 Y119.865 E162.789
G1 X123.698 Y126.25 E163.24
G1 X123.148 Y125.7 E163.278
G1 X129.252 Y119.596 E163.709
G1 X117.613 Y107.957 E164.53
G1 Y107.486 E164.554
G1 X118.502 E164.598
G1 Y93.656 E165.288
G1 X101.497 E166.136
G1 Y107.486 E166.826
G1 X102.386 E166.871
G1 Y107.956 E166.894
G1 X90.728 Y119.575 E167.715
G1 X96.843 Y125.71 E168.147
G1 X96.302 Y126.25 E168.186
G1 X89.917 Y119.865 E168.636
;rapid-leaky
G1 F236
G0 X89.401
;bead-perimeter_outer
G1 X96.101 Y113.165 F540 E169.109
G1 X96.845 Y112.37 E169.163
G1 X97.54 Y111.525 E169.218
G1 X98.176 Y110.636 E169.272
G1 X98.754 Y109.707 E169.327
G1 X99.269 Y108.743 E169.381
G1 X99.721 Y107.747 E169.436
G1 X100.106 Y106.723 E169.491
G1 X100.428 Y105.656 E169.546
G1 X100.671 Y104.612 E169.6
G1 X100.849 Y103.533 E169.654
G1 X100.957 Y102.445 E169.709
G1 X100.992 Y101.355 E169.763
G1 Y93.151 E170.172
G1 X119.007 E171.071
G1 Y101.191 E171.472
G1 X119.043 Y102.445 E171.535
G1 X119.151 Y103.533 E171.589
G1 X119.329 Y104.612 E171.644
G1 X119.577 Y105.677 E171.699
G1 X119.895 Y106.723 E171.753
G1 X120.279 Y107.747 E171.808
G1 X120.731 Y108.743 E171.862
G1 X121.246 Y109.707 E171.917
G1 X121.824 Y110.636 E171.971
G1 X122.473 Y111.541 E172.027
G1 X123.155 Y112.37 E172.08
G1 X123.899 Y113.165 E172.135
G1 X130.599 Y119.865 E172.608
G1 X123.698 Y126.766 E173.094
G1 X122.632 Y125.7 E173.17
G1 X128.736 Y119.596 E173.6
G1 X117.248 Y108.108 E174.411
G1 Y107.121 E174.46
G1 X118.137 E174.504
G1 Y94.021 E175.158
G1 X101.862 E175.97
G1 Y107.121 E176.624
G1 X102.751 E176.668
G1 Y108.108 E176.717
G1 X91.244 Y119.576 E177.528
G1 X97.358 Y125.711 E177.96
G1 X96.302 Y126.766 E178.034
G1 X89.401 Y119.865 E178.521
;rapid-leaky
G1 F236
G0 X96.169 Y125.665
;bead-solid_infill
G1 X96.257 Y125.576 F1200 E178.527
G1 X95.975 Y125.293 E178.547
G1 X95.886 Y125.382 E178.554
G1 X95.603 Y125.099 E178.574
G1 X95.693 Y125.01 E178.58
G1 X95.41 Y124.726 E178.6
G1 X95.321 Y124.816 E178.606
G1 X95.038 Y124.533 E178.626
G1 X95.128 Y124.443 E178.632
G1 X94.846 Y124.16 E178.652
G1 X94.755 Y124.25 E178.659
G1 X94.472 Y123.967 E178.679
G1 X94.563 Y123.876 E178.685
G1 X94.281 Y123.593 E178.705
G1 X94.189 Y123.685 E178.712
G1 X93.906 Y123.402 E178.732
G1 X93.999 Y123.31 E178.738
G1 X93.716 Y123.026 E178.758
G1 X93.624 Y123.119 E178.765
G1 X93.341 Y122.836 E178.785
G1 X93.434 Y122.743 E178.791
G1 X93.151 Y122.46 E178.811
G1 X93.058 Y122.553 E178.818
G1 X92.775 Y122.27 E178.838
G1 X92.869 Y122.176 E178.844
G1 X92.587 Y121.893 E178.864
G1 X92.492 Y121.988 E178.871
G1 X92.209 Y121.705 E178.891
G1 X92.304 Y121.61 E178.898
G1 X92.022 Y121.326 E178.917
G1 X91.926 Y121.422 E178.924
G1 X91.644 Y121.139 E178.944
G1 X91.74 Y121.043 E178.951
G1 X91.457 Y120.76 E178.971
G1 X91.361 Y120.856 E178.978
G1 X91.078 Y120.573 E178.998
G1 X91.175 Y120.476 E179.004
G1 X90.893 Y120.193 E179.024
G1 X90.795 Y120.291 E179.031
G1 X90.512 Y120.008 E179.051
G1 X90.61 Y119.91 E179.058
;rapid-leaky
G1 F236
G0 X99.358 Y110.03
;bead-solid_infill
G1 X101.583 Y107.806 F1200 E179.215
G1 X101.177 E179.235
G1 Y107.646 E179.243
G1 X99.973 Y108.85 E179.328
G1 X100.354 Y108.009 E179.374
G1 X100.418 Y107.839 E179.383
G1 X101.177 Y107.08 E179.437
G1 Y106.515 E179.465
G1 X100.757 Y106.934 E179.495
G1 X101.003 Y106.123 E179.537
G1 X101.177 Y105.949 E179.549
G1 F1800 E169.549
;rapid-dry
G1 F236
G0 X118.822 Y105.84
G1 F1800 E179.549
;bead-solid_infill
G1 X118.895 Y105.768 F1200 E179.555
G1 X118.915 Y105.854 E179.559
G1 X119.022 Y106.206 E179.577
G1 X118.822 Y106.406 E179.591
G1 Y106.971 E179.62
G1 X119.153 Y106.64 E179.643
G1 X119.246 Y106.944 E179.659
G1 X119.292 Y107.067 E179.665
G1 X118.822 Y107.537 E179.699
G1 Y107.806 E179.712
G1 X118.553 E179.725
G1 X118.234 Y108.125 E179.748
G1 X117.951 Y107.842 E179.768
G1 X117.987 Y107.806 E179.77
G1 F1800 E169.77
;rapid-dry
G1 F236
G0 X118.517 Y108.408
G1 F1800 E179.77
;bead-solid_infill
G1 X119.447 Y107.478 F1200 E179.836
G1 X119.601 Y107.889 E179.858
G1 X118.8 Y108.691 E179.915
G1 X119.082 Y108.974 E179.934
G1 X119.771 Y108.285 E179.983
G1 X119.948 Y108.674 E180.004
G1 X119.365 Y109.257 E180.045
G1 X119.548 Y109.44 E180.058
G1 X119.648 Y109.54 E180.065
G1 X120.125 Y109.063 E180.099
G1 X120.322 Y109.431 E180.12
G1 X119.931 Y109.822 E180.147
G1 X120.214 Y110.105 E180.167
G1 X120.519 Y109.8 E180.189
G1 X120.652 Y110.05 E180.203
G1 X120.722 Y110.162 E180.21
G1 X120.497 Y110.388 E180.226
G1 X120.779 Y110.671 E180.246
G1 X120.939 Y110.511 E180.257
G1 X121.156 Y110.86 E180.277
G1 X121.062 Y110.954 E180.284
G1 X121.345 Y111.237 E180.304
G1 X121.384 Y111.198 E180.307
G1 F1800 E170.307
;Layer : 2 of 50
M106 S255
;rapid-leaky
G1 F236
G0 X121.52 Y110.839 Z0.5
G1 F1800 E180.307
;bead-perimeter_inner
G1 X122.171 Y111.747 F1560 E180.344
G1 X122.88 Y112.611 E180.381
G1 X123.637 Y113.419 E180.418
G1 X130.083 Y119.865 E180.721
G1 X123.698 Y126.25 E181.021
G1 X123.148 Y125.7 E181.047
G1 X129.252 Y119.596 E181.334
G1 X117.613 Y107.957 E181.882
G1 Y107.486 E181.897
G1 X118.502 E181.927
G1 Y93.656 E182.387
G1 X101.497 E182.953
G1 Y107.486 E183.413
G1 X102.386 E183.442
G1 Y107.956 E183.458
G1 X90.728 Y119.575 E184.005
G1 X96.843 Y125.71 E184.293
G1 X96.302 Y126.25 E184.319
G1 X89.917 Y119.865 E184.619
G1 X96.363 Y113.419 E184.922
G1 X97.12 Y112.61 E184.959
G1 X97.855 Y111.713 E184.998
G1 X98.48 Y110.839 E185.033
G1 X99.071 Y109.89 E185.071
G1 X99.597 Y108.904 E185.108
G1 X100.058 Y107.886 E185.145
G1 X100.452 Y106.84 E185.182
G1 X100.786 Y105.73 E185.221
G1 X101.029 Y104.683 E185.256
G1 X101.211 Y103.581 E185.294
G1 X101.321 Y102.469 E185.331
G1 X101.357 Y101.361 E185.368
G1 Y93.516 E185.629
G1 X118.642 E186.203
G1 X118.643 Y101.404 E186.466
G1 X118.679 Y102.469 E186.501
G1 X118.789 Y103.581 E186.538
G1 X118.971 Y104.683 E186.576
G1 X119.224 Y105.771 E186.613
G1 X119.549 Y106.841 E186.65
G1 X119.942 Y107.886 E186.687
G1 X120.403 Y108.905 E186.724
G1 X120.952 Y109.926 E186.763
G1 X121.52 Y110.839 E186.799
;rapid-leaky
G1 F236
G0 X121.824 Y110.636
;bead-perimeter_outer
G1 X122.46 Y111.525 F1080 E186.835
G1 X123.155 Y112.37 E186.871
G1 X123.899 Y113.165 E186.908
G1 X130.599 Y119.865 E187.223
G1 X123.698 Y126.766 E187.547
G1 X122.632 Y125.7 E187.597
G1 X128.736 Y119.596 E187.885
G1 X117.248 Y108.108 E188.425
G1 Y107.121 E188.458
G1 X118.137 E188.487
G1 Y94.021 E188.923
G1 X101.862 E189.464
G1 Y107.121 E189.9
G1 X102.751 E189.93
G1 Y108.108 E189.962
G1 X91.244 Y119.576 E190.503
G1 X97.358 Y125.711 E190.791
G1 X96.302 Y126.766 E190.84
G1 X89.401 Y119.865 E191.165
G1 X96.101 Y113.165 E191.48
G1 X96.846 Y112.37 E191.516
G1 X97.565 Y111.491 E191.554
G1 X98.176 Y110.636 E191.589
G1 X98.754 Y109.707 E191.626
G1 X99.269 Y108.743 E191.662
G1 X99.721 Y107.747 E191.698
G1 X100.106 Y106.723 E191.735
G1 X100.433 Y105.636 E191.772
G1 X100.671 Y104.612 E191.807
G1 X100.849 Y103.533 E191.844
G1 X100.957 Y102.445 E191.88
G1 X100.992 Y101.355 E191.916
G1 Y93.151 E192.189
G1 X119.007 E192.788
G1 X119.008 Y101.398 E193.063
G1 X119.043 Y102.445 E193.098
G1 X119.151 Y103.533 E193.134
G1 X119.329 Y104.612 E193.17
G1 X119.577 Y105.677 E193.207
G1 X119.895 Y106.723 E193.243
G1 X120.279 Y107.747 E193.279
G1 X120.731 Y108.743 E193.316
G1 X121.268 Y109.743 E193.354
G1 X121.824 Y110.636 E193.389
;rapid-leaky
G1 F236
G0 X121.118 Y110.799
;bead-solid_infill
G1 X118.125 Y107.806 F2400 E193.529
G1 X118.691 E193.548
G1 X120.331 Y109.446 E193.625
G1 X120.116 Y109.046 E193.64
G1 X119.801 Y108.35 E193.666
G1 X118.822 Y107.372 E193.712
G1 Y106.806 E193.731
G1 X119.418 Y107.402 E193.759
G1 X119.246 Y106.944 E193.775
G1 X119.124 Y106.542 E193.789
G1 X118.822 Y106.24 E193.803
G1 Y105.675 E193.822
G1 X118.888 Y105.741 E193.825
G1 F1800 E183.825
;rapid-dry
G1 F236
G0 X101.177 Y105.566
G1 F1800 E193.825
;bead-solid_infill
G1 X101.157 Y105.546 F2400 E193.826
G1 X101.096 Y105.812 E193.835
G1 X101.04 Y105.995 E193.841
G1 X101.177 Y106.132 E193.848
G1 Y106.697 E193.867
G1 X100.909 Y106.43 E193.879
G1 X100.778 Y106.864 E193.894
G1 X101.177 Y107.263 E193.913
G1 Y107.806 E193.931
G1 X101.72 E193.949
G1 X101.902 Y107.987 E193.958
G1 X101.618 Y108.27 E193.971
G1 X100.628 Y107.28 E194.018
G1 X100.554 Y107.476 E194.025
G1 X100.474 Y107.691 E194.032
G1 X101.335 Y108.552 E194.073
G1 X101.052 Y108.835 E194.086
G1 X100.314 Y108.097 E194.121
G1 X100.138 Y108.486 E194.135
G1 X100.768 Y109.117 E194.165
G1 X100.485 Y109.399 E194.178
G1 X99.961 Y108.876 E194.203
G1 X99.884 Y109.046 E194.209
G1 X99.773 Y109.253 E194.217
G1 X100.202 Y109.682 E194.237
G1 X100.195 Y109.688
G1 X99.918 Y109.964 E194.25
G1 X99.576 Y109.622 E194.266
G1 X99.379 Y109.991 E194.28
G1 X99.635 Y110.246 E194.292
G1 X99.352 Y110.529 E194.305
G1 X99.166 Y110.343 E194.314
G1 X98.949 Y110.691 E194.328
G1 X99.068 Y110.811 E194.333
G1 X98.785 Y111.093 E194.347
G1 X98.73 Y111.039 E194.349
G1 X98.495 Y111.369 E194.363
G1 X98.502 Y111.376
G1 F1800 E184.363
;rapid-dry
G1 F236
G0 X123.87 Y125.43
G1 F1800 E194.363
;bead-solid_infill
G1 X123.967 Y125.528 F2400 E194.368
G1 X124.25 Y125.245 E194.381
G1 X124.153 Y125.148 E194.386
G1 X124.436 Y124.865 E194.399
G1 X124.533 Y124.962 E194.403
G1 X124.816 Y124.679 E194.417
G1 X124.719 Y124.582 E194.421
G1 X125.001 Y124.299 E194.435
G1 X125.099 Y124.397 E194.439
G1 X125.382 Y124.114 E194.453
G1 X125.284 Y124.016 E194.457
G1 X125.567 Y123.733 E194.47
G1 X125.665 Y123.831 E194.475
G1 X125.947 Y123.548 E194.488
G1 X125.85 Y123.451 E194.493
G1 X126.133 Y123.168 E194.506
G1 X126.23 Y123.265 E194.511
G1 X126.513 Y122.982 E194.524
G1 X126.416 Y122.885 E194.529
G1 X126.698 Y122.602 E194.542
G1 X126.796 Y122.7 E194.547
G1 X127.079 Y122.417 E194.56
G1 X126.981 Y122.319 E194.564
G1 X127.264 Y122.036 E194.578
G1 X127.362 Y122.134 E194.582
G1 X127.644 Y121.851 E194.596
G1 X127.547 Y121.754 E194.6
G1 X127.83 Y121.471 E194.614
G1 X127.927 Y121.568 E194.618
G1 X128.21 Y121.285 E194.631
G1 X128.113 Y121.188 E194.636
G1 X128.396 Y120.905 E194.649
G1 X128.493 Y121.002 E194.654
G1 X128.776 Y120.72 E194.667
G1 X128.678 Y120.622 E194.672
G1 X128.961 Y120.339 E194.685
G1 X129.059 Y120.437 E194.69
G1 X129.342 Y120.154 E194.703
G1 X129.244 Y120.056 E194.708
G1 X129.527 Y119.774 E194.721
G1 X129.624 Y119.871 E194.725
G1 F1800 E184.725
;Layer : 3 of 50
;rapid-leaky
G1 F236
G0 X130.083 Y119.865 Z0.7
G1 F1800 E194.725
;bead-perimeter_inner
G1 X123.698 Y126.25 F1560 E195.026
G1 X123.148 Y125.7 E195.052
G1 X129.252 Y119.596 E195.339
G1 X117.613 Y107.957 E195.886
G1 Y107.486 E195.902
G1 X118.502 E195.931
G1 Y93.656 E196.391
G1 X101.497 E196.957
G1 Y107.486 E197.417
G1 X102.386 E197.447
G1 Y107.956 E197.462
G1 X90.728 Y119.575 E198.01
G1 X96.843 Y125.71 E198.298
G1 X96.302 Y126.25 E198.323
G1 X89.917 Y119.865 E198.623
G1 X96.363 Y113.419 E198.927
G1 X97.12 Y112.611 E198.964
G1 X97.83 Y111.747 E199.001
G1 X98.515 Y110.784 E199.04
G1 X99.071 Y109.89 E199.075
G1 X99.597 Y108.904 E199.112
G1 X100.058 Y107.886 E199.149
G1 X100.451 Y106.841 E199.186
G1 X100.776 Y105.771 E199.224
G1 X101.029 Y104.683 E199.261
G1 X101.211 Y103.581 E199.298
G1 X101.321 Y102.469 E199.335
G1 X101.357 Y101.361 E199.372
G1 Y93.516 E199.633
G1 X118.642 E200.208
G1 Y101.361 E200.469
G1 X118.679 Y102.469 E200.506
G1 X118.789 Y103.581 E200.543
G1 X118.971 Y104.683 E200.58
G1 X119.224 Y105.771 E200.617
G1 X119.549 Y106.841 E200.654
G1 X119.942 Y107.886 E200.691
G1 X120.403 Y108.904 E200.729
G1 X120.929 Y109.89 E200.766
G1 X121.52 Y110.839 E200.803
G1 X122.171 Y111.747 E200.84
G1 X122.88 Y112.611 E200.877
G1 X123.637 Y113.419 E200.914
G1 X130.083 Y119.865 E201.217
;rapid-leaky
G1 F236
G0 X130.599
;bead-perimeter_outer
G1 X123.698 Y126.766 F1080 E201.542
G1 X122.632 Y125.7 E201.592
G1 X128.736 Y119.596 E201.879
G1 X117.248 Y108.108 E202.42
G1 Y107.121 E202.452
G1 X118.137 E202.482
G1 Y94.021 E202.918
G1 X101.862 E203.459
G1 Y107.121 E203.895
G1 X102.751 E203.924
G1 Y108.108 E203.957
G1 X91.244 Y119.576 E204.497
G1 X97.358 Y125.711 E204.785
G1 X96.302 Y126.766 E204.835
G1 X89.401 Y119.865 E205.16
G1 X96.101 Y113.165 E205.475
G1 X96.845 Y112.37 E205.511
G1 X97.54 Y111.525 E205.548
G1 X98.211 Y110.582 E205.586
G1 X98.754 Y109.707 E205.62
G1 X99.269 Y108.743 E205.657
G1 X99.721 Y107.747 E205.693
G1 X100.105 Y106.723 E205.729
G1 X100.423 Y105.677 E205.766
G1 X100.671 Y104.612 E205.802
G1 X100.849 Y103.533 E205.838
G1 X100.957 Y102.445 E205.875
G1 X100.992 Y101.355 E205.911
G1 Y93.151 E206.184
G1 X119.007 E206.783
G1 Y101.355 E207.056
G1 X119.043 Y102.445 E207.092
G1 X119.151 Y103.533 E207.129
G1 X119.329 Y104.612 E207.165
G1 X119.577 Y105.677 E207.201
G1 X119.895 Y106.723 E207.238
G1 X120.279 Y107.747 E207.274
G1 X120.731 Y108.743 E207.311
G1 X121.246 Y109.707 E207.347
G1 X121.824 Y110.636 E207.383
G1 X122.46 Y111.525 E207.42
G1 X123.155 Y112.37 E207.456
G1 X123.899 Y113.165 E207.492
G1 X130.599 Y119.865 E207.807
;rapid-leaky
G1 F236
G0 X121.384 Y111.198
;bead-solid_infill
G1 X121.345 Y111.237 F2400 E207.809
G1 X121.062 Y110.954 E207.822
G1 X121.156 Y110.86 E207.827
G1 X120.939 Y110.511 E207.841
G1 X120.779 Y110.671 E207.848
G1 X120.608 Y110.499 E207.856
G1 X120.497 Y110.388 E207.861
G1 X120.722 Y110.162 E207.872
G1 X120.652 Y110.05 E207.876
G1 X120.519 Y109.8 E207.886
G1 X120.214 Y110.105 E207.9
G1 X119.931 Y109.822 E207.913
G1 X120.322 Y109.431 E207.932
G1 X120.125 Y109.063 E207.946
G1 X119.648 Y109.54 E207.968
G1 X119.365 Y109.257 E207.981
G1 X119.948 Y108.674 E208.009
G1 X119.771 Y108.285 E208.023
G1 X119.082 Y108.974 E208.055
G1 X118.8 Y108.691 E208.069
G1 X119.601 Y107.889 E208.106
G1 X119.447 Y107.478 E208.121
G1 X118.517 Y108.408 E208.165
G1 F1800 E198.165
;rapid-dry
G1 F236
G0 X117.987 Y107.806
G1 F1800 E208.165
;bead-solid_infill
G1 X117.951 Y107.842 F2400 E208.167
G1 X118.234 Y108.125 E208.18
G1 X118.553 Y107.806 E208.195
G1 X118.822 E208.204
G1 Y107.537 E208.213
G1 X119.292 Y107.067 E208.235
G1 X119.246 Y106.944 E208.239
G1 X119.153 Y106.64 E208.25
G1 X118.822 Y106.971 E208.265
G1 Y106.406 E208.284
G1 X119.022 Y106.206 E208.294
G1 X118.915 Y105.854 E208.306
G1 X118.895 Y105.768 E208.309
G1 X118.822 Y105.84 E208.312
G1 F1800 E198.312
;rapid-dry
G1 F236
G0 X101.177 Y105.949
G1 F1800 E208.312
;bead-solid_infill
G1 X101.004 Y106.122 F2400 E208.32
G1 X100.757 Y106.934 E208.349
G1 X101.177 Y106.515 E208.368
G1 Y107.08 E208.387
G1 X100.418 Y107.839 E208.423
G1 X100.354 Y108.009 E208.429
G1 X99.973 Y108.85 E208.46
G1 X101.177 Y107.646 E208.516
G1 Y107.806 E208.522
G1 X101.583 E208.535
G1 X99.358 Y110.03 E208.64
;rapid-leaky
G1 F236
G0 X90.61 Y119.91
;bead-solid_infill
G1 X90.512 Y120.008 F2400 E208.644
G1 X90.795 Y120.291 E208.658
G1 X90.893 Y120.193 E208.662
G1 X91.175 Y120.476 E208.675
G1 X91.078 Y120.573 E208.68
G1 X91.361 Y120.856 E208.693
G1 X91.457 Y120.76 E208.698
G1 X91.74 Y121.043 E208.711
G1 X91.644 Y121.139 E208.716
G1 X91.926 Y121.422 E208.729
G1 X92.022 Y121.326 E208.733
G1 X92.304 Y121.61 E208.747
G1 X92.209 Y121.705 E208.751
G1 X92.492 Y121.988 E208.765
G1 X92.587 Y121.893 E208.769
G1 X92.869 Y122.176 E208.782
G1 X92.775 Y122.27 E208.787
G1 X93.058 Y122.553 E208.8
G1 X93.151 Y122.46 E208.804
G1 X93.434 Y122.743 E208.818
G1 X93.341 Y122.836 E208.822
G1 X93.624 Y123.119 E208.835
G1 X93.716 Y123.026 E208.84
G1 X93.999 Y123.31 E208.853
G1 X93.906 Y123.402 E208.857
G1 X94.189 Y123.685 E208.871
G1 X94.281 Y123.593 E208.875
G1 X94.563 Y123.876 E208.888
G1 X94.472 Y123.967 E208.893
G1 X94.755 Y124.25 E208.906
G1 X94.846 Y124.16 E208.91
G1 X95.128 Y124.443 E208.923
G1 X95.038 Y124.533 E208.928
G1 X95.321 Y124.816 E208.941
G1 X95.41 Y124.726 E208.945
G1 X95.693 Y125.01 E208.959
G1 X95.603 Y125.099 E208.963
G1 X95.886 Y125.382 E208.976
G1 X95.975 Y125.293 E208.98
G1 X96.257 Y125.576 E208.994
G1 X96.169 Y125.665 E208.998
G1 F1800 E198.998
;Layer : 4 of 50
;rapid-leaky
G1 F236
G0 X96.302 Y126.25 Z0.9
G1 F1800 E208.998
;bead-perimeter_inner
G1 X89.917 Y119.865 F1560 E209.298
G1 X96.363 Y113.419 E209.601
G1 X97.12 Y112.611 E209.638
G1 X97.83 Y111.746 E209.675
G1 X98.526 Y110.766 E209.715
G1 X99.071 Y109.89 E209.75
G1 X99.597 Y108.904 E209.787
G1 X100.058 Y107.886 E209.824
G1 X100.451 Y106.841 E209.861
G1 X100.776 Y105.771 E209.898
G1 X101.046 Y104.581 E209.939
G1 X101.211 Y103.581 E209.973
G1 X101.321 Y102.469 E210.01
G1 X101.357 Y101.361 E210.047
G1 Y93.516 E210.307
G1 X118.642 E210.882
G1 Y101.361 E211.143
G1 X118.679 Y102.469 E211.18
G1 X118.789 Y103.581 E211.217
G1 X118.971 Y104.683 E211.255
G1 X119.224 Y105.771 E211.292
G1 X119.549 Y106.841 E211.329
G1 X119.942 Y107.886 E211.366
G1 X120.403 Y108.904 E211.403
G1 X120.93 Y109.891 E211.44
G1 X121.57 Y110.909 E211.48
G1 X122.171 Y111.747 E211.515
G1 X122.88 Y112.611 E211.552
G1 X123.637 Y113.419 E211.589
G1 X130.083 Y119.865 E211.892
G1 X123.698 Y126.25 E212.192
G1 X123.148 Y125.7 E212.218
G1 X129.252 Y119.596 E212.505
G1 X117.613 Y107.957 E213.053
G1 Y107.486 E213.068
G1 X118.502 E213.098
G1 Y93.656 E213.558
G1 X101.497 E214.123
G1 Y107.486 E214.583
G1 X102.386 E214.613
G1 Y107.956 E214.629
G1 X90.728 Y119.575 E215.176
G1 X96.843 Y125.71 E215.464
G1 X96.302 Y126.25 E215.49
;rapid-leaky
G1 F236
G0 Y126.766
;bead-perimeter_outer
G1 X89.401 Y119.865 F1080 E215.814
G1 X96.101 Y113.165 E216.129
G1 X96.845 Y112.37 E216.166
G1 X97.54 Y111.525 E216.202
G1 X98.222 Y110.564 E216.241
G1 X98.754 Y109.707 E216.275
G1 X99.269 Y108.743 E216.311
G1 X99.721 Y107.747 E216.347
G1 X100.105 Y106.723 E216.384
G1 X100.423 Y105.677 E216.42
G1 X100.686 Y104.522 E216.46
G1 X100.849 Y103.533 E216.493
G1 X100.957 Y102.445 E216.529
G1 X100.992 Y101.355 E216.566
G1 Y93.151 E216.838
G1 X119.007 E217.438
G1 Y101.355 E217.71
G1 X119.043 Y102.445 E217.747
G1 X119.151 Y103.533 E217.783
G1 X119.329 Y104.612 E217.819
G1 X119.577 Y105.677 E217.856
G1 X119.895 Y106.723 E217.892
G1 X120.279 Y107.747 E217.929
G1 X120.731 Y108.743 E217.965
G1 X121.246 Y109.707 E218.001
G1 X121.873 Y110.706 E218.041
G1 X122.46 Y111.525 E218.074
G1 X123.155 Y112.37 E218.11
G1 X123.899 Y113.165 E218.147
G1 X130.599 Y119.865 E218.462
G1 X123.698 Y126.766 E218.786
G1 X122.632 Y125.7 E218.837
G1 X128.736 Y119.596 E219.124
G1 X117.248 Y108.108 E219.664
G1 Y107.121 E219.697
G1 X118.137 E219.726
G1 Y94.021 E220.162
G1 X101.862 E220.703
G1 Y107.121 E221.139
G1 X102.751 E221.169
G1 Y108.108 E221.202
G1 X91.244 Y119.576 E221.742
G1 X97.358 Y125.711 E222.03
G1 X96.302 Y126.766 E222.08
;rapid-leaky
G1 F236
G0 X90.525 Y120.02
;bead-sparse_infill
G1 X90.594 Y119.894 F3600 E222.084
;rapid-leaky
G1 F236
G0 X99.581 Y109.614
;bead-sparse_infill
G1 X99.944 Y109.938 F3600 E222.101
G1 F1800 E212.101
;rapid-dry
G1 F236
G0 X119.055 Y106.317
G1 F1800 E222.101
;bead-sparse_infill
G1 X118.915 Y106.571 F3600 E222.11
G1 X118.822 Y107.388 E222.138
G1 X118.774 Y107.806 E222.152
G1 X118.709 Y108.381 E222.171
G1 X118.991 Y108.882 E222.19
G1 F1800 E212.19
;rapid-dry
G1 F236
G0 X126.9 Y122.401
G1 F1800 E222.19
;bead-sparse_infill
G1 X126.969 Y122.526 F3600 E222.195
G1 F1800 E212.195
;Layer : 5 of 50
;rapid-leaky
G1 F236
G0 X129.252 Y119.596 Z1.1
G1 F1800 E222.195
;bead-perimeter_inner
G1 X117.613 Y107.957 F1560 E222.742
G1 Y107.486 E222.758
G1 X118.502 E222.787
G1 Y93.656 E223.247
G1 X101.497 E223.813
G1 Y107.486 E224.273
G1 X102.386 E224.303
G1 Y107.956 E224.318
G1 X90.728 Y119.575 E224.866
G1 X96.843 Y125.71 E225.154
G1 X96.302 Y126.25 E225.179
G1 X89.917 Y119.865 E225.479
G1 X96.363 Y113.419 E225.783
G1 X97.12 Y112.611 E225.82
G1 X97.902 Y111.647 E225.861
G1 X98.48 Y110.839 E225.894
G1 X99.071 Y109.89 E225.931
G1 X99.597 Y108.904 E225.968
G1 X100.058 Y107.886 E226.005
G1 X100.451 Y106.841 E226.043
G1 X100.776 Y105.771 E226.08
G1 X101.029 Y104.683 E226.117
G1 X101.211 Y103.581 E226.154
G1 X101.321 Y102.469 E226.191
G1 X101.357 Y101.361 E226.228
G1 Y93.516 E226.489
G1 X118.642 E227.064
G1 Y101.361 E227.325
G1 X118.679 Y102.469 E227.362
G1 X118.789 Y103.581 E227.399
G1 X118.971 Y104.683 E227.436
G1 X119.224 Y105.771 E227.473
G1 X119.549 Y106.841 E227.51
G1 X119.942 Y107.886 E227.547
G1 X120.403 Y108.904 E227.585
G1 X120.929 Y109.89 E227.622
G1 X121.52 Y110.839 E227.659
G1 X122.171 Y111.747 E227.696
G1 X122.88 Y112.611 E227.733
G1 X123.637 Y113.419 E227.77
G1 X130.083 Y119.865 E228.073
G1 X123.698 Y126.25 E228.374
G1 X123.148 Y125.7 E228.4
G1 X129.252 Y119.596 E228.687
;rapid-leaky
G1 F236
G0 X127.006 Y122.49
;bead-sparse_infill
G1 X126.93 Y122.37 F3600 E228.691
;rapid-leaky
G1 F236
G0 X128.736 Y119.596
;bead-perimeter_outer
G1 X117.248 Y108.108 F1080 E229.232
G1 Y107.121 E229.265
G1 X118.137 E229.294
G1 Y94.021 E229.73
G1 X101.862 E230.271
G1 Y107.121 E230.707
G1 X102.751 E230.736
G1 Y108.108 E230.769
G1 X91.244 Y119.576 E231.31
G1 X97.358 Y125.711 E231.598
G1 X96.302 Y126.766 E231.647
G1 X89.401 Y119.865 E231.972
G1 X96.101 Y113.165 E232.287
G1 X96.845 Y112.37 E232.323
G1 X97.605 Y111.434 E232.363
G1 X98.176 Y110.636 E232.396
G1 X98.754 Y109.707 E232.432
G1 X99.269 Y108.743 E232.469
G1 X99.721 Y107.747 E232.505
G1 X100.105 Y106.723 E232.542
G1 X100.423 Y105.677 E232.578
G1 X100.671 Y104.612 E232.614
G1 X100.849 Y103.533 E232.651
G1 X100.957 Y102.445 E232.687
G1 X100.992 Y101.355 E232.723
G1 Y93.151 E232.996
G1 X119.007 E233.595
G1 Y101.355 E233.868
G1 X119.043 Y102.445 E233.904
G1 X119.151 Y103.533 E233.941
G1 X119.329 Y104.612 E233.977
G1 X119.577 Y105.677 E234.014
G1 X119.895 Y106.723 E234.05
G1 X120.279 Y107.747 E234.086
G1 X120.731 Y108.743 E234.123
G1 X121.246 Y109.707 E234.159
G1 X121.824 Y110.636 E234.195
G1 X122.46 Y111.525 E234.232
G1 X123.155 Y112.37 E234.268
G1 X123.899 Y113.165 E234.304
G1 X130.599 Y119.865 E234.62
G1 X123.698 Y126.766 E234.944
G1 X122.632 Y125.7 E234.994
G1 X128.736 Y119.596 E235.281
;rapid-leaky
G1 F236
G0 X118.559 Y108.45
;bead-sparse_infill
G1 X118.524 Y108.381 F3600 E235.284
G1 X118.632 Y107.806 E235.303
G1 X118.822 Y106.793 E235.338
G1 X118.864 Y106.571 E235.345
G1 X119.045 Y106.282 E235.357
G1 F1800 E225.357
;rapid-dry
G1 F236
G0 X100.064 Y109.819
G1 F1800 E235.357
;bead-sparse_infill
G1 X99.65 Y109.485 F3600 E235.374
;rapid-leaky
G1 F236
G0 X90.616 Y119.916
;bead-sparse_infill
G1 X90.541 Y120.036 F3600 E235.379
G1 F1800 E225.379
;Layer : 6 of 50
;rapid-leaky
G1 F236
G0 X90.728 Y119.575 Z1.3
G1 F1800 E235.379
;bead-perimeter_inner
G1 X96.843 Y125.71 F1560 E235.667
G1 X96.302 Y126.25 E235.693
G1 X89.917 Y119.865 E235.993
G1 X96.363 Y113.419 E236.296
G1 X97.12 Y112.611 E236.333
G1 X97.829 Y111.747 E236.37
G1 X98.48 Y110.839 E236.407
G1 X99.071 Y109.89 E236.444
G1 X99.597 Y108.904 E236.482
G1 X100.058 Y107.886 E236.519
G1 X100.451 Y106.841 E236.556
G1 X100.809 Y105.629 E236.598
G1 X101.029 Y104.683 E236.63
G1 X101.211 Y103.581 E236.667
G1 X101.321 Y102.469 E236.705
G1 X101.357 Y101.361 E236.741
G1 Y93.516 E237.002
G1 X118.642 E237.577
G1 Y101.361 E237.838
G1 X118.679 Y102.469 E237.875
G1 X118.789 Y103.581 E237.912
G1 X118.971 Y104.683 E237.949
G1 X119.224 Y105.771 E237.986
G1 X119.549 Y106.841 E238.024
G1 X119.942 Y107.886 E238.061
G1 X120.403 Y108.904 E238.098
G1 X120.929 Y109.89 E238.135
G1 X121.604 Y110.957 E238.177
G1 X122.171 Y111.747 E238.209
G1 X122.88 Y112.611 E238.247
G1 X123.637 Y113.419 E238.283
G1 X130.083 Y119.865 E238.587
G1 X123.698 Y126.25 E238.887
G1 X123.148 Y125.7 E238.913
G1 X129.252 Y119.596 E239.2
G1 X117.613 Y107.957 E239.747
G1 Y107.486 E239.763
G1 X118.502 E239.793
G1 Y93.656 E240.253
G1 X101.497 E240.818
G1 Y107.486 E241.278
G1 X102.386 E241.308
G1 Y107.956 E241.323
G1 X90.728 Y119.575 E241.871
;rapid-leaky
G1 F236
G0 X90.632 Y119.932
;bead-sparse_infill
G1 X90.551 Y120.046 F3600 E241.876
;rapid-leaky
G1 F236
G0 X91.244 Y119.576
;bead-perimeter_outer
G1 X97.358 Y125.711 F1080 E242.164
G1 X96.302 Y126.766 E242.213
G1 X89.401 Y119.865 E242.538
G1 X96.101 Y113.165 E242.853
G1 X96.845 Y112.37 E242.889
G1 X97.54 Y111.525 E242.926
G1 X98.176 Y110.636 E242.962
G1 X98.754 Y109.707 E242.998
G1 X99.269 Y108.743 E243.035
G1 X99.721 Y107.747 E243.071
G1 X100.105 Y106.723 E243.108
G1 X100.454 Y105.546 E243.148
G1 X100.671 Y104.612 E243.18
G1 X100.849 Y103.533 E243.217
G1 X100.957 Y102.445 E243.253
G1 X100.992 Y101.355 E243.289
G1 Y93.151 E243.562
G1 X119.007 E244.161
G1 Y101.355 E244.434
G1 X119.043 Y102.445 E244.47
G1 X119.151 Y103.533 E244.507
G1 X119.329 Y104.612 E244.543
G1 X119.577 Y105.677 E244.58
G1 X119.895 Y106.723 E244.616
G1 X120.279 Y107.747 E244.652
G1 X120.731 Y108.743 E244.689
G1 X121.246 Y109.707 E244.725
G1 X121.901 Y110.745 E244.766
G1 X122.46 Y111.525 E244.798
G1 X123.155 Y112.37 E244.834
G1 X123.899 Y113.165 E244.87
G1 X130.599 Y119.865 E245.186
G1 X123.698 Y126.766 E245.51
G1 X122.632 Y125.7 E245.56
G1 X128.736 Y119.596 E245.847
G1 X117.248 Y108.108 E246.388
G1 Y107.121 E246.421
G1 X118.137 E246.45
G1 Y94.021 E246.886
G1 X101.862 E247.427
G1 Y107.121 E247.863
G1 X102.751 E247.892
G1 Y108.108 E247.925
G1 X91.244 Y119.576 E248.466
;rapid-leaky
G1 F236
G0 X99.72 Y109.354
;bead-sparse_infill
G1 X100.192 Y109.691 F3600 E248.485
G1 F1800 E238.485
;rapid-dry
G1 F236
G0 X119.033 Y106.243
G1 F1800 E248.485
;bead-sparse_infill
G1 X118.822 Y106.541 F3600 E248.497
G1 X118.472 Y107.806 E248.541
G1 X118.355 Y108.246 E248.556
G1 F1800 E238.556
;rapid-dry
G1 F236
G0 X126.955 Y122.346
G1 F1800 E248.556
;bead-sparse_infill
G1 X127.036 Y122.46 F3600 E248.561
G1 F1800 E238.561
;Layer : 7 of 50
;rapid-leaky
G1 F236
G0 X129.252 Y119.596 Z1.5
G1 F1800 E248.561
;bead-perimeter_inner
G1 X117.613 Y107.957 F1560 E249.108
G1 Y107.486 E249.124
G1 X118.502 E249.153
G1 Y93.656 E249.613
G1 X101.497 E250.179
G1 Y107.486 E250.639
G1 X102.386 E250.668
G1 Y107.956 E250.684
G1 X90.728 Y119.575 E251.231
G1 X96.843 Y125.71 E251.52
G1 X96.302 Y126.25 E251.545
G1 X89.917 Y119.865 E251.845
G1 X96.363 Y113.419 E252.148
G1 X97.12 Y112.611 E252.185
G1 X97.829 Y111.747 E252.222
G1 X98.568 Y110.698 E252.265
G1 X99.071 Y109.889 E252.297
G1 X99.597 Y108.904 E252.334
G1 X100.058 Y107.886 E252.371
G1 X100.451 Y106.841 E252.408
G1 X100.814 Y105.609 E252.451
G1 X101.029 Y104.683 E252.483
G1 X101.211 Y103.581 E252.52
G1 X101.321 Y102.469 E252.557
G1 X101.357 Y101.361 E252.594
G1 Y93.516 E252.855
G1 X118.642 E253.43
G1 Y101.361 E253.691
G1 X118.679 Y102.469 E253.727
G1 X118.789 Y103.581 E253.765
G1 X118.971 Y104.683 E253.802
G1 X119.224 Y105.771 E253.839
G1 X119.549 Y106.841 E253.876
G1 X119.942 Y107.886 E253.913
G1 X120.403 Y108.904 E253.95
G1 X120.929 Y109.89 E253.988
G1 X121.52 Y110.839 E254.025
G1 X122.171 Y111.747 E254.062
G1 X122.88 Y112.611 E254.099
G1 X123.637 Y113.419 E254.136
G1 X130.083 Y119.865 E254.439
G1 X123.698 Y126.25 E254.739
G1 X123.148 Y125.7 E254.765
G1 X129.252 Y119.596 E255.052
;rapid-leaky
G1 F236
G0 X127.06 Y122.435
;bead-sparse_infill
G1 X126.974 Y122.327 F3600 E255.057
;rapid-leaky
G1 F236
G0 X128.736 Y119.596
;bead-perimeter_outer
G1 X117.248 Y108.108 F1080 E255.597
G1 Y107.121 E255.63
G1 X118.137 E255.66
G1 Y94.021 E256.095
G1 X101.862 E256.637
G1 Y107.121 E257.072
G1 X102.751 E257.102
G1 Y108.108 E257.135
G1 X91.244 Y119.576 E257.675
G1 X97.358 Y125.711 E257.963
G1 X96.302 Y126.766 E258.013
G1 X89.401 Y119.865 E258.338
G1 X96.101 Y113.165 E258.653
G1 X96.845 Y112.37 E258.689
G1 X97.54 Y111.525 E258.725
G1 X98.259 Y110.505 E258.767
G1 X98.754 Y109.707 E258.798
G1 X99.269 Y108.743 E258.834
G1 X99.721 Y107.747 E258.871
G1 X100.105 Y106.723 E258.907
G1 X100.459 Y105.525 E258.949
G1 X100.671 Y104.612 E258.98
G1 X100.849 Y103.533 E259.016
G1 X100.957 Y102.445 E259.053
G1 X100.992 Y101.355 E259.089
G1 Y93.151 E259.362
G1 X119.007 E259.961
G1 Y101.355 E260.234
G1 X119.043 Y102.445 E260.27
G1 X119.151 Y103.533 E260.306
G1 X119.329 Y104.612 E260.343
G1 X119.577 Y105.677 E260.379
G1 X119.895 Y106.723 E260.416
G1 X120.279 Y107.747 E260.452
G1 X120.731 Y108.743 E260.488
G1 X121.246 Y109.707 E260.525
G1 X121.824 Y110.636 E260.561
G1 X122.46 Y111.525 E260.597
G1 X123.155 Y112.37 E260.634
G1 X123.899 Y113.165 E260.67
G1 X130.599 Y119.865 E260.985
G1 X123.698 Y126.766 E261.31
G1 X122.632 Y125.7 E261.36
G1 X128.736 Y119.596 E261.647
;rapid-leaky
G1 F236
G0 X118.194 Y108.085
;bead-sparse_infill
G1 X118.292 Y107.806 F3600 E261.657
;rapid-leaky
G1 F236
G0 X118.822 Y106.45
;bead-sparse_infill
G1 X119.02 Y106.2 F3600 E261.668
G1 F1800 E251.668
;rapid-dry
G1 F236
G0 X100.337 Y109.547
G1 F1800 E261.668
;bead-sparse_infill
G1 X99.794 Y109.214 F3600 E261.689
;rapid-leaky
G1 F236
G0 X90.643 Y119.942
;bead-sparse_infill
G1 X90.556 Y120.052 F3600 E261.693
G1 F1800 E251.693
;Layer : 8 of 50
;rapid-leaky
G1 F236
G0 X90.728 Y119.575 Z1.7
G1 F1800 E261.693
;bead-perimeter_inner
G1 X96.843 Y125.71 F1560 E261.981
G1 X96.302 Y126.25 E262.007
G1 X89.917 Y119.865 E262.307
G1 X96.363 Y113.419 E262.61
G1 X97.12 Y112.611 E262.647
G1 X97.829 Y111.747 E262.684
G1 X98.48 Y110.84 E262.721
G1 X98.58 Y110.68 E262.728
G1 X99.071 Y109.89 E262.759
G1 X99.597 Y108.904 E262.796
G1 X100.058 Y107.886 E262.833
G1 X100.451 Y106.841 E262.87
G1 X100.776 Y105.772 E262.907
G1 X100.819 Y105.589 E262.914
G1 X101.029 Y104.683 E262.945
G1 X101.211 Y103.581 E262.982
G1 X101.321 Y102.469 E263.019
G1 X101.357 Y101.361 E263.056
G1 Y93.516 E263.317
G1 X118.642 E263.892
G1 Y101.361 E264.152
G1 X118.679 Y102.469 E264.189
G1 X118.789 Y103.581 E264.227
G1 X118.971 Y104.683 E264.264
G1 X119.224 Y105.771 E264.301
G1 X119.549 Y106.841 E264.338
G1 X119.942 Y107.886 E264.375
G1 X120.403 Y108.904 E264.412
G1 X120.929 Y109.89 E264.449
G1 X121.52 Y110.839 E264.487
G1 X122.171 Y111.747 E264.524
G1 X122.88 Y112.611 E264.561
G1 X123.637 Y113.419 E264.598
G1 X130.083 Y119.865 E264.901
G1 X123.698 Y126.25 E265.201
G1 X123.148 Y125.7 E265.227
G1 X129.252 Y119.596 E265.514
G1 X117.613 Y107.957 E266.062
G1 Y107.486 E266.077
G1 X118.502 E266.107
G1 Y93.656 E266.567
G1 X101.497 E267.133
G1 Y107.486 E267.593
G1 X102.386 E267.622
G1 Y107.956 E267.638
G1 X90.728 Y119.575 E268.185
;rapid-leaky
G1 F236
G0 X90.557 Y120.053
;bead-sparse_infill
G1 X90.649 Y119.949 F3600 E268.19
;rapid-leaky
G1 F236
G0 X91.244 Y119.576
;bead-perimeter_outer
G1 X97.358 Y125.711 F1080 E268.478
G1 X96.302 Y126.766 E268.528
G1 X89.401 Y119.865 E268.852
G1 X96.101 Y113.165 E269.167
G1 X96.845 Y112.37 E269.204
G1 X97.54 Y111.525 E269.24
G1 X98.27 Y110.487 E269.282
G1 X98.754 Y109.707 E269.313
G1 X99.269 Y108.743 E269.349
G1 X99.721 Y107.747 E269.385
G1 X100.105 Y106.723 E269.422
G1 X100.464 Y105.506 E269.464
G1 X100.671 Y104.612 E269.495
G1 X100.849 Y103.533 E269.531
G1 X100.957 Y102.445 E269.567
G1 X100.992 Y101.355 E269.604
G1 Y93.151 E269.876
G1 X119.007 E270.476
G1 Y101.355 E270.748
G1 X119.043 Y102.445 E270.785
G1 X119.151 Y103.533 E270.821
G1 X119.329 Y104.612 E270.857
G1 X119.577 Y105.677 E270.894
G1 X119.895 Y106.723 E270.93
G1 X120.279 Y107.747 E270.967
G1 X120.731 Y108.743 E271.003
G1 X121.246 Y109.707 E271.039
G1 X121.824 Y110.636 E271.076
G1 X122.46 Y111.525 E271.112
G1 X123.155 Y112.37 E271.148
G1 X123.899 Y113.165 E271.185
G1 X130.599 Y119.865 E271.5
G1 X123.698 Y126.766 E271.824
G1 X122.632 Y125.7 E271.875
G1 X128.736 Y119.596 E272.162
G1 X117.248 Y108.108 E272.702
G1 Y107.121 E272.735
G1 X118.137 E272.764
G1 Y94.021 E273.2
G1 X101.862 E273.741
G1 Y107.121 E274.177
G1 X102.751 E274.207
G1 Y108.108 E274.24
G1 X91.244 Y119.576 E274.78
;rapid-leaky
G1 F236
G0 X99.896 Y109.019
;bead-sparse_infill
G1 X100.559 Y109.325 F3600 E274.804
G1 F1800 E264.804
;rapid-dry
G1 F236
G0 X118.036 Y107.927
G1 F1800 E274.804
;bead-sparse_infill
G1 X118.09 Y107.806 F3600 E274.809
;rapid-leaky
G1 F236
G0 X118.822 Y106.364
;bead-sparse_infill
G1 X119.006 Y106.154 F3600 E274.818
G1 F1800 E264.818
;rapid-dry
G1 F236
G0 X126.988 Y122.312
G1 F1800 E274.818
;bead-sparse_infill
G1 X127.08 Y122.416 F3600 E274.822
G1 F1800 E264.822
;Layer : 9 of 50
;rapid-leaky
G1 F236
G0 X126.644 Y122.204 Z1.9
G1 F1800 E274.822
;bead-perimeter_inner
G1 X129.252 Y119.596 F1560 E274.945
G1 X117.613 Y107.957 E275.493
G1 Y107.486 E275.508
G1 X118.502 E275.538
G1 Y93.656 E275.998
G1 X101.497 E276.563
G1 Y107.486 E277.023
G1 X102.386 E277.053
G1 Y107.956 E277.069
G1 X90.728 Y119.575 E277.616
G1 X93.342 Y122.198 E277.739
G1 X94.216 Y123.109 E277.781
G1 X95.024 Y123.885 E277.818
G1 X96.843 Y125.71 E277.904
G1 X96.302 Y126.25 E277.93
G1 X89.917 Y119.865 E278.23
G1 X96.363 Y113.419 E278.533
G1 X97.12 Y112.611 E278.57
G1 X97.829 Y111.747 E278.607
G1 X98.48 Y110.839 E278.644
G1 X98.591 Y110.662 E278.651
G1 X99.071 Y109.89 E278.681
G1 X99.597 Y108.904 E278.719
G1 X100.058 Y107.886 E278.756
G1 X100.451 Y106.841 E278.793
G1 X100.776 Y105.771 E278.83
G1 X101.029 Y104.683 E278.867
G1 X101.211 Y103.581 E278.904
G1 X101.321 Y102.469 E278.942
G1 X101.357 Y101.361 E278.978
G1 Y93.516 E279.239
G1 X118.642 E279.814
G1 Y101.361 E280.075
G1 X118.679 Y102.469 E280.112
G1 X118.789 Y103.581 E280.149
G1 X118.971 Y104.683 E280.186
G1 X119.224 Y105.771 E280.224
G1 X119.549 Y106.841 E280.261
G1 X119.942 Y107.886 E280.298
G1 X120.403 Y108.904 E280.335
G1 X120.929 Y109.89 E280.372
G1 X121.52 Y110.839 E280.409
G1 X122.171 Y111.747 E280.447
G1 X122.88 Y112.611 E280.484
G1 X123.637 Y113.419 E280.521
G1 X130.083 Y119.865 E280.824
G1 X123.698 Y126.25 E281.124
G1 X123.148 Y125.7 E281.15
G1 X124.959 Y123.889 E281.235
G1 X125.657 Y123.224 E281.267
G1 X126.644 Y122.204 E281.314
;rapid-leaky
G1 F236
G0 X127.104 Y122.392
;bead-sparse_infill
G1 X126.995 Y122.305 F3600 E281.319
;rapid-leaky
G1 F236
G0 X126.382 Y121.95
;bead-perimeter_outer
G1 X128.736 Y119.596 F1080 E281.43
G1 X117.248 Y108.108 E281.97
G1 Y107.121 E282.003
G1 X118.137 E282.032
G1 Y94.021 E282.468
G1 X101.862 E283.009
G1 Y107.121 E283.445
G1 X102.751 E283.475
G1 Y108.108 E283.508
G1 X91.244 Y119.576 E284.048
G1 X93.604 Y121.944 E284.159
G1 X94.473 Y122.85 E284.201
G1 X95.28 Y123.625 E284.238
G1 X97.358 Y125.711 E284.336
G1 X96.302 Y126.766 E284.386
G1 X89.401 Y119.865 E284.71
G1 X96.101 Y113.165 E285.025
G1 X96.845 Y112.37 E285.062
G1 X97.54 Y111.525 E285.098
G1 X98.176 Y110.636 E285.134
G1 X98.281 Y110.469 E285.141
G1 X98.754 Y109.707 E285.171
G1 X99.269 Y108.743 E285.207
G1 X99.721 Y107.747 E285.244
G1 X100.105 Y106.723 E285.28
G1 X100.423 Y105.677 E285.316
G1 X100.671 Y104.612 E285.353
G1 X100.849 Y103.533 E285.389
G1 X100.957 Y102.445 E285.425
G1 X100.992 Y101.355 E285.462
G1 Y93.151 E285.735
G1 X119.007 E286.334
G1 Y101.355 E286.607
G1 X119.043 Y102.445 E286.643
G1 X119.151 Y103.533 E286.679
G1 X119.329 Y104.612 E286.716
G1 X119.577 Y105.677 E286.752
G1 X119.895 Y106.723 E286.788
G1 X120.279 Y107.747 E286.825
G1 X120.731 Y108.743 E286.861
G1 X121.246 Y109.707 E286.897
G1 X121.824 Y110.636 E286.934
G1 X122.46 Y111.525 E286.97
G1 X123.155 Y112.37 E287.007
G1 X123.899 Y113.165 E287.043
G1 X130.599 Y119.865 E287.358
G1 X123.698 Y126.766 E287.683
G1 X122.632 Y125.7 E287.733
G1 X124.704 Y123.628 E287.83
G1 X125.401 Y122.964 E287.862
G1 X126.382 Y121.95 E287.909
G1 F1800 E277.909
;rapid-dry
G1 F236
G0 X118.961 Y106.006
G1 F1800 E287.909
;bead-sparse_infill
G1 X118.822 Y106.237 F3600 E287.918
G1 F1800 E277.918
;rapid-dry
G1 F236
G0 X100.645 Y109.24
G1 F1800 E287.918
;bead-sparse_infill
G1 X99.916 Y108.976 F3600 E287.944
;rapid-leaky
G1 F236
G0 X90.629 Y119.929
;bead-sparse_infill
G1 X90.52 Y120.016 F3600 E287.948
G1 F1800 E277.948
;Layer : 10 of 50
;rapid-leaky
G1 F236
G0 X90.728 Y119.575 Z2.1
G1 F1800 E287.948
;bead-perimeter_inner
G1 X93.024 Y121.879 F1560 E288.057
G1 X93.836 Y122.79 E288.097
G1 X94.129 Y123.097 E288.111
G1 X94.434 Y123.391 E288.125
G1 X95.343 Y124.206 E288.166
G1 X96.843 Y125.71 E288.237
G1 X96.302 Y126.25 E288.262
G1 X89.917 Y119.865 E288.562
G1 X96.363 Y113.419 E288.866
G1 X97.12 Y112.611 E288.902
G1 X97.829 Y111.747 E288.94
G1 X98.48 Y110.839 E288.977
G1 X99.071 Y109.89 E289.014
G1 X99.597 Y108.904 E289.051
G1 X100.058 Y107.886 E289.088
G1 X100.451 Y106.841 E289.125
G1 X100.776 Y105.771 E289.163
G1 X101.029 Y104.684 E289.2
G1 X101.067 Y104.455 E289.207
G1 X101.211 Y103.581 E289.237
G1 X101.321 Y102.469 E289.274
G1 X101.357 Y101.361 E289.311
G1 Y93.516 E289.572
G1 X118.642 E290.147
G1 Y101.361 E290.408
G1 X118.679 Y102.469 E290.445
G1 X118.789 Y103.581 E290.482
G1 X118.971 Y104.683 E290.519
G1 X119.224 Y105.771 E290.556
G1 X119.549 Y106.841 E290.593
G1 X119.942 Y107.886 E290.63
G1 X120.403 Y108.904 E290.668
G1 X120.929 Y109.89 E290.705
G1 X121.52 Y110.839 E290.742
G1 X122.171 Y111.747 E290.779
G1 X122.88 Y112.611 E290.816
G1 X123.637 Y113.419 E290.853
G1 X130.083 Y119.865 E291.156
G1 X123.698 Y126.25 E291.457
G1 X123.148 Y125.7 E291.483
G1 X124.639 Y124.209 E291.553
G1 X125.705 Y123.25 E291.6
G1 X126.003 Y122.952 E291.614
G1 X126.962 Y121.886 E291.662
G1 X129.252 Y119.596 E291.77
G1 X117.613 Y107.957 E292.317
G1 Y107.486 E292.333
G1 X118.502 E292.362
G1 Y93.656 E292.822
G1 X101.497 E293.388
G1 Y107.486 E293.848
G1 X102.386 E293.878
G1 Y107.956 E293.893
G1 X90.728 Y119.575 E294.441
;rapid-leaky
G1 F236
G0 X90.498 Y119.993
;bead-sparse_infill
G1 X90.612 Y119.911 F3600 E294.445
;rapid-leaky
G1 F236
G0 X91.244 Y119.576
;bead-perimeter_outer
G1 X93.288 Y121.627 F1080 E294.542
G1 X93.785 Y122.17 E294.566
G1 X94.107 Y122.545 E294.583
G1 X94.387 Y122.839 E294.596
G1 X94.68 Y123.121 E294.61
G1 X95.596 Y123.942 E294.651
G1 X97.358 Y125.711 E294.734
G1 X96.302 Y126.766 E294.783
G1 X89.401 Y119.865 E295.108
G1 X96.101 Y113.165 E295.423
G1 X96.845 Y112.37 E295.459
G1 X97.54 Y111.525 E295.496
G1 X98.176 Y110.636 E295.532
G1 X98.754 Y109.707 E295.568
G1 X99.269 Y108.743 E295.605
G1 X99.721 Y107.747 E295.641
G1 X100.105 Y106.723 E295.677
G1 X100.423 Y105.677 E295.714
G1 X100.671 Y104.612 E295.75
G1 X100.707 Y104.396 E295.757
G1 X100.849 Y103.533 E295.787
G1 X100.957 Y102.445 E295.823
G1 X100.992 Y101.355 E295.859
G1 Y93.151 E296.132
G1 X119.007 E296.731
G1 Y101.355 E297.004
G1 X119.043 Y102.445 E297.04
G1 X119.151 Y103.533 E297.077
G1 X119.329 Y104.612 E297.113
G1 X119.577 Y105.677 E297.149
G1 X119.895 Y106.723 E297.186
G1 X120.279 Y107.747 E297.222
G1 X120.731 Y108.743 E297.259
G1 X121.246 Y109.707 E297.295
G1 X121.824 Y110.636 E297.331
G1 X122.46 Y111.525 E297.368
G1 X123.155 Y112.37 E297.404
G1 X123.899 Y113.165 E297.44
G1 X130.599 Y119.865 E297.755
G1 X123.698 Y126.766 E298.08
G1 X122.632 Y125.7 E298.13
G1 X124.386 Y123.945 E298.213
G1 X125.453 Y122.986 E298.26
G1 X125.739 Y122.7 E298.274
G1 X126.698 Y121.633 E298.322
G1 X128.736 Y119.596 E298.417
G1 X117.248 Y108.108 E298.958
G1 Y107.121 E298.991
G1 X118.137 E299.02
G1 Y94.021 E299.456
G1 X101.862 E299.997
G1 Y107.121 E300.433
G1 X102.751 E300.462
G1 Y108.108 E300.495
G1 X91.244 Y119.576 E301.036
;rapid-leaky
G1 F236
G0 X99.974 Y108.848
;bead-sparse_infill
G1 X100.808 Y109.077 F3600 E301.064
G1 F1800 E291.064
;rapid-dry
G1 F236
G0 X118.822 Y106.11
G1 F1800 E301.064
;bead-sparse_infill
G1 X118.941 Y105.941 F3600 E301.071
G1 F1800 E291.071
;rapid-dry
G1 F236
G0 X126.999 Y122.324
G1 F1800 E301.071
;bead-sparse_infill
G1 X127.1 Y122.396 F3600 E301.075
;rapid-leaky
G1 F236
G0 X126.457 Y122.926
;bead-solid_infill
G1 X126.513 Y122.982 F2400 E301.078
G1 X126.23 Y123.265 E301.091
G1 X126.186 Y123.221 E301.093
G1 X125.925 Y123.482 E301.106
G1 X125.902 Y123.503 E301.107
G1 X125.947 Y123.548 E301.109
G1 X125.695 Y123.8 E301.121
G1 X125.658 Y123.825 E301.122
G1 X125.605 Y123.771 E301.125
G1 F1800 E291.125
;Layer : 11 of 50
;rapid-leaky
G1 F236
G0 X125.144 Y123.831 Z2.3
G1 F1800 E301.125
;bead-perimeter_inner
G1 X125.767 Y123.309 F1560 E301.152
G1 X126.062 Y123.014 E301.166
G1 X126.584 Y122.391 E301.193
G1 X126.859 Y122.031 E301.208
G1 X127.196 Y121.652 E301.225
G1 X129.252 Y119.596 E301.321
G1 X117.613 Y107.957 E301.869
G1 Y107.486 E301.884
G1 X118.502 E301.914
G1 Y93.656 E302.374
G1 X101.497 E302.94
G1 Y107.486 E303.4
G1 X102.386 E303.429
G1 Y107.956 E303.445
G1 X90.728 Y119.575 E303.992
G1 X92.79 Y121.644 E304.089
G1 X93.132 Y122.028 E304.106
G1 X93.789 Y122.856 E304.142
G1 X94.067 Y123.158 E304.155
G1 X94.369 Y123.438 E304.169
G1 X95.194 Y124.098 E304.204
G1 X95.577 Y124.44 E304.221
G1 X96.843 Y125.71 E304.281
G1 X96.302 Y126.25 E304.306
G1 X89.917 Y119.865 E304.607
G1 X96.363 Y113.419 E304.91
G1 X97.12 Y112.611 E304.947
G1 X97.829 Y111.747 E304.984
G1 X98.48 Y110.839 E305.021
G1 X98.614 Y110.625 E305.029
G1 X99.071 Y109.89 E305.058
G1 X99.597 Y108.904 E305.095
G1 X100.058 Y107.886 E305.132
G1 X100.451 Y106.841 E305.17
G1 X100.776 Y105.771 E305.207
G1 X101.029 Y104.683 E305.244
G1 X101.211 Y103.581 E305.281
G1 X101.321 Y102.469 E305.318
G1 X101.357 Y101.361 E305.355
G1 Y93.516 E305.616
G1 X118.642 E306.191
G1 Y101.361 E306.452
G1 X118.679 Y102.469 E306.489
G1 X118.789 Y103.581 E306.526
G1 X118.971 Y104.683 E306.563
G1 X119.224 Y105.771 E306.6
G1 X119.549 Y106.84 E306.637
G1 X119.942 Y107.886 E306.675
G1 X120.403 Y108.904 E306.712
G1 X120.929 Y109.89 E306.749
G1 X121.52 Y110.839 E306.786
G1 X122.171 Y111.747 E306.823
G1 X122.88 Y112.611 E306.86
G1 X123.637 Y113.419 E306.897
G1 X130.083 Y119.865 E307.2
G1 X123.698 Y126.25 E307.501
G1 X123.148 Y125.7 E307.527
G1 X124.405 Y124.443 E307.586
G1 X124.784 Y124.106 E307.603
G1 X125.144 Y123.831 E307.618
;rapid-leaky
G1 F236
G0 X124.916 Y123.546
;bead-perimeter_outer
G1 X125.52 Y123.04 F1080 E307.644
G1 X125.793 Y122.767 E307.657
G1 X126.299 Y122.163 E307.683
G1 X126.577 Y121.798 E307.698
G1 X126.931 Y121.401 E307.716
G1 X128.736 Y119.596 E307.801
G1 X117.248 Y108.108 E308.341
G1 Y107.121 E308.374
G1 X118.137 E308.404
G1 Y94.021 E308.839
G1 X101.862 E309.381
G1 Y107.121 E309.816
G1 X102.751 E309.846
G1 Y108.108 E309.879
G1 X91.244 Y119.576 E310.419
G1 X93.056 Y121.394 E310.504
G1 X93.416 Y121.799 E310.522
G1 X94.065 Y122.617 E310.557
G1 X94.326 Y122.9 E310.57
G1 X94.609 Y123.163 E310.583
G1 X95.425 Y123.814 E310.617
G1 X95.828 Y124.175 E310.636
G1 X97.358 Y125.711 E310.708
G1 X96.302 Y126.766 E310.757
G1 X89.401 Y119.865 E311.082
G1 X96.101 Y113.165 E311.397
G1 X96.845 Y112.37 E311.433
G1 X97.54 Y111.525 E311.47
G1 X98.176 Y110.636 E311.506
G1 X98.304 Y110.432 E311.514
G1 X98.754 Y109.707 E311.542
G1 X99.269 Y108.743 E311.579
G1 X99.721 Y107.747 E311.615
G1 X100.105 Y106.723 E311.651
G1 X100.423 Y105.677 E311.688
G1 X100.671 Y104.612 E311.724
G1 X100.849 Y103.533 E311.761
G1 X100.957 Y102.445 E311.797
G1 X100.992 Y101.355 E311.833
G1 Y93.151 E312.106
G1 X119.007 E312.705
G1 Y101.355 E312.978
G1 X119.043 Y102.445 E313.014
G1 X119.151 Y103.533 E313.051
G1 X119.329 Y104.612 E313.087
G1 X119.577 Y105.677 E313.124
G1 X119.894 Y106.723 E313.16
G1 X120.279 Y107.747 E313.196
G1 X120.731 Y108.743 E313.233
G1 X121.246 Y109.707 E313.269
G1 X121.824 Y110.636 E313.305
G1 X122.46 Y111.525 E313.342
G1 X123.155 Y112.37 E313.378
G1 X123.899 Y113.165 E313.414
G1 X130.599 Y119.865 E313.73
G1 X123.698 Y126.766 E314.054
G1 X122.632 Y125.7 E314.104
G1 X124.154 Y124.178 E314.176
G1 X124.551 Y123.824 E314.194
G1 X124.916 Y123.546 E314.209
G1 F1800 E304.209
;rapid-dry
G1 F236
G0 X118.921 Y105.873
G1 F1800 E314.209
;bead-sparse_infill
G1 X118.822 Y105.997 F3600 E314.214
G1 F1800 E304.214
;rapid-dry
G1 F236
G0 X101.036 Y108.85
G1 F1800 E314.214
;bead-sparse_infill
G1 X100.928 Y108.903 F3600 E314.218
G1 X100.028 Y108.727 E314.249
;rapid-leaky
G1 F236
G0 X90.589 Y119.889
;bead-sparse_infill
G1 X90.469 Y119.965 F3600 E314.253
;rapid-leaky
G1 F236
G0 X93.104 Y122.508
;bead-solid_infill
G1 X93.058 Y122.553 F2400 E314.255
G1 X93.341 Y122.836 E314.269
G1 X93.354 Y122.823
G1 X94.493 Y123.947 E314.323
G1 X94.472 Y123.967 E314.324
G1 X94.755 Y124.25 E314.337
G1 X94.807 Y124.198 E314.339
G1 F1800 E304.339
;Layer : 12 of 50
;rapid-leaky
G1 F236
G0 X95.031 Y124.055 Z2.5
G1 F1800 E314.339
;bead-perimeter_inner
G1 X95.453 Y124.356 F1560 E314.357
G1 X95.772 Y124.636 E314.371
G1 X96.842 Y125.71 E314.421
G1 X96.302 Y126.25 E314.447
G1 X89.917 Y119.865 E314.747
G1 X96.363 Y113.419 E315.05
G1 X97.12 Y112.611 E315.087
G1 X97.829 Y111.747 E315.124
G1 X98.48 Y110.839 E315.161
G1 X99.071 Y109.89 E315.198
G1 X99.597 Y108.904 E315.236
G1 X100.058 Y107.886 E315.273
G1 X100.451 Y106.841 E315.31
G1 X100.776 Y105.772 E315.347
G1 X100.838 Y105.505 E315.356
G1 X101.029 Y104.683 E315.384
G1 X101.211 Y103.581 E315.421
G1 X101.321 Y102.469 E315.459
G1 X101.357 Y101.361 E315.495
G1 Y93.516 E315.756
G1 X118.642 E316.331
G1 Y101.361 E316.592
G1 X118.679 Y102.469 E316.629
G1 X118.789 Y103.581 E316.666
G1 X118.971 Y104.683 E316.703
G1 X119.224 Y105.771 E316.741
G1 X119.549 Y106.841 E316.778
G1 X119.942 Y107.886 E316.815
G1 X120.403 Y108.904 E316.852
G1 X120.929 Y109.89 E316.889
G1 X121.52 Y110.839 E316.926
G1 X122.171 Y111.747 E316.964
G1 X122.88 Y112.611 E317.001
G1 X123.637 Y113.419 E317.038
G1 X130.083 Y119.865 E317.341
G1 X123.698 Y126.25 E317.641
G1 X123.148 Y125.7 E317.667
G1 X124.209 Y124.639 E317.717
G1 X124.527 Y124.362 E317.731
G1 X124.952 Y124.058 E317.748
G1 X125.229 Y123.889 E317.759
G1 X125.56 Y123.647 E317.773
G1 X125.866 Y123.397 E317.786
G1 X126.15 Y123.113 E317.799
G1 X126.4 Y122.807 E317.812
G1 X126.642 Y122.475 E317.826
G1 X126.811 Y122.198 E317.837
G1 X127.115 Y121.774 E317.854
G1 X127.392 Y121.456 E317.868
G1 X129.252 Y119.596 E317.956
G1 X117.613 Y107.957 E318.503
G1 Y107.486 E318.519
G1 X118.502 E318.548
G1 Y93.656 E319.008
G1 X101.497 E319.574
G1 Y107.486 E320.034
G1 X102.386 E320.063
G1 Y107.956 E320.079
G1 X90.728 Y119.575 E320.627
G1 X92.596 Y121.449 E320.715
G1 X92.876 Y121.77 E320.729
G1 X93.174 Y122.191 E320.746
G1 X93.465 Y122.641 E320.764
G1 X93.71 Y122.954 E320.777
G1 X93.973 Y123.252 E320.79
G1 X94.27 Y123.516 E320.803
G1 X94.582 Y123.763 E320.817
G1 X95.031 Y124.055 E320.834
;rapid-leaky
G1 F236
G0 X95.231 Y123.75
;bead-perimeter_outer
G1 X95.676 Y124.067 F1080 E320.853
G1 X96.022 Y124.37 E320.868
G1 X97.358 Y125.711 E320.931
G1 X96.302 Y126.766 E320.98
G1 X89.401 Y119.865 E321.305
G1 X96.101 Y113.165 E321.62
G1 X96.845 Y112.37 E321.656
G1 X97.54 Y111.525 E321.693
G1 X98.176 Y110.636 E321.729
G1 X98.754 Y109.707 E321.766
G1 X99.269 Y108.743 E321.802
G1 X99.721 Y107.747 E321.838
G1 X100.105 Y106.723 E321.875
G1 X100.423 Y105.677 E321.911
G1 X100.483 Y105.422 E321.92
G1 X100.671 Y104.612 E321.947
G1 X100.849 Y103.533 E321.984
G1 X100.957 Y102.445 E322.02
G1 X100.992 Y101.355 E322.056
G1 Y93.151 E322.329
G1 X119.007 E322.928
G1 Y101.355 E323.201
G1 X119.043 Y102.445 E323.238
G1 X119.151 Y103.533 E323.274
G1 X119.329 Y104.612 E323.31
G1 X119.577 Y105.677 E323.347
G1 X119.895 Y106.723 E323.383
G1 X120.279 Y107.747 E323.419
G1 X120.731 Y108.743 E323.456
G1 X121.246 Y109.707 E323.492
G1 X121.824 Y110.636 E323.529
G1 X122.46 Y111.525 E323.565
G1 X123.155 Y112.37 E323.601
G1 X123.899 Y113.165 E323.638
G1 X130.599 Y119.865 E323.953
G1 X123.698 Y126.766 E324.277
G1 X122.632 Y125.7 E324.327
G1 X123.96 Y124.372 E324.39
G1 X124.3 Y124.075 E324.405
G1 X124.75 Y123.754 E324.423
G1 X125.025 Y123.585 E324.434
G1 X125.336 Y123.358 E324.447
G1 X125.621 Y123.126 E324.459
G1 X125.879 Y122.868 E324.471
G1 X126.111 Y122.583 E324.483
G1 X126.828 Y121.547 E324.525
G1 X127.125 Y121.207 E324.54
G1 X128.736 Y119.596 E324.616
G1 X117.248 Y108.108 E325.157
G1 Y107.121 E325.189
G1 X118.137 E325.219
G1 Y94.021 E325.655
G1 X101.862 E326.196
G1 Y107.121 E326.632
G1 X102.751 E326.661
G1 Y108.108 E326.694
G1 X91.244 Y119.576 E327.234
G1 X92.863 Y121.199 E327.311
G1 X93.165 Y121.546 E327.326
G1 X93.481 Y121.992 E327.344
G1 X93.761 Y122.427 E327.361
G1 X93.991 Y122.721 E327.374
G1 X94.232 Y122.994 E327.386
G1 X94.504 Y123.236 E327.398
G1 X94.797 Y123.468 E327.41
G1 X95.231 Y123.75 E327.428
G1 F1800 E317.428
;rapid-dry
G1 F236
G0 X90.435 Y119.93
G1 F1800 E327.428
;bead-sparse_infill
G1 X90.561 Y119.86 F3600 E327.432
;rapid-leaky
G1 F236
G0 X100.08 Y108.614
;bead-sparse_infill
G1 X100.928 Y108.716 F3600 E327.461
G1 X101.477 Y108.411 E327.482
G1 F1800 E317.482
;rapid-dry
G1 F236
G0 X118.822 Y105.889
G1 F1800 E327.482
;bead-sparse_infill
G1 X118.902 Y105.798 F3600 E327.486
G1 F1800 E317.486
;rapid-dry
G1 F236
G0 X127.311 Y122.084
G1 F1800 E327.486
;bead-solid_infill
G1 X127.297 Y122.069 F2400
G1 X127.168 Y122.25 E327.494
G1 X127.079 Y122.375 E327.499
G1 X127.063 Y122.401 E327.5
G1 X127.079 Y122.417 E327.501
G1 F1800 E317.501
;Layer : 13 of 50
;rapid-leaky
G1 F236
G0 X126.845 Y122.361 Z2.7
G1 F1800 E327.501
;bead-perimeter_inner
G1 X127.094 Y121.908 F1560 E327.518
G1 X127.313 Y121.573 E327.531
G1 X127.547 Y121.301 E327.543
G1 X129.252 Y119.596 E327.623
G1 X117.613 Y107.957 E328.171
G1 Y107.486 E328.186
G1 X118.502 E328.216
G1 Y93.656 E328.676
G1 X101.497 E329.242
G1 Y107.486 E329.702
G1 X102.386 E329.731
G1 Y107.956 E329.747
G1 X90.728 Y119.575 E330.294
G1 X92.441 Y121.294 E330.375
G1 X92.677 Y121.569 E330.387
G1 X92.894 Y121.9 E330.4
G1 X93.346 Y122.765 E330.433
G1 X93.564 Y123.086 E330.445
G1 X93.821 Y123.404 E330.459
G1 X94.131 Y123.657 E330.472
G1 X94.458 Y123.881 E330.486
G1 X95.322 Y124.336 E330.518
G1 X95.651 Y124.554 E330.531
G1 X95.927 Y124.791 E330.543
G1 X96.843 Y125.71 E330.586
G1 X96.302 Y126.25 E330.612
G1 X89.917 Y119.865 E330.912
G1 X96.363 Y113.419 E331.215
G1 X97.12 Y112.611 E331.252
G1 X97.829 Y111.747 E331.289
G1 X98.48 Y110.839 E331.327
G1 X99.071 Y109.89 E331.364
G1 X99.597 Y108.904 E331.401
G1 X100.058 Y107.886 E331.438
G1 X100.451 Y106.841 E331.475
G1 X100.776 Y105.772 E331.512
G1 X100.843 Y105.484 E331.522
G1 X101.029 Y104.683 E331.55
G1 X101.211 Y103.581 E331.587
G1 X101.321 Y102.469 E331.624
G1 X101.357 Y101.361 E331.661
G1 Y93.516 E331.922
G1 X118.642 E332.497
G1 Y101.361 E332.757
G1 X118.679 Y102.469 E332.794
G1 X118.789 Y103.581 E332.831
G1 X118.971 Y104.683 E332.869
G1 X119.224 Y105.771 E332.906
G1 X119.549 Y106.84 E332.943
G1 X119.942 Y107.886 E332.98
G1 X120.403 Y108.904 E333.017
G1 X120.929 Y109.89 E333.054
G1 X121.52 Y110.839 E333.092
G1 X122.171 Y111.747 E333.129
G1 X122.88 Y112.611 E333.166
G1 X123.637 Y113.419 E333.203
G1 X130.083 Y119.865 E333.506
G1 X123.698 Y126.25 E333.806
G1 X123.148 Y125.7 E333.832
G1 X124.054 Y124.794 E333.875
G1 X124.326 Y124.56 E333.887
G1 X124.661 Y124.341 E333.9
G1 X125.115 Y124.091 E333.917
G1 X125.339 Y123.99 E333.925
G1 X125.698 Y123.777 E333.939
G1 X126.003 Y123.553 E333.952
G1 X126.306 Y123.25 E333.966
G1 X126.53 Y122.945 E333.979
G1 X126.742 Y122.587 E333.993
G1 X126.845 Y122.361 E334.001
;rapid-leaky
G1 F236
G0 X126.523 Y122.189
;bead-perimeter_outer
G1 X126.779 Y121.722 F1080 E334.019
G1 X127.021 Y121.353 E334.033
G1 X127.279 Y121.053 E334.046
G1 X128.736 Y119.596 E334.115
G1 X117.248 Y108.108 E334.655
G1 Y107.121 E334.688
G1 X118.137 E334.718
G1 Y94.021 E335.153
G1 X101.862 E335.695
G1 Y107.121 E336.13
G1 X102.751 E336.16
G1 Y108.108 E336.193
G1 X91.244 Y119.575 E336.733
G1 X92.709 Y121.046 E336.802
G1 X92.97 Y121.349 E336.816
G1 X93.212 Y121.719 E336.83
G1 X93.66 Y122.578 E336.862
G1 X93.857 Y122.868 E336.874
G1 X94.081 Y123.145 E336.886
G1 X94.35 Y123.364 E336.897
G1 X94.647 Y123.568 E336.909
G1 X95.504 Y124.019 E336.942
G1 X95.872 Y124.263 E336.956
G1 X96.176 Y124.524 E336.97
G1 X97.358 Y125.711 E337.025
G1 X96.302 Y126.766 E337.075
G1 X89.401 Y119.865 E337.4
G1 X96.101 Y113.165 E337.715
G1 X96.845 Y112.37 E337.751
G1 X97.54 Y111.525 E337.787
G1 X98.176 Y110.636 E337.824
G1 X98.754 Y109.707 E337.86
G1 X99.269 Y108.743 E337.897
G1 X99.721 Y107.747 E337.933
G1 X100.105 Y106.723 E337.969
G1 X100.423 Y105.677 E338.006
G1 X100.488 Y105.401 E338.015
G1 X100.671 Y104.612 E338.042
G1 X100.849 Y103.533 E338.078
G1 X100.957 Y102.445 E338.115
G1 X100.992 Y101.355 E338.151
G1 Y93.151 E338.424
G1 X119.007 E339.023
G1 Y101.355 E339.296
G1 X119.043 Y102.445 E339.332
G1 X119.151 Y103.533 E339.369
G1 X119.329 Y104.612 E339.405
G1 X119.577 Y105.677 E339.441
G1 X119.894 Y106.723 E339.478
G1 X120.279 Y107.747 E339.514
G1 X120.731 Y108.743 E339.55
G1 X121.246 Y109.707 E339.587
G1 X121.824 Y110.636 E339.623
G1 X122.46 Y111.525 E339.66
G1 X123.155 Y112.37 E339.696
G1 X123.899 Y113.165 E339.732
G1 X130.599 Y119.865 E340.047
G1 X123.698 Y126.766 E340.372
G1 X122.632 Y125.7 E340.422
G1 X123.806 Y124.526 E340.477
G1 X124.106 Y124.268 E340.49
G1 X124.475 Y124.026 E340.505
G1 X124.942 Y123.769 E340.523
G1 X125.17 Y123.666 E340.531
G1 X125.492 Y123.475 E340.544
G1 X125.77 Y123.269 E340.555
G1 X126.022 Y123.017 E340.567
G1 X126.228 Y122.739 E340.578
G1 X126.418 Y122.417 E340.591
G1 X126.523 Y122.189 E340.599
G1 F1800 E330.599
;rapid-dry
G1 F236
G0 X101.983 Y107.907
G1 F1800 E340.599
;bead-sparse_infill
G1 X100.928 Y108.547 F3600 E340.64
G1 X100.129 Y108.506 E340.667
;rapid-leaky
G1 F236
G0 X90.526 Y119.825
;bead-sparse_infill
G1 X90.394 Y119.889 F3600 E340.672
G1 F1800 E330.672
;Layer : 14 of 50
;rapid-leaky
G1 F236
G0 X90.728 Y119.575 Z2.9
G1 F1800 E340.672
;bead-perimeter_inner
G1 X92.306 Y121.158 F1560 E340.746
G1 X92.51 Y121.4 E340.757
G1 X92.685 Y121.682 E340.768
G1 X92.843 Y122.023 E340.78
G1 X92.985 Y122.421 E340.794
G1 X93.001 Y122.51 E340.797
G1 X93.215 Y123.163 E340.82
G1 X89.917 Y119.865 E340.975
G1 X96.363 Y113.419 E341.278
G1 X97.12 Y112.611 E341.315
G1 X97.829 Y111.747 E341.352
G1 X98.48 Y110.839 E341.39
G1 X99.071 Y109.89 E341.427
G1 X99.597 Y108.904 E341.464
G1 X100.058 Y107.886 E341.501
G1 X100.451 Y106.841 E341.538
G1 X100.776 Y105.771 E341.575
G1 X101.029 Y104.683 E341.613
G1 X101.211 Y103.581 E341.65
G1 X101.321 Y102.469 E341.687
G1 X101.357 Y101.361 E341.724
G1 Y93.516 E341.985
G1 X118.642 E342.56
G1 Y101.361 E342.821
G1 X118.679 Y102.469 E342.857
G1 X118.789 Y103.581 E342.895
G1 X118.971 Y104.683 E342.932
G1 X119.224 Y105.771 E342.969
G1 X119.549 Y106.841 E343.006
G1 X119.942 Y107.886 E343.043
G1 X120.403 Y108.904 E343.08
G1 X120.929 Y109.89 E343.118
G1 X121.52 Y110.839 E343.155
G1 X121.704 Y111.096 E343.165
G1 X122.171 Y111.747 E343.192
G1 X122.88 Y112.611 E343.229
G1 X123.637 Y113.419 E343.266
G1 X130.083 Y119.865 E343.569
G1 X126.759 Y123.189 E343.725
G1 X126.819 Y123.056 E343.73
G1 X126.839 Y122.932 E343.734
G1 X126.921 Y122.74 E343.741
G1 X126.992 Y122.457 E343.751
G1 X127.144 Y122.032 E343.766
G1 X127.299 Y121.694 E343.779
G1 X127.473 Y121.412 E343.79
G1 X127.681 Y121.167 E343.8
G1 X129.252 Y119.596 E343.874
G1 X117.613 Y107.957 E344.422
G1 Y107.486 E344.437
G1 X118.502 E344.467
G1 Y93.656 E344.927
G1 X101.497 E345.492
G1 Y107.486 E345.952
G1 X102.386 E345.982
G1 Y107.956 E345.998
G1 X90.728 Y119.575 E346.545
G1 F1800 E336.545
;rapid-dry
G1 F236
G0 X94.064 Y124.012
G1 F1800 E346.545
;bead-perimeter_inner
G1 X94.713 Y124.227 F1560 E346.568
G1 X94.801 Y124.243 E346.571
G1 X95.198 Y124.386 E346.585
G1 X95.54 Y124.546 E346.597
G1 X95.82 Y124.722 E346.608
G1 X96.062 Y124.927 E346.619
G1 X96.842 Y125.71 E346.656
G1 X96.302 Y126.25 E346.681
G1 X94.064 Y124.012 E346.786
G1 F1800 E336.786
;rapid-dry
G1 F236
G0 X123.148 Y125.7
G1 F1800 E346.786
;bead-perimeter_inner
G1 X123.92 Y124.928 F1560 E346.823
G1 X124.165 Y124.72 E346.833
G1 X124.447 Y124.546 E346.844
G1 X124.785 Y124.391 E346.857
G1 X125.21 Y124.239 E346.872
G1 X125.493 Y124.168 E346.881
G1 X125.685 Y124.086 E346.888
G1 X125.809 Y124.066 E346.893
G1 X125.942 Y124.006 E346.897
G1 X123.698 Y126.25 E347.003
G1 X123.148 Y125.7 E347.029
;rapid-leaky
G1 F236
G0 X122.632
;bead-perimeter_outer
G1 X123.673 Y124.659 F1080 E347.078
G1 X123.95 Y124.424 E347.09
G1 X124.275 Y124.224 E347.103
G1 X124.649 Y124.052 E347.116
G1 X125.088 Y123.893 E347.132
G1 X125.376 Y123.821 E347.142
G1 X125.583 Y123.733 E347.149
G1 X125.703 Y123.713 E347.153
G1 X126.051 Y123.556 E347.166
G1 X126.309 Y123.298 E347.178
G1 X126.466 Y122.95 E347.191
G1 X126.486 Y122.83 E347.195
G1 X126.574 Y122.623 E347.202
G1 X126.646 Y122.335 E347.212
G1 X126.805 Y121.896 E347.228
G1 X126.977 Y121.522 E347.241
G1 X127.177 Y121.197 E347.254
G1 X127.412 Y120.92 E347.266
G1 X128.736 Y119.596 E347.328
G1 X117.248 Y108.108 E347.869
G1 Y107.121 E347.902
G1 X118.137 E347.931
G1 Y94.021 E348.367
G1 X101.862 E348.908
G1 Y107.121 E349.344
G1 X102.751 E349.373
G1 Y108.108 E349.406
G1 X91.244 Y119.576 E349.947
G1 X92.575 Y120.911 E350.009
G1 X92.806 Y121.185 E350.021
G1 X93.01 Y121.513 E350.034
G1 X93.185 Y121.892 E350.048
G1 X93.231 Y122.053 E350.054
G1 X93.337 Y122.32 E350.063
G1 X93.356 Y122.42 E350.066
G1 X93.585 Y123.128 E350.091
G1 X93.794 Y123.431 E350.103
G1 X94.095 Y123.64 E350.116
G1 X94.803 Y123.872 E350.14
G1 X94.904 Y123.891 E350.144
G1 X95.33 Y124.045 E350.159
G1 X95.709 Y124.221 E350.173
G1 X96.036 Y124.427 E350.186
G1 X96.309 Y124.658 E350.198
G1 X97.358 Y125.711 E350.247
G1 X96.302 Y126.766 E350.297
G1 X89.401 Y119.865 E350.621
G1 X96.101 Y113.165 E350.936
G1 X96.845 Y112.37 E350.973
G1 X97.54 Y111.525 E351.009
G1 X98.176 Y110.636 E351.045
G1 X98.754 Y109.707 E351.082
G1 X99.269 Y108.743 E351.118
G1 X99.721 Y107.747 E351.155
G1 X100.105 Y106.723 E351.191
G1 X100.423 Y105.677 E351.227
G1 X100.671 Y104.612 E351.264
G1 X100.849 Y103.533 E351.3
G1 X100.957 Y102.445 E351.336
G1 X100.992 Y101.355 E351.373
G1 Y93.151 E351.646
G1 X119.007 E352.245
G1 Y101.355 E352.518
G1 X119.043 Y102.445 E352.554
G1 X119.151 Y103.533 E352.59
G1 X119.329 Y104.612 E352.627
G1 X119.577 Y105.677 E352.663
G1 X119.895 Y106.723 E352.699
G1 X120.279 Y107.747 E352.736
G1 X120.731 Y108.743 E352.772
G1 X121.246 Y109.707 E352.808
G1 X121.824 Y110.636 E352.845
G1 X122 Y110.883 E352.855
G1 X122.46 Y111.525 E352.881
G1 X123.155 Y112.37 E352.918
G1 X123.899 Y113.165 E352.954
G1 X130.599 Y119.865 E353.269
G1 X123.698 Y126.766 E353.594
G1 X122.632 Y125.7 E353.644
G1 F1800 E343.644
;rapid-dry
G1 F236
G0 X101.829 Y107.806
G1 F1800 E353.644
;bead-sparse_infill
G1 X100.928 Y108.393 F3600 E353.679
G1 X100.174 Y108.405 E353.704
G1 F1800 E343.704
;Layer : 15 of 50
;rapid-leaky
G1 F236
G0 X100.058 Y107.886 Z3.1
G1 F1800 E353.704
;bead-perimeter_inner
G1 X100.451 Y106.841 F1560 E353.742
G1 X100.776 Y105.771 E353.779
G1 X101.029 Y104.683 E353.816
G1 X101.211 Y103.581 E353.853
G1 X101.321 Y102.469 E353.89
G1 X101.357 Y101.361 E353.927
G1 Y93.516 E354.188
G1 X118.642 E354.763
G1 Y101.361 E355.024
G1 X118.679 Y102.469 E355.061
G1 X118.789 Y103.581 E355.098
G1 X118.971 Y104.683 E355.135
G1 X119.224 Y105.771 E355.172
G1 X119.549 Y106.841 E355.209
G1 X119.942 Y107.886 E355.247
G1 X120.403 Y108.904 E355.284
G1 X120.929 Y109.89 E355.321
G1 X121.52 Y110.839 E355.358
G1 X122.171 Y111.747 E355.395
G1 X122.88 Y112.611 E355.432
G1 X123.637 Y113.419 E355.469
G1 X130.083 Y119.865 E355.772
G1 X127.292 Y122.656 E355.904
G1 X127.267 Y122.602 E355.906
G1 X127.245 Y122.373 E355.913
G1 X127.274 Y122.109 E355.922
G1 X127.351 Y121.804 E355.933
G1 X127.463 Y121.522 E355.943
G1 X127.611 Y121.274 E355.952
G1 X127.796 Y121.053 E355.962
G1 X129.252 Y119.596 E356.03
G1 X117.613 Y107.957 E356.578
G1 Y107.486 E356.594
G1 X118.502 E356.623
G1 Y93.656 E357.083
G1 X101.497 E357.649
G1 Y107.486 E358.109
G1 X102.386 E358.138
G1 Y107.956 E358.154
G1 X90.728 Y119.575 E358.701
G1 X92.192 Y121.044 E358.77
G1 X92.376 Y121.264 E358.78
G1 X92.52 Y121.512 E358.789
G1 X92.636 Y121.793 E358.799
G1 X92.713 Y122.103 E358.81
G1 X92.74 Y122.405 E358.82
G1 X92.72 Y122.576 E358.826
G1 X92.692 Y122.64 E358.828
G1 X89.917 Y119.865 E358.959
G1 X96.363 Y113.419 E359.262
G1 X97.12 Y112.611 E359.299
G1 X97.829 Y111.747 E359.336
G1 X98.48 Y110.839 E359.373
G1 X98.659 Y110.553 E359.384
G1 X99.071 Y109.889 E359.41
G1 X99.597 Y108.904 E359.448
G1 X100.058 Y107.886 E359.485
;rapid-leaky
G1 F236
G0 X99.721 Y107.747
;bead-perimeter_outer
G1 X100.105 Y106.723 F1080 E359.521
G1 X100.423 Y105.677 E359.557
G1 X100.671 Y104.612 E359.594
G1 X100.849 Y103.533 E359.63
G1 X100.957 Y102.445 E359.667
G1 X100.992 Y101.355 E359.703
G1 Y93.151 E359.976
G1 X119.007 E360.575
G1 Y101.355 E360.848
G1 X119.043 Y102.445 E360.884
G1 X119.151 Y103.533 E360.92
G1 X119.329 Y104.612 E360.957
G1 X119.577 Y105.677 E360.993
G1 X119.895 Y106.723 E361.029
G1 X120.279 Y107.747 E361.066
G1 X120.731 Y108.743 E361.102
G1 X121.246 Y109.707 E361.139
G1 X121.824 Y110.636 E361.175
G1 X122.46 Y111.525 E361.211
G1 X123.155 Y112.37 E361.248
G1 X123.899 Y113.165 E361.284
G1 X130.599 Y119.865 E361.599
G1 X127.286 Y123.178 E361.755
G1 X127.001 Y122.893 E361.768
G1 X126.905 Y122.691 E361.776
G1 X126.877 Y122.385 E361.786
G1 X126.913 Y122.044 E361.797
G1 X127.003 Y121.691 E361.809
G1 X127.135 Y121.361 E361.821
G1 X127.312 Y121.062 E361.833
G1 X127.527 Y120.806 E361.844
G1 X128.736 Y119.596 E361.901
G1 X117.248 Y108.108 E362.441
G1 Y107.121 E362.474
G1 X118.137 E362.504
G1 Y94.021 E362.939
G1 X101.862 E363.481
G1 Y107.121 E363.916
G1 X102.751 E363.946
G1 Y108.108 E363.979
G1 X91.244 Y119.576 E364.519
G1 X92.462 Y120.798 E364.576
G1 X92.676 Y121.053 E364.588
G1 X92.848 Y121.35 E364.599
G1 X92.986 Y121.684 E364.611
G1 X93.075 Y122.04 E364.623
G1 X93.109 Y122.392 E364.635
G1 X93.077 Y122.673 E364.644
G1 X92.981 Y122.888 E364.652
G1 X92.702 Y123.166 E364.665
G1 X89.401 Y119.865 E364.821
G1 X96.101 Y113.165 E365.136
G1 X96.845 Y112.37 E365.172
G1 X97.54 Y111.525 E365.208
G1 X98.176 Y110.636 E365.245
G1 X98.349 Y110.36 E365.256
G1 X98.754 Y109.707 E365.281
G1 X99.269 Y108.743 E365.317
G1 X99.721 Y107.747 E365.354
;rapid-leaky
G1 F236
G0 X100.218 Y108.31
;bead-sparse_infill
G1 X100.928 Y108.252 F3600 E365.378
G1 X101.571 Y107.806 E365.404
G1 F1800 E355.404
;rapid-dry
G1 F236
G0 X93.992 Y122.861 Z3.4
G1 F1800 E365.404
;bead-support-structure
G1 X94.056 Y123.002 F4200 E365.407
G1 X94.192 Y123.14 E365.412
G1 X94.223 Y123.171 E365.413
G1 X94.364 Y123.235 E365.417
G1 F1800 E355.417
G1 F236
G0 X94.223 Y123.171
G0 X94.192 Y123.14
G0 X94.056 Y123.002
G0 X93.992 Y122.861
G0 X94.056 Y123.002
G0 X94.192 Y123.14
G0 X94.223 Y123.171
G0 X94.364 Y123.235
;rapid-dry
G1 F236
G0 X94.646 Y124.507 Z3.1
G1 F1800 E365.417
;bead-perimeter_inner
G1 X94.817 Y124.488 F1560 E365.423
G1 X95.117 Y124.516 E365.433
G1 X95.43 Y124.595 E365.444
G1 X95.708 Y124.711 E365.454
G1 X95.956 Y124.857 E365.463
G1 X96.176 Y125.041 E365.473
G1 X96.843 Y125.71 E365.504
G1 X96.302 Y126.25 E365.53
G1 X94.585 Y124.533 E365.61
G1 X94.646 Y124.507 E365.613
;rapid-leaky
G1 F236
G0 X94.55 Y124.15
;bead-perimeter_outer
G1 X94.831 Y124.119 F1080 E365.622
G1 X95.182 Y124.155 E365.634
G1 X95.538 Y124.245 E365.646
G1 X95.871 Y124.383 E365.658
G1 X96.167 Y124.558 E365.669
G1 X96.423 Y124.772 E365.68
G1 X97.358 Y125.711 E365.725
G1 X96.302 Y126.766 E365.774
G1 X94.057 Y124.521 E365.88
G1 X94.335 Y124.245 E365.893
G1 X94.55 Y124.15 E365.901
G1 F1800 E355.901
;rapid-dry
G1 F236
G0 X123.148 Y125.7
G1 F1800 E365.901
;bead-perimeter_inner
G1 X123.806 Y125.042 F1560 E365.932
G1 X124.026 Y124.858 E365.941
G1 X124.275 Y124.71 E365.951
G1 X124.557 Y124.598 E365.961
G1 X124.862 Y124.521 E365.971
G1 X125.126 Y124.492 E365.98
G1 X125.355 Y124.514 E365.988
G1 X125.409 Y124.539 E365.99
G1 X123.698 Y126.25 E366.07
G1 X123.148 Y125.7 E366.096
;rapid-leaky
G1 F236
G0 X122.632
;bead-perimeter_outer
G1 X123.559 Y124.773 F1080 E366.14
G1 X123.815 Y124.559 E366.151
G1 X124.114 Y124.382 E366.162
G1 X124.444 Y124.25 E366.174
G1 X124.797 Y124.16 E366.186
G1 X125.138 Y124.124 E366.198
G1 X125.444 Y124.152 E366.208
G1 X125.646 Y124.248 E366.215
G1 X125.931 Y124.533 E366.229
G1 X123.698 Y126.766 E366.334
G1 X122.632 Y125.7 E366.384
G1 F1800 E356.384
;rapid-dry
G1 F236
G0 X125.659 Y123.229 Z3.4
G1 F1800 E366.384
;bead-support-structure
G1 X125.851 Y123.098 F4200 E366.39
G1 X125.982 Y122.906 E366.396
G1 F1800 E356.396
G1 F236
G0 X125.851 Y123.098
G0 X125.659 Y123.229
G0 X125.851 Y123.098
G0 X125.982 Y122.906
;Layer : 16 of 50
;rapid-dry
G1 F236
G0 Z3.3
G1 F1800 E366.396
;bead-support-structure
G1 X125.851 Y123.098 F4200 E366.401
G1 X125.659 Y123.229 E366.407
G1 F1800 E356.407
G1 F236
G0 X125.851 Y123.098
G0 X125.982 Y122.906
G0 X125.851 Y123.098
G0 X125.659 Y123.229
;rapid-dry
G1 F236
G0 X125.003 Y124.752
G1 F1800 E366.407
;bead-perimeter_inner
G1 X125.125 Y124.823 F1560 E366.412
G1 X123.698 Y126.25 E366.479
G1 X123.148 Y125.7 E366.505
G1 X123.706 Y125.142 E366.531
G1 X123.909 Y124.974 E366.54
G1 X124.132 Y124.847 E366.548
G1 X124.377 Y124.759 E366.557
G1 X124.629 Y124.714 E366.565
G1 X124.85 Y124.712 E366.573
G1 X125.003 Y124.752 E366.578
;rapid-leaky
G1 F236
G0 X125.144 Y124.412
;bead-perimeter_outer
G1 X125.35 Y124.532 F1080 E366.586
G1 X125.641 Y124.823 E366.6
G1 X123.698 Y126.766 E366.691
G1 X122.632 Y125.7 E366.741
G1 X123.46 Y124.872 E366.78
G1 X123.701 Y124.672 E366.791
G1 X123.979 Y124.514 E366.801
G1 X124.282 Y124.405 E366.812
G1 X124.595 Y124.349 E366.823
G1 X124.895 Y124.346 E366.833
G1 X125.144 Y124.412 E366.841
G1 F1800 E356.841
;rapid-dry
G1 F236
G0 X127.576 Y122.372
G1 F1800 E366.841
;bead-perimeter_inner
G1 X127.505 Y122.25 F1560 E366.846
G1 X127.465 Y122.097 E366.851
G1 X127.467 Y121.876 E366.858
G1 X127.512 Y121.624 E366.867
G1 X127.6 Y121.379 E366.876
G1 X127.726 Y121.157 E366.884
G1 X127.896 Y120.953 E366.893
G1 X129.252 Y119.596 E366.957
G1 X117.613 Y107.957 E367.504
G1 Y107.486 E367.52
G1 X118.502 E367.549
G1 Y93.656 E368.009
G1 X101.497 E368.575
G1 Y107.486 E369.035
G1 X102.386 E369.064
G1 Y107.956 E369.08
G1 X90.728 Y119.575 E369.628
G1 X92.093 Y120.945 E369.692
G1 X92.262 Y121.149 E369.701
G1 X92.386 Y121.369 E369.709
G1 X92.476 Y121.618 E369.718
G1 X92.521 Y121.865 E369.726
G1 X92.517 Y122.088 E369.734
G1 X92.482 Y122.25 E369.739
G1 X92.412 Y122.36 E369.744
G1 X89.917 Y119.865 E369.861
G1 X96.363 Y113.419 E370.164
G1 X97.12 Y112.611 E370.201
G1 X97.829 Y111.747 E370.238
G1 X98.48 Y110.839 E370.275
G1 X98.67 Y110.535 E370.287
G1 X99.071 Y109.89 E370.312
G1 X99.597 Y108.904 E370.35
G1 X100.058 Y107.886 E370.387
G1 X100.451 Y106.841 E370.424
G1 X100.776 Y105.771 E370.461
G1 X101.029 Y104.683 E370.498
G1 X101.211 Y103.581 E370.535
G1 X101.321 Y102.469 E370.573
G1 X101.357 Y101.361 E370.609
G1 Y93.516 E370.87
G1 X118.642 E371.445
G1 Y101.361 E371.706
G1 X118.679 Y102.469 E371.743
G1 X118.789 Y103.581 E371.78
G1 X118.971 Y104.683 E371.817
G1 X119.224 Y105.771 E371.855
G1 X119.549 Y106.841 E371.892
G1 X119.942 Y107.886 E371.929
G1 X120.403 Y108.904 E371.966
G1 X120.929 Y109.89 E372.003
G1 X121.52 Y110.839 E372.04
G1 X122.171 Y111.747 E372.078
G1 X122.88 Y112.611 E372.115
G1 X123.637 Y113.419 E372.152
G1 X130.083 Y119.865 E372.455
G1 X127.576 Y122.372 E372.573
;rapid-leaky
G1 F236
G0 X127.285 Y122.597
;bead-perimeter_outer
G1 X127.165 Y122.391 F1080 E372.581
G1 X127.099 Y122.142 E372.589
G1 X127.102 Y121.842 E372.599
G1 X127.158 Y121.529 E372.61
G1 X127.267 Y121.226 E372.62
G1 X127.425 Y120.948 E372.631
G1 X127.626 Y120.707 E372.642
G1 X128.736 Y119.596 E372.694
G1 X117.248 Y108.108 E373.234
G1 Y107.121 E373.267
G1 X118.137 E373.296
G1 Y94.021 E373.732
G1 X101.862 E374.273
G1 Y107.121 E374.709
G1 X102.751 E374.739
G1 Y108.108 E374.772
G1 X91.244 Y119.575 E375.312
G1 X92.363 Y120.699 E375.365
G1 X92.564 Y120.942 E375.375
G1 X92.719 Y121.216 E375.386
G1 X92.829 Y121.522 E375.396
G1 X92.887 Y121.835 E375.407
G1 X92.881 Y122.131 E375.417
G1 X92.825 Y122.39 E375.426
G1 X92.702 Y122.587 E375.433
G1 X92.412 Y122.876 E375.447
G1 X89.401 Y119.865 E375.589
G1 X96.101 Y113.165 E375.904
G1 X96.845 Y112.37 E375.94
G1 X97.54 Y111.525 E375.976
G1 X98.176 Y110.636 E376.013
G1 X98.36 Y110.342 E376.024
G1 X98.754 Y109.707 E376.049
G1 X99.269 Y108.743 E376.086
G1 X99.721 Y107.747 E376.122
G1 X100.105 Y106.723 E376.158
G1 X100.423 Y105.677 E376.195
G1 X100.671 Y104.612 E376.231
G1 X100.849 Y103.533 E376.267
G1 X100.957 Y102.445 E376.304
G1 X100.992 Y101.355 E376.34
G1 Y93.151 E376.613
G1 X119.007 E377.212
G1 Y101.355 E377.485
G1 X119.043 Y102.445 E377.521
G1 X119.151 Y103.533 E377.558
G1 X119.329 Y104.612 E377.594
G1 X119.577 Y105.677 E377.63
G1 X119.895 Y106.723 E377.667
G1 X120.279 Y107.747 E377.703
G1 X120.731 Y108.743 E377.739
G1 X121.246 Y109.707 E377.776
G1 X121.824 Y110.636 E377.812
G1 X122.46 Y111.525 E377.849
G1 X123.155 Y112.37 E377.885
G1 X123.899 Y113.165 E377.921
G1 X130.599 Y119.865 E378.236
G1 X127.576 Y122.888 E378.378
G1 X127.285 Y122.597 E378.392
G1 F1800 E368.392
;rapid-dry
G1 F236
G0 X101.357 Y107.806
G1 F1800 E378.392
;bead-sparse_infill
G1 X100.928 Y108.121 F3600 E378.41
G1 X100.259 Y108.219 E378.432
G1 F1800 E368.432
;rapid-dry
G1 F236
G0 X93.992 Y122.861
G1 F1800 E378.432
;bead-support-structure
G1 X94.056 Y123.002 F4200 E378.436
G1 X94.192 Y123.14 E378.441
G1 X94.223 Y123.171 E378.442
G1 X94.364 Y123.235 E378.446
G1 F1800 E368.446
G1 F236
G0 X94.223 Y123.171
G0 X94.192 Y123.14
G0 X94.056 Y123.002
G0 X93.992 Y122.861
G0 X94.056 Y123.002
G0 X94.192 Y123.14
G0 X94.223 Y123.171
G0 X94.364 Y123.235
;rapid-dry
G1 F236
G0 X94.971 Y124.747
G1 F1800 E378.446
;bead-perimeter_inner
G1 X95.13 Y124.712 F1560 E378.451
G1 X95.348 Y124.709 E378.459
G1 X95.611 Y124.759 E378.468
G1 X95.851 Y124.847 E378.476
G1 X96.071 Y124.971 E378.485
G1 X96.276 Y125.141 E378.493
G1 X96.843 Y125.71 E378.52
G1 X96.302 Y126.25 E378.546
G1 X94.864 Y124.812 E378.613
G1 X94.971 Y124.747 E378.617
;rapid-leaky
G1 F236
G0 X94.832 Y124.403
;bead-perimeter_outer
G1 X95.088 Y124.348 F1080 E378.626
G1 X95.384 Y124.343 E378.636
G1 X95.702 Y124.404 E378.647
G1 X96.005 Y124.514 E378.657
G1 X96.279 Y124.669 E378.668
G1 X96.522 Y124.871 E378.678
G1 X97.358 Y125.711 E378.718
G1 X96.302 Y126.766 E378.767
G1 X94.347 Y124.811 E378.859
G1 X94.634 Y124.526 E378.873
G1 X94.832 Y124.403 E378.881
G1 F1800 E368.881
;Layer : 17 of 50
;rapid-dry
G1 F236
G0 X95.188 Y124.917 Z3.5
G1 F1800 E378.881
;bead-perimeter_inner
G1 X95.339 Y124.87 F1560 E378.886
G1 X95.527 Y124.855 E378.892
G1 X95.752 Y124.889 E378.9
G1 X95.969 Y124.958 E378.907
G1 X96.172 Y125.071 E378.915
G1 X96.358 Y125.224 E378.923
G1 X96.842 Y125.71 E378.946
G1 X96.302 Y126.25 E378.971
G1 X95.058 Y125.006 E379.03
G1 X95.188 Y124.917 E379.035
;rapid-leaky
G1 F236
G0 X95.029 Y124.583
;bead-perimeter_outer
G1 X95.27 Y124.51 F1080 E379.043
G1 X95.54 Y124.488 E379.052
G1 X95.835 Y124.532 E379.062
G1 X96.114 Y124.622 E379.072
G1 X96.378 Y124.768 E379.082
G1 X96.603 Y124.953 E379.092
G1 X97.358 Y125.711 E379.127
G1 X96.302 Y126.766 E379.177
G1 X94.541 Y125.005 E379.26
G1 X94.831 Y124.717 E379.273
G1 X95.029 Y124.583 E379.281
G1 F1800 E369.281
;rapid-dry
G1 F236
G0 X94.364 Y123.235
G1 F1800 E379.281
;bead-support-structure
G1 X94.223 Y123.171 F4200 E379.285
G1 X94.192 Y123.14 E379.286
G1 X94.056 Y123.002 E379.291
G1 X93.992 Y122.861 E379.295
G1 F1800 E369.295
G1 F236
G0 X94.056 Y123.002
G0 X94.192 Y123.14
G0 X94.223 Y123.171
G0 X94.364 Y123.235
G0 X94.223 Y123.171
G0 X94.192 Y123.14
G0 X94.056 Y123.002
G0 X93.992 Y122.861
;rapid-dry
G1 F236
G0 X92.313 Y122.032
G1 F1800 E379.295
;bead-perimeter_inner
G1 X92.218 Y122.166 F1560 E379.3
G1 X89.917 Y119.865 E379.409
G1 X96.363 Y113.419 E379.712
G1 X97.12 Y112.611 E379.749
G1 X97.829 Y111.747 E379.786
G1 X98.48 Y110.839 E379.823
G1 X98.681 Y110.516 E379.836
G1 X99.071 Y109.89 E379.86
G1 X99.597 Y108.904 E379.897
G1 X100.058 Y107.886 E379.935
G1 X100.451 Y106.841 E379.972
G1 X100.776 Y105.771 E380.009
G1 X101.029 Y104.683 E380.046
G1 X101.091 Y104.308 E380.059
G1 X101.211 Y103.581 E380.083
G1 X101.321 Y102.469 E380.12
G1 X101.357 Y101.361 E380.157
G1 Y93.516 E380.418
G1 X118.642 E380.993
G1 Y101.361 E381.254
G1 X118.679 Y102.469 E381.291
G1 X118.789 Y103.581 E381.328
G1 X118.971 Y104.683 E381.365
G1 X119.224 Y105.771 E381.402
G1 X119.549 Y106.841 E381.44
G1 X119.942 Y107.886 E381.477
G1 X120.403 Y108.904 E381.514
G1 X120.929 Y109.89 E381.551
G1 X121.52 Y110.839 E381.588
G1 X122.171 Y111.747 E381.625
G1 X122.88 Y112.611 E381.663
G1 X123.637 Y113.419 E381.699
G1 X130.083 Y119.865 E382.003
G1 X127.77 Y122.178 E382.111
G1 X127.672 Y122.037 E382.117
G1 X127.625 Y121.895 E382.122
G1 X127.614 Y121.694 E382.129
G1 X127.641 Y121.48 E382.136
G1 X127.716 Y121.258 E382.144
G1 X127.824 Y121.058 E382.151
G1 X127.978 Y120.87 E382.159
G1 X129.252 Y119.596 E382.219
G1 X117.613 Y107.957 E382.767
G1 Y107.486 E382.782
G1 X118.502 E382.812
G1 Y93.656 E383.272
G1 X101.497 E383.838
G1 Y107.486 E384.298
G1 X102.386 E384.327
G1 Y107.956 E384.343
G1 X90.728 Y119.575 E384.89
G1 X92.01 Y120.861 E384.951
G1 X92.162 Y121.048 E384.959
G1 X92.274 Y121.25 E384.966
G1 X92.343 Y121.469 E384.974
G1 X92.376 Y121.693 E384.981
G1 X92.36 Y121.882 E384.988
G1 X92.313 Y122.032 E384.993
;rapid-leaky
G1 F236
G0 X92.646 Y122.192
;bead-perimeter_outer
G1 X92.511 Y122.39 F1080 E385.001
G1 X92.218 Y122.682 E385.015
G1 X89.401 Y119.865 E385.147
G1 X96.101 Y113.165 E385.462
G1 X96.845 Y112.37 E385.499
G1 X97.54 Y111.525 E385.535
G1 X98.176 Y110.636 E385.571
G1 X98.371 Y110.324 E385.584
G1 X98.754 Y109.707 E385.608
G1 X99.269 Y108.743 E385.644
G1 X99.721 Y107.747 E385.68
G1 X100.105 Y106.723 E385.717
G1 X100.423 Y105.677 E385.753
G1 X100.671 Y104.612 E385.79
G1 X100.731 Y104.249 E385.802
G1 X100.849 Y103.533 E385.826
G1 X100.957 Y102.445 E385.862
G1 X100.992 Y101.355 E385.899
G1 Y93.151 E386.171
G1 X119.007 E386.771
G1 Y101.355 E387.044
G1 X119.043 Y102.445 E387.08
G1 X119.151 Y103.533 E387.116
G1 X119.329 Y104.612 E387.152
G1 X119.577 Y105.677 E387.189
G1 X119.895 Y106.723 E387.225
G1 X120.279 Y107.747 E387.262
G1 X120.731 Y108.743 E387.298
G1 X121.246 Y109.707 E387.334
G1 X121.824 Y110.636 E387.371
G1 X122.037 Y110.935 E387.383
G1 X122.46 Y111.525 E387.407
G1 X123.155 Y112.37 E387.443
G1 X123.899 Y113.165 E387.48
G1 X130.599 Y119.865 E387.795
G1 X127.77 Y122.694 E387.928
G1 X127.474 Y122.398 E387.942
G1 X127.34 Y122.199 E387.95
G1 X127.263 Y121.964 E387.958
G1 X127.248 Y121.681 E387.967
G1 X127.284 Y121.398 E387.977
G1 X127.38 Y121.112 E387.987
G1 X127.519 Y120.854 E387.997
G1 X127.707 Y120.625 E388.007
G1 X128.736 Y119.596 E388.055
G1 X117.248 Y108.108 E388.595
G1 Y107.121 E388.628
G1 X118.137 E388.658
G1 Y94.021 E389.093
G1 X101.862 E389.635
G1 Y107.121 E390.07
G1 X102.751 E390.1
G1 Y108.108 E390.133
G1 X91.244 Y119.576 E390.673
G1 X92.281 Y120.616 E390.722
G1 X92.466 Y120.842 E390.732
G1 X92.611 Y121.106 E390.742
G1 X92.699 Y121.387 E390.752
G1 X92.743 Y121.681 E390.761
G1 X92.72 Y121.952 E390.771
G1 X92.646 Y122.192 E390.779
G1 F1800 E380.779
;rapid-dry
G1 F236
G0 X100.298 Y108.133
G1 F1800 E390.779
;bead-sparse_infill
G1 X100.928 Y108.001 F3600 E390.8
G1 X101.178 Y107.806 E390.811
G1 F1800 E380.811
;rapid-dry
G1 F236
G0 X123.148 Y125.7
G1 F1800 E390.811
;bead-perimeter_inner
G1 X123.623 Y125.225 F1560 E390.833
G1 X123.812 Y125.07 E390.841
G1 X124.006 Y124.965 E390.849
G1 X124.233 Y124.888 E390.857
G1 X124.447 Y124.861 E390.864
G1 X124.648 Y124.872 E390.87
G1 X124.79 Y124.919 E390.875
G1 X124.919 Y125.005 E390.881
G1 X124.931 Y125.017
G1 X123.698 Y126.25 E390.939
G1 X123.148 Y125.7 E390.965
;rapid-leaky
G1 F236
G0 X122.632
;bead-perimeter_outer
G1 X123.378 Y124.954 F1080 E391
G1 X123.607 Y124.766 E391.01
G1 X123.86 Y124.629 E391.02
G1 X124.151 Y124.531 E391.03
G1 X124.434 Y124.495 E391.039
G1 X124.717 Y124.51 E391.049
G1 X124.952 Y124.587 E391.057
G1 X125.151 Y124.721 E391.065
G1 X125.447 Y125.017 E391.079
G1 X123.698 Y126.766 E391.161
G1 X122.632 Y125.7 E391.211
G1 F1800 E381.211
;rapid-dry
G1 F236
G0 X125.659 Y123.229
G1 F1800 E391.211
;bead-support-structure
G1 X125.851 Y123.098 F4200 E391.217
G1 X125.982 Y122.906 E391.223
G1 F1800 E381.223
G1 F236
G0 X125.851 Y123.098
G0 X125.659 Y123.229
G0 X125.851 Y123.098
G0 X125.982 Y122.906
;Layer : 18 of 50
;rapid-dry
G1 F236
G0 Z3.7
G1 F1800 E391.223
;bead-support-structure
G1 X125.851 Y123.098 F4200 E391.229
G1 X125.659 Y123.229 E391.234
G1 F1800 E381.234
G1 F236
G0 X125.851 Y123.098
G0 X125.982 Y122.906
G0 X125.851 Y123.098
G0 X125.659 Y123.229
;rapid-dry
G1 F236
G0 X124.624 Y125.046
G1 F1800 E391.234
;bead-perimeter_inner
G1 X124.757 Y125.145 F1560 E391.24
G1 X124.78 Y125.168 E391.241
G1 X123.698 Y126.25 E391.292
G1 X123.148 Y125.7 E391.318
G1 X123.545 Y125.303 E391.336
G1 X123.725 Y125.156 E391.344
G1 X123.914 Y125.055 E391.351
G1 X124.112 Y124.995 E391.358
G1 X124.315 Y124.976 E391.365
G1 X124.491 Y124.995 E391.371
G1 X124.624 Y125.046 E391.375
;rapid-leaky
G1 F236
G0 X124.802 Y124.723
;bead-perimeter_outer
G1 X124.997 Y124.869 F1080 E391.384
G1 X125.296 Y125.168 E391.398
G1 X123.698 Y126.766 E391.473
G1 X122.632 Y125.7 E391.523
G1 X123.3 Y125.032 E391.554
G1 X123.522 Y124.851 E391.564
G1 X123.774 Y124.716 E391.573
G1 X124.042 Y124.635 E391.583
G1 X124.317 Y124.609 E391.592
G1 X124.578 Y124.637 E391.601
G1 X124.802 Y124.723 E391.609
G1 F1800 E381.609
;rapid-dry
G1 F236
G0 X127.921 Y122.027
G1 F1800 E391.609
;bead-perimeter_inner
G1 X127.799 Y121.871 F1560 E391.615
G1 X127.748 Y121.738 E391.62
G1 X127.729 Y121.562 E391.626
G1 X127.748 Y121.359 E391.633
G1 X127.808 Y121.161 E391.64
G1 X127.909 Y120.972 E391.647
G1 X128.056 Y120.792 E391.654
G1 X129.252 Y119.596 E391.711
G1 X117.613 Y107.957 E392.258
G1 Y107.486 E392.274
G1 X118.502 E392.303
G1 Y93.656 E392.763
G1 X101.497 E393.329
G1 Y107.486 E393.789
G1 X102.386 E393.818
G1 Y107.956 E393.834
G1 X90.728 Y119.575 E394.382
G1 X91.933 Y120.784 E394.438
G1 X92.082 Y120.967 E394.446
G1 X92.178 Y121.15 E394.453
G1 X92.24 Y121.353 E394.46
G1 X92.259 Y121.55 E394.467
G1 X92.236 Y121.728 E394.473
G1 X92.186 Y121.866 E394.478
G1 X92.067 Y122.015 E394.484
G1 X89.917 Y119.865 E394.585
G1 X96.363 Y113.419 E394.888
G1 X97.12 Y112.611 E394.925
G1 X97.829 Y111.747 E394.962
G1 X98.063 Y111.421 E394.976
G1 X98.48 Y110.839 E394.999
G1 X99.071 Y109.89 E395.037
G1 X99.597 Y108.904 E395.074
G1 X100.058 Y107.886 E395.111
G1 X100.451 Y106.841 E395.148
G1 X100.776 Y105.771 E395.185
G1 X100.867 Y105.38 E395.199
G1 X101.029 Y104.683 E395.222
