;1001
;Printer name: Creality Ender 3 V2
;Print time: 1h:25m:7s
;Extruder 1 material used: 2690mm
;Extruder 1 material name: PVA 1.75mm
;Extruder 1 filament diameter: 1.75mm
;Extruder 1 nozzle diameter: 0.4mm
;Extruder 1 offset x: 0mm
;Extruder 1 offset y: 0mm
;Extruder 1 offset z: 0mm
;Extruder 1 max temp: 220
;Bed temp: 60
;Layer count: 178
;Width: 220mm
;Depth: 220mm
;Height: 250mm
;Center x: 110mm
;Center y: 110mm
;Center z: 0mm
;Count of bodies: 1
;Fusion version: 2.0.10148
;--------------------------------
;Selected Profile: PVA 1.75mm, 0.4mm Nozzle
;Selected Printer: Creality, Ender 3 V2
;--------------------------------
T0
M140 S60
M190 S60
M104 S220 T0
M105
M109 S220 T0
G21
G90
M82
;Reset multiplier
M220 S100
M221 S100
;Enable auto bed leveling
M420 S1 Z2
G28
G1 Z10 F236
G92 E0
G0 X10 Y10 Z10
G92 E0
;--------------------------------
;Layer : 1 of 178
M107
;rapid-leaky
G0 X20 Y20.8 Z0.3
G1 F1800 E10
;bead-prime
G1 X200 F270 E45.921
G1 F1800 E35.921
;rapid-dry
G1 F236
G0 X107.739 Y133.786
G1 F1800 E45.921
;bead-perimeter_outer
G1 X112.598 Y136.577 F540 E46.201
G1 X112.588 Y136.594 E46.202
G1 X107.739 Y133.786 E46.481
G1 F1800 E36.481
;rapid-dry
G1 F236
G0 X107.696 Y99.909
G1 F1800 E46.481
;bead-perimeter_outer
G1 X112.588 Y97.077 F540 E46.763
G1 X112.599 Y97.095 E46.764
G1 X107.696 Y99.909 E47.046
G1 F1800 E37.046
;rapid-dry
G1 F236
G0 X107.152 Y99.762
G1 F1800 E47.046
;bead-skirt/brim
G1 X112.733 Y96.531 F780 E47.368
G1 X113.146 Y97.241 E47.409
G1 X107.551 Y100.454 E47.731
G1 X107.152 Y99.762 E47.771
;rapid-leaky
G1 F236
G0 X107.898 Y97.676
;bead-skirt/brim
G1 X108.491 Y98.704 F780 E47.83
G1 X106.816 Y99.674 E47.926
G1 X107.459 Y100.789 E47.991
G1 X109.137 Y99.826 E48.087
G1 X109.801 Y100.977 E48.153
G1 X94.847 Y109.563 E49.014
G1 X92.97 Y106.319 E49.201
G1 X107.898 Y97.676 E50.061
;rapid-leaky
G1 F236
G0 X108.044 Y97.129
;bead-skirt/brim
G1 X108.759 Y98.37 F780 E50.133
G1 X112.879 Y95.985 E50.37
G1 X113.694 Y97.388 E50.451
G1 X109.562 Y99.761 E50.689
G1 X110.347 Y101.124 E50.767
G1 X94.7 Y110.108 E51.667
G1 X92.424 Y106.173 E51.894
G1 X108.044 Y97.129 E52.795
;rapid-leaky
G1 F236
G0 X108.191 Y96.583
;bead-skirt/brim
G1 X108.906 Y97.823 F780 E52.866
G1 X113.024 Y95.438 E53.104
G1 X114.242 Y97.535 E53.225
G1 X110.108 Y99.908 E53.462
G1 X110.894 Y101.271 E53.541
G1 X94.554 Y110.653 E54.481
G1 X91.877 Y106.027 E54.748
G1 X108.191 Y96.583 E55.688
;rapid-leaky
G1 F236
G0 X108.337 Y96.036
;bead-skirt/brim
G1 X109.052 Y97.276 F780 E55.759
G1 X113.169 Y94.892 E55.997
G1 X114.79 Y97.681 E56.158
G1 X110.655 Y100.056 E56.396
G1 X111.441 Y101.419 E56.474
G1 X94.407 Y111.199 E57.454
G1 X91.331 Y105.881 E57.76
G1 X108.337 Y96.036 E58.741
;rapid-leaky
G1 F236
G0 X108.483 Y95.489
;bead-skirt/brim
G1 X109.198 Y96.729 F780 E58.812
G1 X113.314 Y94.346 E59.05
G1 X115.338 Y97.828 E59.25
G1 X111.202 Y100.203 E59.488
G1 X111.988 Y101.566 E59.567
G1 X94.261 Y111.744 E60.587
G1 X90.785 Y105.736 E60.933
G1 X108.483 Y95.489 E61.953
;rapid-leaky
G1 F236
G0 X108.63 Y94.942
;bead-skirt/brim
G1 X109.345 Y96.182 F780 E62.025
G1 X113.459 Y93.8 E62.262
G1 X115.886 Y97.975 E62.503
G1 X111.748 Y100.35 E62.741
G1 X112.534 Y101.713 E62.819
G1 X94.114 Y112.29 E63.879
G1 X90.238 Y105.59 E64.265
G1 X108.63 Y94.942 E65.326
;rapid-leaky
G1 F236
G0 X108.776 Y94.395
;bead-skirt/brim
G1 X109.491 Y95.635 F780 E65.397
G1 X113.604 Y93.253 E65.634
G1 X116.434 Y98.121 E65.915
G1 X112.295 Y100.498 E66.153
G1 X113.081 Y101.861 E66.232
G1 X99.037 Y109.924 E67.039
G1 X99.9 Y111.416 E67.125
G1 X106.575 Y107.593 E67.509
G1 X108.074 Y106.674 E67.597
G1 X109.631 Y105.667 E67.689
G1 X111.493 Y103.14 E67.846
G1 X113.018 Y104.263 E67.941
G1 X113.859 Y103.72 E67.99
G1 X114.061 Y103.953 E68.006
G1 X114.479 Y103.679 E68.031
G1 X114.75 Y103.94 E68.05
G1 X115.128 Y103.711 E68.072
G1 X115.354 Y103.912 E68.087
G1 X115.59 Y103.768 E68.1
G1 X115.829 Y103.962 E68.116
G1 X115.965 Y103.878 E68.124
G1 X116.18 Y104.023 E68.137
G1 X116.251 Y103.976 E68.141
G1 X117.628 Y104.809 E68.221
G1 X121.068 Y106.305 E68.408
G1 X118.934 Y109.801 E68.613
G1 Y123.671 E69.305
G1 X121.049 Y127.217 E69.511
G1 X118 Y128.545 E69.677
G1 X116.456 Y129.442 E69.766
G1 X115.891 Y129.851 E69.8
G1 X115.766 Y129.76 E69.808
G1 X115.506 Y129.957 E69.824
G1 X115.362 Y129.855 E69.833
G1 X115.13 Y130.065 E69.849
G1 X114.83 Y129.856 E69.867
G1 X114.601 Y130.079 E69.883
G1 X114.228 Y129.824 E69.906
G1 X114.011 Y130.061 E69.922
G1 X113.417 Y129.658 E69.957
G1 X113.22 Y129.9 E69.973
G1 X112.642 Y129.517 E70.008
G1 X111.42 Y130.371 E70.082
G1 X109.776 Y128.015 E70.225
G1 X108.435 Y127.094 E70.306
G1 X107.454 Y126.452 E70.365
G1 X106.446 Y125.833 E70.424
G1 X99.971 Y122.128 E70.796
G1 X99.037 Y123.746 E70.889
G1 X113.123 Y131.835 E71.7
G1 X112.337 Y133.198 E71.778
G1 X116.432 Y135.549 E72.014
G1 X113.606 Y140.419 E72.295
G1 X109.533 Y138.061 E72.529
G1 X108.818 Y139.301 E72.601
G1 X89.688 Y128.225 E73.704
G1 X93.972 Y120.838 E74.13
G1 X94.375 Y121.069 E74.153
G1 X95.623 Y117.875 E74.324
G1 X95.726 Y117.509 E74.343
G1 X95.507 Y115.491 E74.444
G1 X89.692 Y105.444 E75.023
G1 X108.776 Y94.395 E76.124
;rapid-leaky
G1 F236
G0 X107.006 Y87.919
;bead-skirt/brim
G1 X107.599 Y88.947 F780 E76.183
G1 X105.923 Y89.916 E76.279
G1 X107.1 Y91.964 E76.397
G1 X106.2 Y92.483 E76.449
G1 X106.162 Y92.416 E76.453
G1 X104.326 Y93.471 E76.558
G1 X103.105 Y90.177 E76.734
G1 X107.006 Y87.919 E76.959
;rapid-leaky
G1 F236
G0 X107.152 Y87.372
;bead-skirt/brim
G1 X108.146 Y89.093 F780 E77.058
G1 X106.469 Y90.063 E77.154
G1 X107.645 Y92.111 E77.272
G1 X106.054 Y93.029 E77.364
G1 X106.015 Y92.962 E77.368
G1 X104.116 Y94.053 E77.477
G1 X102.613 Y90 E77.693
G1 X107.152 Y87.372 E77.954
;rapid-leaky
G1 F236
G0 X107.299 Y86.826
;bead-skirt/brim
G1 X108.692 Y89.239 F780 E78.093
G1 X107.014 Y90.209 E78.19
G1 X108.191 Y92.258 E78.308
G1 X105.907 Y93.576 E78.439
G1 X105.868 Y93.507 E78.443
G1 X103.905 Y94.636 E78.556
G1 X102.121 Y89.822 E78.812
G1 X107.299 Y86.826 E79.111
;rapid-leaky
G1 F236
G0 X107.445 Y86.279
;bead-skirt/brim
G1 X109.238 Y89.385 F780 E79.29
G1 X107.56 Y90.356 E79.387
G1 X108.737 Y92.404 E79.504
G1 X105.761 Y94.122 E79.676
G1 X105.721 Y94.053 E79.68
G1 X103.694 Y95.218 E79.796
G1 X101.628 Y89.645 E80.093
G1 X107.445 Y86.279 E80.428
;rapid-leaky
G1 F236
G0 X107.591 Y85.732
;bead-skirt/brim
G1 X109.784 Y89.531 F780 E80.647
G1 X108.105 Y90.502 E80.744
G1 X109.282 Y92.551 E80.862
G1 X105.614 Y94.669 E81.073
G1 X105.574 Y94.599 E81.077
G1 X103.484 Y95.801 E81.197
G1 X101.136 Y89.468 E81.534
G1 X107.591 Y85.732 E81.906
;rapid-leaky
G1 F236
G0 X107.737 Y85.185
;bead-skirt/brim
G1 X110.331 Y89.677 F780 E82.165
G1 X108.651 Y90.649 E82.262
G1 X109.828 Y92.698 E82.38
G1 X105.468 Y95.215 E82.631
G1 X105.427 Y95.145 E82.635
G1 X103.273 Y96.383 E82.759
G1 X100.644 Y89.291 E83.136
G1 X107.737 Y85.185 E83.545
;rapid-leaky
G1 F236
G0 X107.883 Y84.639
;bead-skirt/brim
G1 X110.877 Y89.824 F780 E83.844
G1 X109.196 Y90.795 E83.941
G1 X110.374 Y92.845 E84.059
G1 X105.321 Y95.761 E84.35
G1 X105.28 Y95.691 E84.354
G1 X103.062 Y96.965 E84.482
G1 X100.151 Y89.113 E84.899
G1 X107.883 Y84.639 E85.345
;rapid-leaky
G1 F236
G0 X108.03 Y84.092
;bead-skirt/brim
G1 X111.423 Y89.97 F780 E85.684
G1 X109.742 Y90.942 E85.781
G1 X110.919 Y92.992 E85.899
G1 X109.051 Y94.07 E86.006
G1 X109.638 Y95.088 E86.065
G1 X113.75 Y92.707 E86.302
G1 X116.982 Y98.268 E86.623
G1 X112.842 Y100.645 E86.861
G1 X113.628 Y102.008 E86.939
G1 X111.944 Y102.975 E87.036
G1 X113.033 Y103.778 E87.104
G1 X113.933 Y103.196 E87.157
G1 X114.134 Y103.427 E87.172
G1 X114.527 Y103.169 E87.196
G1 X114.806 Y103.438 E87.215
G1 X115.174 Y103.215 E87.237
G1 X115.399 Y103.416 E87.252
G1 X115.622 Y103.28 E87.265
G1 X115.86 Y103.473 E87.28
G1 X115.974 Y103.403 E87.287
G1 X116.18 Y103.541 E87.299
G1 X116.24 Y103.501 E87.303
G1 X117.813 Y104.453 E87.394
G1 X121.648 Y106.122 E87.603
G1 X119.334 Y109.913 E87.825
G1 Y123.561 E88.506
G1 X121.625 Y127.402 E88.729
G1 X118.181 Y128.903 E88.916
G1 X116.674 Y129.778 E89.003
G1 X115.892 Y130.344 E89.051
G1 X115.772 Y130.257 E89.059
G1 X115.514 Y130.452 E89.075
G1 X115.393 Y130.367 E89.082
G1 X115.164 Y130.575 E89.098
G1 X114.872 Y130.373 E89.115
G1 X114.645 Y130.594 E89.131
G1 X114.288 Y130.35 E89.153
G1 X114.072 Y130.586 E89.169
G1 X113.496 Y130.195 E89.203
G1 X113.301 Y130.434 E89.219
G1 X112.648 Y130.001 E89.258
G1 X111.784 Y130.605 E89.311
G1 X113.67 Y131.688 E89.419
G1 X112.884 Y133.05 E89.498
G1 X116.98 Y135.402 E89.733
G1 X113.752 Y140.965 E90.054
G1 X109.68 Y138.608 E90.289
G1 X109.232 Y139.384 E90.333
G1 X111.057 Y140.438 E90.439
G1 X109.741 Y142.729 E90.57
G1 X111.422 Y143.702 E90.667
G1 X108.029 Y149.58 E91.006
G1 X99.661 Y144.733 E91.488
G1 X102.792 Y136.274 E91.938
G1 X100.551 Y134.976 E92.067
G1 X94.805 Y141.921 E92.517
G1 X86.425 Y137.071 E93
G1 X89.818 Y131.194 E93.339
G1 X91.493 Y132.163 E93.435
G1 X92.545 Y130.341 E93.54
G1 X89.141 Y128.371 E93.736
G1 X93.826 Y120.293 E94.202
G1 X94.171 Y120.491 E94.222
G1 X95.245 Y117.742 E94.369
G1 X95.321 Y117.483 E94.383
G1 X95.118 Y115.618 E94.477
G1 X89.145 Y105.298 E95.071
G1 X92.545 Y103.33 E95.267
G1 X91.493 Y101.508 E95.372
G1 X89.819 Y102.477 E95.469
G1 X86.426 Y96.6 E95.807
G1 X94.804 Y91.749 E96.29
G1 X100.554 Y98.693 E96.74
G1 X102.795 Y97.395 E96.869
G1 X99.659 Y88.936 E97.32
G1 X108.03 Y84.092 E97.802
;rapid-leaky
G1 F236
G0 X108.176 Y83.545
;bead-skirt/brim
G1 X111.969 Y90.116 F780 E98.181
G1 X110.287 Y91.089 E98.278
G1 X111.465 Y93.139 E98.395
G1 X109.597 Y94.217 E98.503
G1 X109.784 Y94.541 E98.522
G1 X113.895 Y92.161 E98.759
G1 X117.53 Y98.415 E99.12
G1 X113.388 Y100.792 E99.358
G1 X114.174 Y102.155 E99.436
G1 X112.674 Y103.017 E99.523
G1 X113.048 Y103.292 E99.546
G1 X114.007 Y102.672 E99.603
G1 X114.207 Y102.901 E99.618
G1 X114.575 Y102.66 E99.64
G1 X114.862 Y102.937 E99.66
G1 X115.22 Y102.72 E99.681
G1 X115.444 Y102.92 E99.696
G1 X115.654 Y102.791 E99.708
G1 X115.892 Y102.984 E99.723
G1 X115.984 Y102.927 E99.729
G1 X116.181 Y103.06 E99.74
G1 X116.229 Y103.027 E99.743
G1 X117.997 Y104.097 E99.846
G1 X122.229 Y105.938 E100.077
G1 X119.734 Y110.026 E100.316
G1 Y123.451 E100.985
G1 X122.201 Y127.587 E101.226
G1 X118.362 Y129.26 E101.435
G1 X116.893 Y130.114 E101.519
G1 X115.893 Y130.837 E101.581
G1 X115.778 Y130.754 E101.588
G1 X115.521 Y130.948 E101.604
G1 X115.424 Y130.879 E101.61
G1 X115.197 Y131.085 E101.625
G1 X114.915 Y130.889 E101.642
G1 X114.689 Y131.109 E101.658
G1 X114.348 Y130.876 E101.679
G1 X114.133 Y131.11 E101.695
G1 X113.575 Y130.732 E101.728
G1 X113.382 Y130.968 E101.743
G1 X112.654 Y130.485 E101.787
G1 X112.53 Y130.572 E101.795
G1 X114.216 Y131.54 E101.892
G1 X113.431 Y132.903 E101.97
G1 X117.527 Y135.255 E102.206
G1 X113.897 Y141.511 E102.567
G1 X109.826 Y139.154 E102.801
G1 X109.778 Y139.238 E102.806
G1 X111.602 Y140.291 E102.911
G1 X110.287 Y142.582 E103.043
G1 X111.968 Y143.556 E103.14
G1 X108.175 Y150.127 E103.519
G1 X99.169 Y144.91 E104.038
G1 X102.299 Y136.451 E104.488
G1 X100.643 Y135.492 E104.583
G1 X94.897 Y142.436 E105.033
G1 X85.879 Y137.217 E105.553
G1 X89.672 Y130.647 E105.931
G1 X91.347 Y131.617 E106.028
G1 X91.999 Y130.487 E106.093
G1 X88.594 Y128.516 E106.289
G1 X93.68 Y119.747 E106.795
G1 X93.968 Y119.913 E106.811
G1 X94.868 Y117.609 E106.935
G1 X94.915 Y117.457 E106.943
G1 X94.73 Y115.745 E107.029
G1 X88.599 Y105.152 E107.639
G1 X91.999 Y103.184 E107.835
G1 X91.347 Y102.054 E107.9
G1 X89.673 Y103.024 E107.997
G1 X85.88 Y96.454 E108.375
G1 X94.896 Y91.233 E108.895
G1 X100.646 Y98.177 E109.345
G1 X102.303 Y97.218 E109.44
G1 X99.167 Y88.759 E109.89
G1 X108.176 Y83.545 E110.41
;rapid-leaky
G1 F236
G0 X108.322 Y82.998
;bead-skirt/brim
G1 X112.516 Y90.262 F780 E110.828
G1 X110.833 Y91.235 E110.925
G1 X111.797 Y92.913 E111.022
G1 X114.04 Y91.615 E111.151
G1 X118.077 Y98.561 E111.552
G1 X113.935 Y100.94 E111.79
G1 X114.646 Y102.172 E111.861
G1 X114.918 Y102.435 E111.88
G1 X115.266 Y102.224 E111.9
G1 X115.489 Y102.423 E111.915
G1 X115.687 Y102.303 E111.927
G1 X115.924 Y102.495 E111.942
G1 X115.994 Y102.452 E111.946
G1 X116.181 Y102.578 E111.957
G1 X116.218 Y102.553 E111.96
G1 X118.181 Y103.741 E112.074
G1 X122.81 Y105.755 E112.326
G1 X120.134 Y110.138 E112.582
G1 Y123.341 E113.241
G1 X122.777 Y127.772 E113.498
G1 X118.543 Y129.617 E113.729
G1 X117.111 Y130.449 E113.811
G1 X115.894 Y131.33 E113.886
G1 X115.784 Y131.251 E113.893
G1 X115.529 Y131.444 E113.909
G1 X115.455 Y131.391 E113.914
G1 X115.231 Y131.595 E113.929
G1 X114.957 Y131.405 E113.945
G1 X114.733 Y131.624 E113.961
G1 X114.659 Y131.573 E113.965
G1 X113.977 Y132.756 E114.033
G1 X118.075 Y135.109 E114.269
G1 X114.042 Y142.058 E114.67
G1 X111.796 Y140.757 E114.8
G1 X110.832 Y142.436 E114.896
G1 X112.514 Y143.41 E114.993
G1 X108.321 Y150.674 E115.412
G1 X98.677 Y145.088 E115.968
G1 X101.807 Y136.628 E116.418
G1 X100.736 Y136.008 E116.479
G1 X94.99 Y142.952 E116.929
G1 X85.333 Y137.363 E117.486
G1 X89.526 Y130.101 E117.904
G1 X91.201 Y131.07 E118.001
G1 X91.453 Y130.633 E118.026
G1 X88.047 Y128.662 E118.222
G1 X93.534 Y119.202 E118.768
G1 X93.764 Y119.335 E118.781
G1 X94.509 Y117.418 E118.883
G1 X94.341 Y115.871 E118.961
G1 X88.052 Y105.006 E119.587
G1 X91.453 Y103.038 E119.783
G1 X91.201 Y102.601 E119.809
G1 X89.527 Y103.571 E119.905
G1 X85.333 Y96.308 E120.323
G1 X94.988 Y90.718 E120.88
G1 X100.738 Y97.662 E121.33
G1 X101.81 Y97.041 E121.392
G1 X98.674 Y88.582 E121.842
G1 X108.322 Y82.998 E122.398
;rapid-leaky
G1 F236
G0 X132.554 Y67.668
;bead-skirt/brim
G1 X132.55 Y85.844 F780 E123.305
G1 X127.258 Y82.792 E123.61
G1 X125.594 Y83.396 E123.698
G1 X123.052 Y85.821 E123.873
G1 X119.468 Y82.507 E124.117
G1 X115.048 Y81.358 E124.344
G1 X115.645 Y77.852 E124.522
G1 X114.591 Y73.021 E124.769
G1 X114.154 Y72.768 E124.794
G1 X114.493 Y72.572 E124.813
G1 X114.348 Y71.908 E124.847
G1 X115.202 Y72.161 E124.892
G1 X125.328 Y66.304 E125.475
G1 X130.122 Y69.069 E125.751
G1 X132.554 Y67.668 E125.891
;rapid-leaky
G1 F236
G0 X132.154 Y68.36
;bead-skirt/brim
G1 X132.15 Y85.152 F780 E126.729
G1 X127.296 Y82.353 E127.009
G1 X125.379 Y83.048 E127.111
G1 X123.047 Y85.272 E127.271
G1 X119.668 Y82.147 E127.501
G1 X115.504 Y81.063 E127.716
G1 X116.052 Y77.843 E127.879
G1 X114.883 Y72.484 E128.152
G1 X115.254 Y72.594 E128.171
G1 X125.329 Y66.766 E128.752
G1 X130.022 Y69.473 E129.022
G1 Y69.588 E129.028
G1 X132.154 Y68.36 E129.151
;rapid-leaky
G1 F236
G0 X131.754 Y69.052
;bead-skirt/brim
G1 X131.75 Y84.46 F780 E129.92
G1 X127.335 Y81.913 E130.174
G1 X125.164 Y82.701 E130.289
G1 X123.043 Y84.724 E130.435
G1 X119.869 Y81.792 E130.651
G1 X115.96 Y80.768 E130.853
G1 X116.459 Y77.833 E131.001
G1 X115.418 Y73.06 E131.245
G1 X117.139 Y73.571 E131.334
G1 X115.751 Y72.768 E131.414
G1 X125.329 Y67.228 E131.966
G1 X129.622 Y69.704 E132.214
G1 Y70.28 E132.242
G1 X131.754 Y69.052 E132.365
;rapid-leaky
G1 F236
G0 X131.354 Y69.744
;bead-skirt/brim
G1 X131.35 Y83.767 F780 E133.065
G1 X127.373 Y81.474 E133.294
G1 X124.948 Y82.354 E133.422
G1 X123.039 Y84.175 E133.554
G1 X120.062 Y81.435 E133.756
G1 X119.875 Y81.373 E133.766
G1 X116.416 Y80.473 E133.944
G1 X116.867 Y77.824 E134.078
G1 X115.953 Y73.636 E134.292
G1 X119.931 Y74.816 E134.499
G1 X119.933 Y74.725 E134.504
G1 X116.55 Y72.768 E134.699
G1 X125.329 Y67.69 E135.205
G1 X129.222 Y69.935 E135.429
G1 Y70.972 E135.481
G1 X131.354 Y69.744 E135.603
;rapid-leaky
G1 F236
G0 X130.954 Y70.437
;bead-skirt/brim
G1 X130.951 Y83.075 F780 E136.234
G1 X127.412 Y81.034 E136.438
G1 X124.733 Y82.006 E136.58
G1 X123.035 Y83.626 E136.697
G1 X120.425 Y81.213 E136.874
G1 X120.256 Y81.078 E136.885
G1 X119.989 Y80.989 E136.899
G1 X116.872 Y80.179 E137.06
G1 X117.274 Y77.815 E137.179
G1 X116.488 Y74.212 E137.363
G1 X120.228 Y75.322 E137.558
G1 X120.286 Y75.328 E137.561
G1 X120.324 Y75.084 E137.573
G1 X120.334 Y74.703 E137.592
G1 X120.365 Y74.512 E137.602
G1 X117.349 Y72.768 E137.776
G1 X125.329 Y68.152 E138.236
G1 X128.822 Y70.166 E138.437
G1 Y71.665 E138.511
G1 X130.954 Y70.437 E138.634
;rapid-leaky
G1 F236
G0 X130.553 Y71.129
;bead-skirt/brim
G1 X130.551 Y82.383 F780 E139.196
G1 X126.744 Y80.187 E139.415
G1 X127.248 Y80.668 E139.45
G1 X124.518 Y81.659 E139.595
G1 X123.03 Y83.077 E139.697
G1 X120.686 Y80.909 E139.856
G1 X120.45 Y80.721 E139.871
G1 X120.102 Y80.605 E139.89
G1 X117.327 Y79.884 E140.033
G1 X117.682 Y77.805 E140.138
G1 X117.023 Y74.788 E140.292
G1 X120.149 Y75.715 E140.455
G1 X120.458 Y75.749 E140.47
G1 X120.628 Y75.726 E140.479
G1 X120.668 Y75.596 E140.486
G1 X120.675 Y75.435 E140.494
G1 X120.723 Y75.12 E140.509
G1 X120.733 Y74.74 E140.528
G1 X120.787 Y74.295 E140.551
G1 X118.148 Y72.768 E140.703
G1 X125.33 Y68.614 E141.117
G1 X128.422 Y70.397 E141.295
G1 Y72.357 E141.393
G1 X130.553 Y71.129 E141.515
;rapid-leaky
G1 F236
G0 X130.153 Y71.821
;bead-skirt/brim
G1 X130.151 Y81.69 F780 E142.008
G1 X125.682 Y79.113 E142.265
G1 X124.347 Y78.197 E142.346
G1 X124.458 Y78.45 E142.36
G1 X124.715 Y78.8 E142.381
G1 X126.505 Y80.512 E142.505
G1 X124.302 Y81.312 E142.622
G1 X123.026 Y82.529 E142.71
G1 X120.946 Y80.605 E142.851
G1 X120.665 Y80.371 E142.87
G1 X120.216 Y80.222 E142.893
G1 X117.783 Y79.589 E143.019
G1 X118.089 Y77.796 E143.109
G1 X117.558 Y75.364 E143.233
G1 X120.069 Y76.109 E143.364
G1 X120.463 Y76.152 E143.384
G1 X120.805 Y76.111 E143.401
G1 X120.925 Y76.054 E143.408
G1 X120.983 Y75.976 E143.413
G1 X121.065 Y75.668 E143.428
G1 X121.073 Y75.474 E143.438
G1 X121.122 Y75.156 E143.454
G1 X121.132 Y74.778 E143.473
G1 X121.17 Y74.547 E143.485
G1 X121.205 Y74.074 E143.508
G1 X118.947 Y72.768 E143.639
G1 X125.33 Y69.076 E144.006
G1 X128.022 Y70.628 E144.161
G1 Y73.049 E144.282
G1 X130.153 Y71.821 E144.405
;rapid-leaky
G1 F236
G0 X129.753 Y72.513
;bead-skirt/brim
G1 X129.751 Y80.998 F780 E144.828
G1 X125.895 Y78.774 E145.05
G1 X124.1 Y77.542 E145.159
G1 X123.922 Y77.957 E145.182
G1 X123.945 Y78.277 E145.197
G1 X124.109 Y78.65 E145.218
G1 X124.413 Y79.065 E145.243
G1 X125.763 Y80.356 E145.337
G1 X124.087 Y80.964 E145.426
G1 X123.022 Y81.98 E145.499
G1 X121.207 Y80.301 E145.622
G1 X120.975 Y80.117 E145.637
G1 X120.886 Y80.023 E145.644
G1 X120.33 Y79.838 E145.673
G1 X118.239 Y79.294 E145.781
G1 X118.496 Y77.787 E145.857
G1 X118.093 Y75.94 E145.951
G1 X119.99 Y76.503 E146.05
G1 X120.468 Y76.555 E146.074
G1 X120.908 Y76.505 E146.096
G1 X121.187 Y76.372 E146.111
G1 X121.355 Y76.146 E146.126
G1 X121.407 Y75.91 E146.138
G1 X121.462 Y75.74 E146.146
G1 X121.472 Y75.512 E146.158
G1 X121.521 Y75.191 E146.174
G1 X121.531 Y74.815 E146.193
G1 X121.567 Y74.594 E146.204
G1 X121.623 Y73.854 E146.241
G1 X119.746 Y72.768 E146.349
G1 X125.33 Y69.537 E146.671
G1 X127.622 Y70.859 E146.803
G1 Y73.741 E146.947
G1 X129.753 Y72.513 E147.07
;rapid-leaky
G1 F236
G0 X129.353 Y73.205
;bead-skirt/brim
G1 X129.351 Y80.305 F780 E147.424
G1 X126.109 Y78.435 E147.611
G1 X123.924 Y76.936 E147.743
G1 X123.516 Y77.889 E147.794
G1 X123.551 Y78.374 E147.819
G1 X123.761 Y78.851 E147.845
G1 X124.111 Y79.33 E147.874
G1 X125.021 Y80.2 E147.937
G1 X123.872 Y80.617 E147.998
G1 X123.018 Y81.431 E148.057
G1 X121.467 Y79.997 E148.162
G1 X121.245 Y79.821 E148.176
G1 X121.107 Y79.675 E148.186
G1 X120.444 Y79.454 E148.221
G1 X118.695 Y79 E148.311
G1 X118.904 Y77.777 E148.373
G1 X118.629 Y76.516 E148.438
G1 X119.911 Y76.897 E148.504
G1 X120.473 Y76.958 E148.533
G1 X121.011 Y76.899 E148.56
G1 X121.448 Y76.691 E148.584
G1 X121.728 Y76.315 E148.607
G1 X121.793 Y76.015 E148.623
G1 X121.86 Y75.812 E148.633
G1 X121.871 Y75.551 E148.646
G1 X121.921 Y75.227 E148.663
G1 X121.93 Y74.853 E148.681
G1 X121.965 Y74.641 E148.692
G1 X122.04 Y73.633 E148.742
G1 X120.545 Y72.768 E148.829
G1 X125.331 Y69.999 E149.104
G1 X127.222 Y71.09 E149.213
G1 Y74.446 E149.381
G1 X125.445 Y75.47 E149.483
G1 X126.429 Y76.275 E149.547
G1 X127.365 E149.593
G1 X127.366 Y74.35 E149.689
G1 X129.353 Y73.205 E149.804
;rapid-leaky
G1 F236
G0 X128.953 Y73.897
;bead-skirt/brim
G1 X128.951 Y79.613 F780 E150.089
G1 X126.322 Y78.097 E150.24
G1 X123.747 Y76.33 E150.396
G1 X123.11 Y77.821 E150.477
G1 X123.157 Y78.472 E150.509
G1 X123.412 Y79.052 E150.541
G1 X123.809 Y79.595 E150.575
G1 X124.279 Y80.043 E150.607
G1 X123.656 Y80.269 E150.64
G1 X123.014 Y80.882 E150.684
G1 X121.728 Y79.694 E150.772
G1 X121.516 Y79.525 E150.785
G1 X121.327 Y79.327 E150.799
G1 X120.557 Y79.07 E150.839
G1 X119.151 Y78.705 E150.912
G1 X119.311 Y77.768 E150.959
G1 X119.164 Y77.092 E150.994
G1 X119.831 Y77.29 E151.029
G1 X120.478 Y77.361 E151.061
G1 X120.849 Y77.311 E151.08
G1 X121.114 Y77.293 E151.093
G1 X121.71 Y77.009 E151.126
G1 X122.1 Y76.485 E151.158
G1 X122.18 Y76.12 E151.177
G1 X122.257 Y75.884 E151.189
G1 X122.27 Y75.59 E151.204
G1 X122.32 Y75.262 E151.221
G1 X122.329 Y74.89 E151.239
G1 X122.362 Y74.689 E151.249
G1 X122.458 Y73.413 E151.313
G1 X121.343 Y72.768 E151.378
G1 X125.331 Y70.461 E151.607
G1 X126.822 Y71.321 E151.693
G1 Y74.215 E151.838
G1 X124.743 Y75.413 E151.957
G1 X126.287 Y76.675 E152.057
G1 X127.765 E152.131
G1 X127.766 Y74.581 E152.235
G1 X128.953 Y73.897 E152.303
;rapid-leaky
G1 F236
G0 X126.965 Y75.056
;bead-skirt/brim
G1 X126.147 Y75.528 F780 E152.351
G1 X126.572 Y75.875 E152.378
G1 X126.965 E152.398
G1 Y75.056 E152.438
;rapid-leaky
G1 F236
G0 X110.513 Y103.796
;bead-skirt/brim
G1 X99.585 Y110.071 F780 E153.067
G1 X100.047 Y110.871 E153.113
G1 X106.371 Y107.249 E153.477
G1 X107.861 Y106.336 E153.564
G1 X109.353 Y105.371 E153.653
G1 X110.513 Y103.796 E153.75
;rapid-leaky
G1 F236
G0 X111.578 Y103.699
;bead-skirt/brim
G1 X113.003 Y104.749 F780 E153.838
G1 X113.784 Y104.244 E153.885
G1 X113.988 Y104.478 E153.9
G1 X114.431 Y104.188 E153.927
G1 X114.694 Y104.442 E153.945
G1 X115.082 Y104.206 E153.968
G1 X115.309 Y104.409 E153.983
G1 X115.557 Y104.257 E153.997
G1 X115.797 Y104.451 E154.013
G1 X115.955 Y104.354 E154.022
G1 X116.18 Y104.505 E154.035
G1 X116.262 Y104.45 E154.04
G1 X117.444 Y105.165 E154.109
G1 X120.487 Y106.489 E154.275
G1 X118.534 Y109.688 E154.462
G1 Y123.782 E155.165
G1 X120.472 Y127.031 E155.354
G1 X117.82 Y128.188 E155.498
G1 X116.238 Y129.106 E155.589
G1 X115.891 Y129.357 E155.611
G1 X115.76 Y129.263 E155.619
G1 X115.498 Y129.461 E155.635
G1 X115.331 Y129.342 E155.645
G1 X115.097 Y129.555 E155.661
G1 X114.787 Y129.34 E155.68
G1 X114.557 Y129.564 E155.696
G1 X114.169 Y129.298 E155.719
G1 X113.95 Y129.536 E155.736
G1 X113.338 Y129.121 E155.773
G1 X113.138 Y129.366 E155.788
G1 X112.636 Y129.033 E155.818
G1 X111.519 Y129.814 E155.886
G1 X110.062 Y127.727 E156.013
G1 X108.658 Y126.762 E156.098
G1 X107.668 Y126.114 E156.157
G1 X106.65 Y125.489 E156.217
G1 X99.823 Y121.583 E156.609
G1 X98.856 Y123.26 E156.706
G1 X94.845 Y120.965 E156.936
G1 X96 Y118.009 E157.095
G1 X96.131 Y117.534 E157.119
G1 X95.895 Y115.364 E157.228
G1 X94.41 Y112.791 E157.376
G1 X98.784 Y110.286 E157.628
G1 X99.753 Y111.961 E157.724
G1 X106.779 Y107.937 E158.128
G1 X108.287 Y107.013 E158.217
G1 X109.91 Y105.963 E158.313
G1 X111.578 Y103.699 E158.453
;rapid-leaky
G1 F236
G0 X111.663 Y104.259
;bead-skirt/brim
G1 X112.988 Y105.235 F780 E158.535
G1 X113.71 Y104.768 E158.578
G1 X113.915 Y105.004 E158.594
G1 X114.383 Y104.698 E158.622
G1 X114.638 Y104.943 E158.639
G1 X115.036 Y104.702 E158.663
G1 X115.263 Y104.905 E158.678
G1 X115.525 Y104.745 E158.693
G1 X115.766 Y104.94 E158.709
G1 X115.945 Y104.83 E158.719
G1 X116.179 Y104.987 E158.733
G1 X116.273 Y104.924 E158.739
G1 X117.26 Y105.521 E158.796
G1 X119.906 Y106.673 E158.94
G1 X118.134 Y109.576 E159.11
G1 X118.135 Y123.86 E159.823
G1 X118.157 Y123.93 E159.826
G1 X119.896 Y126.846 E159.996
G1 X117.639 Y127.83 E160.119
G1 X116.177 Y128.679 E160.203
G1 X116.161 Y128.668 E160.204
G1 X115.89 Y128.864 E160.221
G1 X115.754 Y128.767 E160.229
G1 X115.491 Y128.966 E160.246
G1 X115.3 Y128.83 E160.257
G1 X115.063 Y129.045 E160.273
G1 X114.744 Y128.824 E160.292
G1 X114.513 Y129.049 E160.309
G1 X114.109 Y128.772 E160.333
G1 X113.889 Y129.012 E160.349
G1 X113.258 Y128.584 E160.387
G1 X113.057 Y128.832 E160.403
G1 X112.631 Y128.549 E160.429
G1 X111.618 Y129.257 E160.49
G1 X110.348 Y127.438 E160.601
G1 X108.88 Y126.429 E160.69
G1 X107.882 Y125.776 E160.749
G1 X106.854 Y125.145 E160.81
G1 X99.808 Y121.114 E161.215
G1 X99.596 Y121.176 E161.226
G1 X98.709 Y122.714 E161.314
G1 X95.343 Y120.789 E161.508
G1 X96.378 Y118.142 E161.649
G1 X96.456 Y117.895 E161.662
G1 X96.535 Y117.553 E161.68
G1 X96.284 Y115.237 E161.796
G1 X94.957 Y112.939 E161.928
G1 X98.638 Y110.831 E162.14
G1 X99.607 Y112.506 E162.237
G1 X106.982 Y108.281 E162.661
G1 X108.501 Y107.352 E162.749
G1 X110.189 Y106.26 E162.85
G1 X111.663 Y104.259 E162.974
;rapid-leaky
G1 F236
G0 X111.748 Y104.818
;bead-skirt/brim
G1 X112.973 Y105.721 F780 E163.05
G1 X113.636 Y105.292 E163.089
G1 X113.842 Y105.53 E163.105
G1 X114.335 Y105.207 E163.134
G1 X114.582 Y105.445 E163.151
G1 X114.99 Y105.197 E163.175
G1 X115.218 Y105.401 E163.19
G1 X115.493 Y105.234 E163.206
G1 X115.734 Y105.429 E163.222
G1 X115.935 Y105.305 E163.234
G1 X116.179 Y105.469 E163.248
G1 X116.284 Y105.398 E163.255
G1 X117.076 Y105.877 E163.301
G1 X119.326 Y106.856 E163.423
G1 X117.758 Y109.424 E163.573
G1 X117.734 Y109.507 E163.578
G1 X117.738 Y123.931 E164.297
G1 X117.798 Y124.109 E164.307
G1 X119.32 Y126.661 E164.455
G1 X117.458 Y127.473 E164.556
G1 X116.201 Y128.203 E164.629
G1 X116.161 Y128.174 E164.631
G1 X115.889 Y128.371 E164.648
G1 X115.748 Y128.27 E164.657
G1 X115.483 Y128.47 E164.673
G1 X115.269 Y128.318 E164.686
G1 X115.03 Y128.535 E164.702
G1 X114.702 Y128.307 E164.722
G1 X114.469 Y128.534 E164.738
G1 X114.049 Y128.246 E164.764
G1 X113.828 Y128.487 E164.78
G1 X113.179 Y128.047 E164.819
G1 X112.975 Y128.298 E164.835
G1 X112.625 Y128.066 E164.856
G1 X111.717 Y128.7 E164.912
G1 X110.635 Y127.15 E165.006
G1 X109.103 Y126.097 E165.099
G1 X108.096 Y125.438 E165.159
G1 X107.058 Y124.801 E165.219
G1 X99.859 Y120.682 E165.633
G1 X99.33 Y120.837 E165.661
G1 X98.562 Y122.169 E165.737
G1 X95.841 Y120.613 E165.894
G1 X96.755 Y118.275 E166.019
G1 X96.841 Y118.002 E166.033
G1 X96.939 Y117.567 E166.056
G1 X96.673 Y115.11 E166.179
G1 X95.504 Y113.086 E166.295
G1 X98.491 Y111.376 E166.467
G1 X99.46 Y113.051 E166.564
G1 X107.186 Y108.625 E167.008
G1 X108.714 Y107.69 E167.097
G1 X110.467 Y106.556 E167.201
G1 X111.748 Y104.818 E167.309
;rapid-leaky
G1 F236
G0 X111.832 Y105.377
;bead-skirt/brim
G1 X112.958 Y106.207 F780 E167.379
G1 X113.562 Y105.817 E167.415
G1 X113.769 Y106.055 E167.431
G1 X114.287 Y105.717 E167.461
G1 X114.526 Y105.947 E167.478
G1 X114.944 Y105.693 E167.502
G1 X115.173 Y105.897 E167.518
G1 X115.46 Y105.722 E167.534
G1 X115.702 Y105.918 E167.55
G1 X115.926 Y105.781 E167.563
G1 X116.178 Y105.951 E167.578
G1 X116.295 Y105.872 E167.585
G1 X116.892 Y106.233 E167.62
G1 X118.745 Y107.04 E167.721
G1 X117.408 Y109.229 E167.849
G1 X117.344 Y109.358 E167.856
G1 X117.334 Y109.493 E167.863
G1 X117.34 Y123.977 E168.585
G1 X117.445 Y124.298 E168.602
G1 X118.744 Y126.476 E168.729
G1 X117.277 Y127.115 E168.809
G1 X116.224 Y127.727 E168.869
G1 X116.161 Y127.681 E168.873
G1 X115.888 Y127.878 E168.89
G1 X115.742 Y127.773 E168.899
G1 X115.475 Y127.974 E168.916
G1 X115.238 Y127.806 E168.93
G1 X114.996 Y128.025 E168.947
G1 X114.659 Y127.791 E168.967
G1 X114.425 Y128.019 E168.983
G1 X113.989 Y127.72 E169.01
G1 X113.766 Y127.962 E169.026
G1 X113.1 Y127.511 E169.066
G1 X112.894 Y127.764 E169.083
G1 X112.619 Y127.582 E169.099
G1 X111.816 Y128.143 E169.148
G1 X110.921 Y126.861 E169.226
G1 X109.326 Y125.765 E169.322
G1 X108.311 Y125.1 E169.383
G1 X107.262 Y124.456 E169.444
G1 X99.91 Y120.25 E169.867
G1 X99.064 Y120.498 E169.911
G1 X98.414 Y121.624 E169.976
G1 X96.339 Y120.437 E170.095
G1 X97.132 Y118.408 E170.204
G1 X97.227 Y118.109 E170.219
G1 X97.343 Y117.581 E170.246
G1 X97.087 Y115.222 E170.365
G1 X97.168 Y115.168 E170.37
G1 X96.051 Y113.234 E170.481
G1 X98.344 Y111.921 E170.613
G1 X99.313 Y113.596 E170.709
G1 X107.39 Y108.969 E171.174
G1 X108.927 Y108.029 E171.264
G1 X110.746 Y106.852 E171.372
G1 X111.832 Y105.377 E171.463
;rapid-leaky
G1 F236
G0 X111.917 Y105.937
;bead-skirt/brim
G1 X112.943 Y106.692 F780 E171.527
G1 X113.487 Y106.341 E171.559
G1 X113.697 Y106.581 E171.575
G1 X114.239 Y106.226 E171.607
G1 X114.47 Y106.448 E171.623
G1 X114.899 Y106.188 E171.648
G1 X115.128 Y106.394 E171.664
G1 X115.428 Y106.211 E171.681
G1 X115.671 Y106.407 E171.697
G1 X115.916 Y106.256 E171.711
G1 X116.178 Y106.433 E171.727
G1 X116.306 Y106.347 E171.735
G1 X116.708 Y106.589 E171.758
G1 X118.164 Y107.223 E171.837
G1 X117.058 Y109.035 E171.943
G1 X116.95 Y109.25 E171.955
G1 X116.934 Y109.479 E171.967
G1 Y123.867 E172.684
G1 X116.956 Y124.112 E172.697
G1 X117.039 Y124.375 E172.71
G1 X117.091 Y124.486 E172.717
G1 X118.168 Y126.291 E172.821
G1 X117.096 Y126.758 E172.88
G1 X116.247 Y127.25 E172.929
G1 X116.16 Y127.187 E172.934
G1 X115.888 Y127.385 E172.951
G1 X115.736 Y127.276 E172.96
G1 X115.468 Y127.479 E172.977
G1 X115.206 Y127.294 E172.993
G1 X114.963 Y127.515 E173.009
G1 X114.617 Y127.275 E173.03
G1 X114.381 Y127.504 E173.047
G1 X113.929 Y127.194 E173.074
G1 X113.705 Y127.438 E173.09
G1 X113.021 Y126.974 E173.132
G1 X112.813 Y127.23 E173.148
G1 X112.613 Y127.098 E173.16
G1 X111.915 Y127.586 E173.203
G1 X111.208 Y126.573 E173.264
G1 X109.549 Y125.433 E173.365
G1 X108.525 Y124.763 E173.426
G1 X107.466 Y124.112 E173.488
G1 X99.961 Y119.819 E173.919
G1 X98.797 Y120.16 E173.98
G1 X98.267 Y121.079 E174.033
G1 X96.838 Y120.261 E174.115
G1 X97.51 Y118.542 E174.207
G1 X97.613 Y118.216 E174.224
G1 X97.747 Y117.595 E174.256
G1 X97.511 Y115.42 E174.365
G1 X97.702 Y115.293 E174.376
G1 X96.599 Y113.381 E174.486
G1 X98.197 Y112.466 E174.578
G1 X99.166 Y114.141 E174.675
G1 X107.594 Y109.314 E175.159
G1 X109.14 Y108.367 E175.25
G1 X111.025 Y107.148 E175.362
G1 X111.917 Y105.937 E175.437
;rapid-leaky
G1 F236
G0 X112.002 Y106.496
;bead-skirt/brim
G1 X112.928 Y107.178 F780 E175.494
G1 X113.413 Y106.865 E175.523
G1 X113.624 Y107.107 E175.539
G1 X114.191 Y106.735 E175.573
G1 X114.414 Y106.95 E175.588
G1 X114.853 Y106.684 E175.614
G1 X115.083 Y106.89 E175.629
G1 X115.396 Y106.699 E175.648
G1 X115.639 Y106.896 E175.663
G1 X115.906 Y106.732 E175.679
G1 X116.177 Y106.915 E175.695
G1 X116.317 Y106.821 E175.704
G1 X116.523 Y106.945 E175.716
G1 X117.584 Y107.407 E175.773
G1 X116.708 Y108.84 E175.857
G1 X116.557 Y109.141 E175.874
G1 X116.534 Y109.464 E175.89
G1 Y123.877 E176.609
G1 X116.566 Y124.203 E176.625
G1 X116.665 Y124.521 E176.642
G1 X116.738 Y124.675 E176.65
G1 X117.591 Y126.105 E176.734
G1 X116.915 Y126.4 E176.77
G1 X116.271 Y126.774 E176.808
G1 X116.16 Y126.694 E176.814
G1 X115.887 Y126.891 E176.831
G1 X115.73 Y126.779 E176.841
G1 X115.46 Y126.983 E176.858
G1 X115.175 Y126.781 E176.875
G1 X114.929 Y127.005 E176.892
G1 X114.574 Y126.758 E176.913
G1 X114.337 Y126.989 E176.93
G1 X113.869 Y126.669 E176.958
G1 X113.644 Y126.913 E176.975
G1 X112.942 Y126.437 E177.017
G1 X112.731 Y126.696 E177.034
G1 X112.607 Y126.614 E177.041
G1 X112.014 Y127.029 E177.077
G1 X111.494 Y126.284 E177.122
G1 X109.772 Y125.101 E177.227
G1 X108.739 Y124.425 E177.288
G1 X107.67 Y123.768 E177.351
G1 X100.011 Y119.387 E177.791
G1 X98.531 Y119.821 E177.868
G1 X98.12 Y120.534 E177.909
G1 X97.336 Y120.085 E177.954
G1 X97.887 Y118.675 E178.03
G1 X97.998 Y118.324 E178.048
G1 X98.095 Y117.922 E178.069
G1 X98.151 Y117.609 E178.085
G1 X97.935 Y115.618 E178.184
G1 X98.236 Y115.417 E178.203
G1 X97.146 Y113.529 E178.311
G1 X98.05 Y113.011 E178.363
G1 X99.019 Y114.686 E178.46
G1 X107.798 Y109.658 E178.965
G1 X109.353 Y108.706 E179.056
G1 X111.303 Y107.444 E179.171
G1 X112.002 Y106.496 E179.23
;rapid-leaky
G1 F236
G0 X108.953 Y105.153
;bead-skirt/brim
G1 X100.132 Y110.218 F780 E179.738
G1 X100.194 Y110.325 E179.744
G1 X106.167 Y106.904 E180.087
G1 X107.648 Y105.997 E180.174
G1 X108.953 Y105.153 E180.251
;rapid-leaky
G1 F236
G0 X100.035 Y98.694
;bead-skirt/brim
G1 X97.817 Y99.969 F780 E180.379
G1 X98.074 Y100.413 E180.405
G1 X92.975 Y103.274 E180.696
G1 X91.64 Y100.961 E180.83
G1 X89.965 Y101.93 E180.926
G1 X86.972 Y96.746 E181.225
G1 X94.711 Y92.265 E181.671
G1 X100.035 Y98.694 E182.087
;rapid-leaky
G1 F236
G0 X99.424 Y98.583
;bead-skirt/brim
G1 X97.27 Y99.822 F780 E182.211
G1 X97.525 Y100.263 E182.237
G1 X93.124 Y102.732 E182.488
G1 X91.786 Y100.414 E182.622
G1 X90.111 Y101.383 E182.719
G1 X87.518 Y96.892 E182.977
G1 X94.619 Y92.78 E183.387
G1 X99.424 Y98.583 E183.763
;rapid-leaky
G1 F236
G0 X98.814 Y98.473
;bead-skirt/brim
G1 X96.724 Y99.675 F780 E183.883
G1 X96.976 Y100.112 E183.908
G1 X93.273 Y102.19 E184.12
G1 X91.932 Y99.867 E184.254
G1 X90.257 Y100.837 E184.35
G1 X88.064 Y97.038 E184.569
G1 X94.527 Y93.296 E184.942
G1 X98.814 Y98.473 E185.277
;rapid-leaky
G1 F236
G0 X98.203 Y98.363
;bead-skirt/brim
G1 X96.177 Y99.528 F780 E185.394
G1 X96.427 Y99.961 E185.418
G1 X93.422 Y101.648 E185.59
G1 X92.078 Y99.32 E185.724
G1 X90.404 Y100.29 E185.821
G1 X88.61 Y97.184 E186
G1 X94.434 Y93.812 E186.336
G1 X98.203 Y98.363 E186.63
;rapid-leaky
G1 F236
G0 X97.592 Y98.253
;bead-skirt/brim
G1 X95.63 Y99.381 F780 E186.743
G1 X95.878 Y99.811 E186.768
G1 X93.571 Y101.105 E186.9
G1 X92.224 Y98.773 E187.034
G1 X90.55 Y99.743 E187.131
G1 X89.157 Y97.33 E187.27
G1 X94.342 Y94.327 E187.569
G1 X97.592 Y98.253 E187.823
;rapid-leaky
G1 F236
G0 X96.982 Y98.142
;bead-skirt/brim
G1 X95.083 Y99.234 F780 E187.932
G1 X95.329 Y99.66 E187.957
G1 X93.72 Y100.563 E188.049
G1 X92.37 Y98.226 E188.184
G1 X90.696 Y99.196 E188.28
G1 X89.703 Y97.476 E188.379
G1 X94.25 Y94.843 E188.641
G1 X96.982 Y98.142 E188.855
;rapid-leaky
G1 F236
G0 X96.371 Y98.032
;bead-skirt/brim
G1 X94.537 Y99.087 F780 E188.961
G1 X94.78 Y99.509 E188.985
G1 X93.868 Y100.021 E189.037
G1 X92.517 Y97.68 E189.172
G1 X90.842 Y98.649 E189.269
G1 X90.249 Y97.622 E189.328
G1 X94.157 Y95.359 E189.553
G1 X96.371 Y98.032 E189.726
;rapid-leaky
G1 F236
G0 X80.648 Y101.43
;bead-skirt/brim
G1 X79.256 Y105.723 F780 E189.951
G1 X80.496 Y110.406 E190.193
G1 X72.18 Y113.212 E190.631
G1 X71.591 Y110.876 E190.751
G1 X68.462 Y112.171 E190.92
G1 X68.443 Y112.11 E190.923
G1 X68.398 Y112.136 E190.926
G1 X57.293 Y105.7 E191.566
G1 X63.409 Y102.156 E191.919
G1 X60.586 Y100.529 E192.081
G1 X71.239 Y94.359 E192.696
G1 X76.333 Y97.296 E192.989
G1 X76.335 Y99.631 E193.106
G1 X80.648 Y101.43 E193.339
;rapid-leaky
G1 F236
G0 X80.154 Y101.658
;bead-skirt/brim
G1 X78.841 Y105.718 F780 E193.552
G1 X80.013 Y110.147 E193.78
G1 X72.462 Y112.694 E194.178
G1 X71.866 Y110.33 E194.299
G1 X68.714 Y111.634 E194.47
G1 X68.677 Y111.513 E194.476
G1 X68.398 Y111.674 E194.492
G1 X58.091 Y105.7 E195.086
G1 X64.208 Y102.155 E195.439
G1 X61.385 Y100.528 E195.602
G1 X71.24 Y94.821 E196.17
G1 X75.934 Y97.527 E196.44
G1 X75.935 Y99.898 E196.558
G1 X80.154 Y101.658 E196.786
;rapid-leaky
G1 F236
G0 X79.66 Y101.885
;bead-skirt/brim
G1 X78.466 Y105.567 F780 E196.979
G1 X78.431 Y105.709 E196.987
G1 X79.531 Y109.888 E197.202
G1 X72.744 Y112.177 E197.56
G1 X72.14 Y109.783 E197.683
G1 X68.966 Y111.097 E197.854
G1 X68.91 Y110.917 E197.864
G1 X68.399 Y111.212 E197.893
G1 X58.889 Y105.7 E198.441
G1 X65.008 Y102.154 E198.794
G1 X62.185 Y100.527 E198.957
G1 X71.24 Y95.283 E199.479
G1 X75.534 Y97.759 E199.726
G1 X75.536 Y100.164 E199.846
G1 X79.66 Y101.885 E200.069
;rapid-leaky
G1 F236
G0 X79.166 Y102.112
;bead-skirt/brim
G1 X78.08 Y105.458 F780 E200.245
G1 X78.023 Y105.697 E200.257
G1 X78.054 Y105.874 E200.266
G1 X79.049 Y109.628 E200.46
G1 X73.026 Y111.66 E200.777
G1 X72.415 Y109.236 E200.901
G1 X69.218 Y110.559 E201.074
G1 X69.143 Y110.321 E201.086
G1 X68.399 Y110.75 E201.129
G1 X59.687 Y105.7 E201.632
G1 X65.807 Y102.153 E201.985
G1 X62.985 Y100.526 E202.147
G1 X71.241 Y95.745 E202.623
G1 X75.134 Y97.99 E202.847
G1 X75.136 Y100.431 E202.969
G1 X79.166 Y102.112 E203.187
;rapid-leaky
G1 F236
G0 X78.672 Y102.339
;bead-skirt/brim
G1 X77.695 Y105.349 F780 E203.345
G1 X77.612 Y105.693 E203.362
G1 X77.663 Y105.96 E203.376
G1 X78.566 Y109.369 E203.552
G1 X73.308 Y111.143 E203.829
G1 X72.71 Y108.77 E203.951
G1 X72.675 Y108.694 E203.955
G1 X69.469 Y110.022 E204.128
G1 X69.377 Y109.725 E204.144
G1 X68.4 Y110.288 E204.2
G1 X60.484 Y105.7 E204.656
G1 X66.607 Y102.152 E205.009
G1 X63.784 Y100.526 E205.172
G1 X71.241 Y96.207 E205.602
G1 X74.734 Y98.221 E205.803
G1 X74.736 Y100.698 E205.927
G1 X78.672 Y102.339 E206.139
;rapid-leaky
G1 F236
G0 X78.177 Y102.567
;bead-skirt/brim
G1 X77.31 Y105.24 F780 E206.279
G1 X77.192 Y105.709 E206.304
G1 X77.231 Y105.815 E206.309
G1 X77.273 Y106.047 E206.321
G1 X78.084 Y109.109 E206.479
G1 X73.59 Y110.625 E206.716
G1 X73.088 Y108.636 E206.818
G1 X72.957 Y108.351 E206.834
G1 X72.855 Y108.216 E206.842
G1 X72.679 Y108.257 E206.851
G1 X72.248 Y108.427 E206.874
G1 X72.146 Y108.482 E206.88
G1 X69.721 Y109.485 E207.011
G1 X69.61 Y109.129 E207.03
G1 X68.401 Y109.826 E207.099
G1 X61.282 Y105.7 E207.51
G1 X67.406 Y102.151 E207.863
G1 X64.584 Y100.525 E208.025
G1 X71.241 Y96.669 E208.409
G1 X74.334 Y98.452 E208.587
G1 X74.336 Y100.964 E208.713
G1 X78.177 Y102.567 E208.92
;rapid-leaky
G1 F236
G0 X77.683 Y102.794
;bead-skirt/brim
G1 X76.925 Y105.132 F780 E209.043
G1 X76.825 Y105.545 E209.064
G1 X76.768 Y105.715 E209.073
G1 X76.844 Y105.921 E209.084
G1 X76.882 Y106.133 E209.095
G1 X77.601 Y108.85 E209.235
G1 X73.872 Y110.108 E209.431
G1 X73.467 Y108.502 E209.514
G1 X73.302 Y108.144 E209.534
G1 X73.124 Y107.909 E209.548
G1 X72.994 Y107.828 E209.556
G1 X72.847 Y107.808 E209.563
G1 X72.555 Y107.875 E209.578
G1 X72.237 Y108.011 E209.596
G1 X72.092 Y108.057 E209.603
G1 X71.974 Y108.12 E209.61
G1 X69.973 Y108.948 E209.718
G1 X69.844 Y108.533 E209.74
G1 X68.401 Y109.364 E209.823
G1 X62.08 Y105.7 E210.187
G1 X68.206 Y102.149 E210.54
G1 X65.384 Y100.524 E210.703
G1 X71.242 Y97.131 E211.041
G1 X73.934 Y98.683 E211.196
G1 X73.936 Y101.231 E211.323
G1 X77.683 Y102.794 E211.525
;rapid-leaky
G1 F236
G0 X77.189 Y103.021
;bead-skirt/brim
G1 X76.54 Y105.023 F780 E211.63
G1 X76.44 Y105.434 E211.651
G1 X76.343 Y105.722 E211.667
G1 X76.456 Y106.027 E211.683
G1 X76.491 Y106.22 E211.693
G1 X77.119 Y108.591 E211.815
G1 X74.154 Y109.591 E211.971
G1 X73.846 Y108.368 E212.034
G1 X73.647 Y107.937 E212.058
G1 X73.398 Y107.609 E212.078
G1 X73.134 Y107.443 E212.094
G1 X72.829 Y107.402 E212.109
G1 X72.43 Y107.493 E212.129
G1 X72.098 Y107.635 E212.147
G1 X71.935 Y107.687 E212.156
G1 X71.802 Y107.758 E212.163
G1 X70.225 Y108.411 E212.249
G1 X70.077 Y107.936 E212.273
G1 X68.402 Y108.902 E212.37
G1 X62.877 Y105.7 E212.689
G1 X68.402 Y102.498 E213.007
G1 X70.26 Y103.569 E213.114
G1 X70.397 Y103.017 E213.142
G1 X70.583 Y103.106 E213.153
G1 X70.747 Y101.329 E213.242
G1 X70.351 E213.261
G1 X68.97 Y102.128 E213.341
G1 X66.184 Y100.523 E213.502
G1 X71.242 Y97.593 E213.793
G1 X73.535 Y98.915 E213.925
G1 X73.537 Y102.109 E214.085
G1 X71.268 Y103.435 E214.216
G1 X71.908 Y103.743 E214.251
G1 X72.204 Y103.844 E214.267
G1 X72.425 Y103.944 E214.279
G1 X72.837 Y104.038 E214.3
G1 X73.133 Y103.998 E214.315
G1 X73.406 Y103.826 E214.331
G1 X73.642 Y103.518 E214.35
G1 X73.845 Y103.068 E214.375
G1 X74.173 Y101.763 E214.442
G1 X77.189 Y103.021 E214.605
;rapid-leaky
G1 F236
G0 X76.695 Y103.248
;bead-skirt/brim
G1 X76.154 Y104.914 F780 E214.692
G1 X76.056 Y105.323 E214.713
G1 X75.919 Y105.728 E214.735
G1 X76.069 Y106.132 E214.756
G1 X76.1 Y106.306 E214.765
G1 X76.636 Y108.331 E214.87
G1 X74.436 Y109.073 E214.985
G1 X74.225 Y108.234 E215.029
G1 X73.992 Y107.73 E215.056
G1 X73.673 Y107.309 E215.083
G1 X73.274 Y107.059 E215.106
G1 X72.811 Y106.995 E215.129
G1 X72.306 Y107.111 E215.155
G1 X71.959 Y107.26 E215.174
G1 X71.779 Y107.317 E215.184
G1 X71.63 Y107.397 E215.192
G1 X70.477 Y107.874 E215.254
G1 X70.311 Y107.34 E215.282
G1 X68.402 Y108.44 E215.392
G1 X63.675 Y105.7 E215.665
G1 X68.402 Y102.96 E215.937
G1 X70.52 Y104.18 E216.059
G1 X70.667 Y103.59 E216.089
G1 X71.757 Y104.114 E216.15
G1 X72.057 Y104.216 E216.166
G1 X72.307 Y104.329 E216.179
G1 X72.51 Y104.364 E216.19
G1 X72.811 Y104.445 E216.205
G1 X73.273 Y104.382 E216.228
G1 X73.68 Y104.126 E216.252
G1 X73.987 Y103.725 E216.278
G1 X74.225 Y103.2 E216.306
G1 X74.448 Y102.311 E216.352
G1 X76.695 Y103.248 E216.474
;rapid-leaky
G1 F236
G0 X76.2 Y103.476
;bead-skirt/brim
G1 X75.769 Y104.805 F780 E216.543
G1 X75.671 Y105.212 E216.564
G1 X75.494 Y105.735 E216.592
G1 X75.681 Y106.238 E216.618
G1 X75.709 Y106.393 E216.626
G1 X76.154 Y108.072 E216.713
G1 X74.718 Y108.556 E216.789
G1 X74.603 Y108.1 E216.812
G1 X74.337 Y107.523 E216.844
G1 X73.947 Y107.009 E216.876
G1 X73.413 Y106.674 E216.907
G1 X72.793 Y106.589 E216.939
G1 X72.182 Y106.729 E216.97
G1 X71.82 Y106.884 E216.989
G1 X71.622 Y106.946 E217
G1 X71.458 Y107.035 E217.009
G1 X70.729 Y107.337 E217.049
G1 X70.544 Y106.744 E217.079
G1 X68.403 Y107.978 E217.203
G1 X64.473 Y105.7 E217.429
G1 X68.403 Y103.422 E217.656
G1 X70.78 Y104.792 E217.793
G1 X70.936 Y104.164 E217.825
G1 X71.606 Y104.485 E217.862
G1 X71.909 Y104.589 E217.878
G1 X72.188 Y104.715 E217.894
G1 X72.424 Y104.755 E217.905
G1 X72.785 Y104.852 E217.924
G1 X73.412 Y104.767 E217.956
G1 X73.954 Y104.426 E217.988
G1 X74.333 Y103.932 E218.019
G1 X74.604 Y103.332 E218.052
G1 X74.723 Y102.859 E218.076
G1 X76.2 Y103.476 E218.156
;rapid-leaky
G1 F236
G0 X73.466 Y102.936
;bead-skirt/brim
G1 X73.561 Y102.559 F780 E218.175
G1 X72.128 Y103.396 E218.258
G1 X72.351 Y103.471 E218.27
G1 X72.543 Y103.558 E218.28
G1 X72.863 Y103.63 E218.297
G1 X72.993 Y103.613 E218.303
G1 X73.132 Y103.525 E218.311
G1 X73.296 Y103.311 E218.325
G1 X73.466 Y102.936 E218.345
;rapid-leaky
G1 F236
G0 X73.137 Y101.88
;bead-skirt/brim
G1 X70.981 Y103.139 F780 E218.47
G1 X71.185 Y100.929 E218.581
G1 X70.243 E218.628
G1 X68.97 Y101.666 E218.701
G1 X66.983 Y100.522 E218.815
G1 X71.243 Y98.055 E219.061
G1 X73.135 Y99.146 E219.17
G1 X73.137 Y101.88 E219.306
;rapid-leaky
G1 F236
G0 X72.737 Y101.65
;bead-skirt/brim
G1 X71.451 Y102.402 F780 E219.381
G1 X71.624 Y100.529 E219.474
G1 X70.136 E219.549
G1 X68.969 Y101.205 E219.616
G1 X67.783 Y100.521 E219.684
G1 X71.243 Y98.517 E219.884
G1 X72.735 Y99.377 E219.97
G1 X72.737 Y101.65 E220.083
;rapid-leaky
G1 F236
G0 X70.299 Y101.821
;bead-skirt/brim
G1 X69.166 Y102.477 F780 E220.148
G1 X70 Y102.957 E220.196
G1 X70.128 Y102.443 E220.223
G1 X70.237 Y102.496 E220.229
G1 X70.299 Y101.821 E220.263
;rapid-leaky
G1 F236
G0 X72.212 Y120.253
;bead-skirt/brim
G1 X80.628 Y123.548 F780 E220.714
G1 X79.257 Y127.952 E220.944
G1 X80.542 Y132.493 E221.179
G1 X75.907 Y134.191 E221.425
G1 X75.895 Y141.519 E221.791
G1 X60.163 Y132.408 E222.698
G1 X60.727 Y132.083 E222.73
G1 X59.594 Y131.426 E222.796
G1 X61.429 Y130.368 E222.902
G1 X57.294 Y127.972 E223.14
G1 X68.387 Y121.541 E223.78
G1 X68.4 Y121.498 E223.782
G1 X71.583 Y122.796 E223.953
G1 X72.212 Y120.253 E224.084
;rapid-leaky
G1 F236
G0 X72.491 Y120.792
;bead-skirt/brim
G1 X80.135 Y123.784 F780 E224.494
G1 X78.84 Y127.947 E224.711
G1 X80.057 Y132.245 E224.934
G1 X75.507 Y133.911 E225.176
G1 X75.496 Y140.825 E225.521
G1 X60.962 Y132.408 E226.359
G1 X61.526 Y132.083 E226.391
G1 X60.393 Y131.427 E226.456
G1 X62.229 Y130.369 E226.562
G1 X58.092 Y127.972 E226.801
G1 X68.398 Y121.997 E227.395
G1 X68.63 Y122.13 E227.408
G1 X68.658 Y122.035 E227.413
G1 X71.861 Y123.341 E227.586
G1 X72.491 Y120.792 E227.717
;rapid-leaky
G1 F236
G0 X72.77 Y121.33
;bead-skirt/brim
G1 X79.642 Y124.021 F780 E228.085
G1 X78.43 Y127.945 E228.29
G1 X79.571 Y131.997 E228.5
G1 X75.108 Y133.632 E228.737
G1 X75.097 Y140.132 E229.061
G1 X61.762 Y132.409 E229.83
G1 X62.326 Y132.084 E229.863
G1 X61.193 Y131.428 E229.928
G1 X63.028 Y130.37 E230.034
G1 X58.889 Y127.971 E230.272
G1 X68.399 Y122.459 E230.821
G1 X68.87 Y122.73 E230.848
G1 X68.917 Y122.572 E230.856
G1 X72.138 Y123.886 E231.03
G1 X72.77 Y121.33 E231.161
;rapid-leaky
G1 F236
G0 X73.049 Y121.869
;bead-skirt/brim
G1 X79.15 Y124.258 F780 E231.488
G1 X78.066 Y127.741 E231.67
G1 X78.022 Y127.943 E231.68
G1 X78.06 Y128.13 E231.69
G1 X79.085 Y131.749 E231.877
G1 X74.708 Y133.352 E232.11
G1 X74.698 Y139.439 E232.413
G1 X62.561 Y132.41 E233.113
G1 X63.125 Y132.085 E233.146
G1 X61.992 Y131.429 E233.211
G1 X63.827 Y130.371 E233.317
G1 X59.687 Y127.971 E233.555
G1 X68.399 Y122.921 E234.058
G1 X69.11 Y123.33 E234.099
G1 X69.175 Y123.11 E234.11
G1 X72.414 Y124.434 E234.285
G1 X73.049 Y121.869 E234.417
;rapid-leaky
G1 F236
G0 X73.328 Y122.408
;bead-skirt/brim
G1 X78.657 Y124.494 F780 E234.702
G1 X77.679 Y127.638 E234.866
G1 X77.613 Y127.94 E234.882
G1 X77.671 Y128.225 E234.896
G1 X78.599 Y131.501 E235.066
G1 X74.308 Y133.073 E235.294
G1 X74.299 Y138.746 E235.577
G1 X63.361 Y132.411 E236.208
G1 X63.925 Y132.085 E236.24
G1 X62.792 Y131.429 E236.306
G1 X64.627 Y130.372 E236.411
G1 X60.485 Y127.971 E236.65
G1 X68.4 Y123.383 E237.107
G1 X69.35 Y123.93 E237.161
G1 X69.434 Y123.647 E237.176
G1 X72.207 Y124.778 E237.326
G1 X72.409 Y124.877 E237.337
G1 X72.68 Y124.977 E237.351
G1 X72.707 Y124.917 E237.354
G1 X73.328 Y122.408 E237.483
;rapid-leaky
G1 F236
G0 X73.606 Y122.946
;bead-skirt/brim
G1 X78.165 Y124.731 F780 E237.728
G1 X77.292 Y127.536 E237.874
G1 X77.202 Y127.943 E237.895
G1 X77.282 Y128.32 E237.914
G1 X78.113 Y131.253 E238.066
G1 X73.909 Y132.793 E238.29
G1 X73.901 Y138.052 E238.552
G1 X64.16 Y132.411 E239.114
G1 X64.724 Y132.086 E239.146
G1 X63.592 Y131.43 E239.211
G1 X65.426 Y130.373 E239.317
G1 X61.282 Y127.971 E239.556
G1 X68.4 Y123.845 E239.966
G1 X69.59 Y124.53 E240.035
G1 X69.692 Y124.185 E240.053
G1 X72.043 Y125.143 E240.18
G1 X72.251 Y125.245 E240.191
G1 X72.686 Y125.413 E240.214
G1 X72.866 Y125.447 E240.223
G1 X72.959 Y125.326 E240.231
G1 X73.086 Y125.05 E240.246
G1 X73.606 Y122.946 E240.354
;rapid-leaky
G1 F236
G0 X73.885 Y123.485
;bead-skirt/brim
G1 X77.672 Y124.968 F780 E240.557
G1 X76.905 Y127.433 E240.686
G1 X76.808 Y127.876 E240.709
G1 X76.774 Y127.952 E240.713
G1 X76.823 Y128.073 E240.719
G1 X76.893 Y128.414 E240.737
G1 X77.627 Y131.005 E240.871
G1 X73.881 Y132.377 E241.07
G1 X73.512 Y130.904 E241.146
G1 X73.502 Y137.359 E241.468
G1 X64.96 Y132.412 E241.96
G1 X65.524 Y132.087 E241.993
G1 X64.391 Y131.431 E242.058
G1 X66.225 Y130.374 E242.164
G1 X62.08 Y127.971 E242.403
G1 X68.401 Y124.307 E242.767
G1 X69.83 Y125.13 E242.85
G1 X69.951 Y124.722 E242.871
G1 X72.56 Y125.796 E243.012
G1 X72.878 Y125.861 E243.028
G1 X72.992 Y125.847 E243.034
G1 X73.135 Y125.754 E243.042
G1 X73.304 Y125.534 E243.056
G1 X73.465 Y125.183 E243.075
G1 X73.885 Y123.485 E243.162
;rapid-leaky
G1 F236
G0 X74.164 Y124.024
;bead-skirt/brim
G1 X77.179 Y125.204 F780 E243.324
G1 X76.518 Y127.331 E243.435
G1 X76.425 Y127.752 E243.457
G1 X76.34 Y127.947 E243.467
G1 X76.439 Y128.19 E243.48
G1 X76.504 Y128.509 E243.497
G1 X77.141 Y130.757 E243.613
G1 X74.161 Y131.849 E243.771
G1 X73.847 Y130.595 E243.836
G1 X73.648 Y130.165 E243.86
G1 X73.397 Y129.847 E243.88
G1 X73.134 Y129.672 E243.896
G1 X72.831 Y129.64 E243.911
G1 X72.457 Y129.72 E243.93
G1 X72.503 Y130.468 E243.967
G1 X73.112 Y130.823 E244.002
G1 X73.103 Y136.666 E244.294
G1 X65.759 Y132.413 E244.717
G1 X66.323 Y132.088 E244.75
G1 X65.191 Y131.432 E244.815
G1 X67.024 Y130.375 E244.921
G1 X62.878 Y127.971 E245.16
G1 X68.402 Y124.769 E245.478
G1 X70.07 Y125.73 E245.574
G1 X70.209 Y125.259 E245.599
G1 X72.433 Y126.179 E245.719
G1 X72.843 Y126.269 E245.74
G1 X73.132 Y126.233 E245.754
G1 X73.41 Y126.052 E245.771
G1 X73.648 Y125.742 E245.79
G1 X73.845 Y125.315 E245.814
G1 X74.164 Y124.024 E245.88
;rapid-leaky
G1 F236
G0 X74.443 Y124.563
;bead-skirt/brim
G1 X76.687 Y125.441 F780 E246.001
G1 X76.131 Y127.228 E246.094
G1 X76.043 Y127.627 E246.114
G1 X75.906 Y127.941 E246.131
G1 X76.055 Y128.307 E246.151
G1 X76.116 Y128.604 E246.166
G1 X76.655 Y130.509 E246.265
G1 X74.441 Y131.32 E246.383
G1 X74.226 Y130.462 E246.427
G1 X73.992 Y129.954 E246.455
G1 X73.672 Y129.549 E246.48
G1 X73.274 Y129.284 E246.504
G1 X72.81 Y129.236 E246.528
G1 X72.037 Y129.401 E246.567
G1 X72.117 Y130.707 E246.632
G1 X72.712 Y131.053 E246.667
G1 X72.704 Y135.973 E246.912
G1 X66.559 Y132.414 E247.266
G1 X67.123 Y132.088 E247.299
G1 X65.99 Y131.432 E247.364
G1 X67.824 Y130.376 E247.47
G1 X63.675 Y127.971 E247.709
G1 X68.402 Y125.231 E247.982
G1 X70.31 Y126.33 E248.091
G1 X70.468 Y125.797 E248.119
G1 X71.552 Y126.239 E248.178
G1 X71.779 Y126.35 E248.19
G1 X72.152 Y126.487 E248.21
G1 X72.307 Y126.562 E248.219
G1 X72.647 Y126.627 E248.236
G1 X72.808 Y126.676 E248.244
G1 X73.273 Y126.618 E248.268
G1 X73.685 Y126.351 E248.292
G1 X73.993 Y125.95 E248.317
G1 X74.224 Y125.448 E248.345
G1 X74.443 Y124.563 E248.39
;rapid-leaky
G1 F236
G0 X74.722 Y125.101
;bead-skirt/brim
G1 X76.194 Y125.678 F780 E248.469
G1 X75.744 Y127.126 E248.545
G1 X75.661 Y127.503 E248.564
G1 X75.471 Y127.935 E248.588
G1 X75.67 Y128.423 E248.614
G1 X75.727 Y128.699 E248.628
G1 X76.169 Y130.261 E248.709
G1 X74.721 Y130.792 E248.786
G1 X74.605 Y130.328 E248.81
G1 X74.335 Y129.744 E248.842
G1 X73.946 Y129.252 E248.873
G1 X73.414 Y128.897 E248.905
G1 X72.788 Y128.831 E248.937
G1 X71.616 Y129.082 E248.996
G1 X71.731 Y130.945 E249.09
G1 X72.311 Y131.282 E249.123
G1 X72.305 Y135.279 E249.322
G1 X67.358 Y132.414 E249.608
G1 X67.922 Y132.089 E249.64
G1 X66.79 Y131.433 E249.705
G1 X68.623 Y130.376 E249.811
G1 X64.473 Y127.971 E250.05
G1 X68.403 Y125.693 E250.277
G1 X70.55 Y126.93 E250.401
G1 X70.726 Y126.334 E250.432
G1 X71.388 Y126.604 E250.467
G1 X71.621 Y126.719 E250.48
G1 X71.995 Y126.856 E250.5
G1 X72.18 Y126.945 E250.51
G1 X72.552 Y127.016 E250.529
G1 X72.773 Y127.083 E250.541
G1 X73.414 Y127.004 E250.573
G1 X73.961 Y126.649 E250.606
G1 X74.338 Y126.158 E250.636
G1 X74.603 Y125.581 E250.668
G1 X74.722 Y125.101 E250.693
;rapid-leaky
G1 F236
G0 X72.994 Y130.059
;bead-skirt/brim
G1 X72.878 Y130.047 F780 E250.699
G1 X72.889 Y130.23 E250.708
G1 X73.366 Y130.508 E250.735
G1 X73.305 Y130.376 E250.743
G1 X73.123 Y130.145 E250.757
G1 X72.994 Y130.059 E250.765
;rapid-leaky
G1 F236
G0 X86.971 Y136.925
;bead-skirt/brim
G1 X89.964 Y131.741 F780 E251.064
G1 X91.639 Y132.71 E251.16
G1 X92.992 Y130.368 E251.295
G1 X98.041 Y133.313 E251.587
G1 X97.817 Y133.701 E251.609
G1 X100.033 Y134.975 E251.736
G1 X94.712 Y141.405 E252.153
G1 X86.971 Y136.925 E252.599
;rapid-leaky
G1 F236
G0 X87.517 Y136.779
;bead-skirt/brim
G1 X90.111 Y132.288 F780 E252.858
G1 X91.785 Y133.257 E252.954
G1 X93.137 Y130.916 E253.089
G1 X97.495 Y133.458 E253.341
G1 X97.27 Y133.848 E253.363
G1 X99.422 Y135.086 E253.487
G1 X94.62 Y140.889 E253.863
G1 X87.517 Y136.779 E254.272
;rapid-leaky
G1 F236
G0 X88.064 Y136.633
;bead-skirt/brim
G1 X90.257 Y132.834 F780 E254.491
G1 X91.932 Y133.804 E254.588
G1 X93.283 Y131.464 E254.723
G1 X96.95 Y133.603 E254.934
G1 X96.724 Y133.995 E254.957
G1 X98.812 Y135.196 E255.077
G1 X94.527 Y140.374 E255.412
G1 X88.064 Y136.633 E255.785
;rapid-leaky
G1 F236
G0 X88.61 Y136.487
;bead-skirt/brim
G1 X90.403 Y133.381 F780 E255.964
G1 X92.078 Y134.35 E256.061
G1 X93.428 Y132.012 E256.195
G1 X96.404 Y133.748 E256.367
G1 X96.177 Y134.142 E256.39
G1 X98.201 Y135.306 E256.506
G1 X94.435 Y139.858 E256.801
G1 X88.61 Y136.487 E257.137
;rapid-leaky
G1 F236
G0 X89.156 Y136.341
;bead-skirt/brim
G1 X90.549 Y133.928 F780 E257.276
G1 X92.224 Y134.897 E257.372
G1 X93.574 Y132.56 E257.507
G1 X95.859 Y133.893 E257.639
G1 X95.63 Y134.289 E257.662
G1 X97.591 Y135.416 E257.775
G1 X94.342 Y139.342 E258.029
G1 X89.156 Y136.341 E258.328
;rapid-leaky
G1 F236
G0 X89.702 Y136.195
;bead-skirt/brim
G1 X90.695 Y134.475 F780 E258.427
G1 X92.37 Y135.444 E258.524
G1 X93.719 Y133.108 E258.658
G1 X95.313 Y134.038 E258.75
G1 X95.083 Y134.436 E258.773
G1 X96.98 Y135.527 E258.882
G1 X94.25 Y138.827 E259.096
G1 X89.702 Y136.195 E259.358
;rapid-leaky
G1 F236
G0 X90.249 Y136.049
;bead-skirt/brim
G1 X90.842 Y135.021 F780 E259.417
G1 X92.516 Y135.991 E259.514
G1 X93.865 Y133.656 E259.648
G1 X94.768 Y134.182 E259.701
G1 X94.537 Y134.583 E259.724
G1 X96.37 Y135.637 E259.829
G1 X94.157 Y138.311 E260.002
G1 X90.249 Y136.049 E260.228
;rapid-leaky
G1 F236
G0 X90.235 Y128.079
;bead-skirt/brim
G1 X94.118 Y121.383 F780 E260.614
G1 X112.576 Y131.982 E261.676
G1 X111.791 Y133.345 E261.754
G1 X115.884 Y135.696 E261.99
G1 X113.461 Y139.872 E262.231
G1 X109.387 Y137.514 E262.465
G1 X108.672 Y138.754 E262.537
G1 X90.235 Y128.079 E263.6
;rapid-leaky
G1 F236
G0 X90.782 Y127.934
;bead-skirt/brim
G1 X94.265 Y121.928 F780 E263.946
G1 X112.03 Y132.13 E264.968
G1 X111.244 Y133.492 E265.047
G1 X115.337 Y135.843 E265.282
G1 X113.315 Y139.326 E265.483
G1 X109.241 Y136.967 E265.718
G1 X108.526 Y138.207 E265.789
G1 X90.782 Y127.934 E266.812
;rapid-leaky
G1 F236
G0 X91.328 Y127.788
;bead-skirt/brim
G1 X94.411 Y122.473 F780 E267.119
G1 X111.483 Y132.277 E268.101
G1 X110.697 Y133.64 E268.179
G1 X114.789 Y135.989 E268.415
G1 X113.17 Y138.779 E268.576
G1 X109.094 Y136.42 E268.811
G1 X108.379 Y137.66 E268.882
G1 X91.328 Y127.788 E269.865
;rapid-leaky
G1 F236
G0 X91.875 Y127.643
;bead-skirt/brim
G1 X94.557 Y123.019 F780 E270.132
G1 X110.936 Y132.424 E271.074
G1 X110.15 Y133.787 E271.153
G1 X114.241 Y136.136 E271.388
G1 X113.025 Y138.233 E271.509
G1 X108.948 Y135.873 E271.744
G1 X108.233 Y137.113 E271.815
G1 X91.875 Y127.643 E272.758
;rapid-leaky
G1 F236
G0 X92.422 Y127.497
;bead-skirt/brim
G1 X94.703 Y123.564 F780 E272.985
G1 X110.39 Y132.572 E273.888
G1 X109.604 Y133.935 E273.966
G1 X113.694 Y136.283 E274.201
G1 X112.879 Y137.687 E274.282
G1 X108.802 Y135.326 E274.517
G1 X108.087 Y136.566 E274.589
G1 X92.422 Y127.497 E275.492
;rapid-leaky
G1 F236
G0 X92.969 Y127.351
;bead-skirt/brim
G1 X94.849 Y124.109 F780 E275.679
G1 X109.843 Y132.719 E276.541
G1 X109.179 Y133.87 E276.608
G1 X107.501 Y132.906 E276.704
G1 X107.379 Y133.118 E276.716
G1 X113.146 Y136.43 E277.048
G1 X112.734 Y137.14 E277.089
G1 X107.338 Y134.016 E277.4
G1 Y133.189 E277.441
G1 X106.858 Y134.022 E277.489
G1 X108.533 Y134.991 E277.586
G1 X107.94 Y136.019 E277.645
G1 X92.969 Y127.351 E278.508
;rapid-leaky
G1 F236
G0 X99.584 Y123.599
;bead-skirt/brim
G1 X110.635 Y129.945 F780 E279.144
G1 X109.489 Y128.304 E279.244
G1 X108.212 Y127.426 E279.321
G1 X107.24 Y126.79 E279.379
G1 X106.242 Y126.177 E279.438
G1 X100.118 Y122.674 E279.79
G1 X99.584 Y123.599 E279.843
;rapid-leaky
G1 F236
G0 X100.131 Y123.452
;bead-skirt/brim
G1 X109.283 Y128.707 F780 E280.369
G1 X109.203 Y128.592 E280.376
G1 X107.989 Y127.758 E280.45
G1 X107.025 Y127.127 E280.507
G1 X106.038 Y126.521 E280.565
G1 X100.265 Y123.219 E280.897
G1 X100.131 Y123.452 E280.91
;rapid-leaky
G1 F236
G0 X105.46 Y137.668
;bead-skirt/brim
G1 X110.511 Y140.585 F780 E281.201
G1 X109.196 Y142.875 E281.333
G1 X110.876 Y143.848 E281.43
G1 X107.883 Y149.033 E281.729
G1 X100.154 Y144.556 E282.174
G1 X103.06 Y136.701 E282.592
G1 X105.281 Y137.979 E282.72
G1 X105.46 Y137.668 E282.738
;rapid-leaky
G1 F236
G0 X105.606 Y138.215
;bead-skirt/brim
G1 X109.965 Y140.732 F780 E282.989
G1 X108.651 Y143.022 E283.121
G1 X110.33 Y143.994 E283.217
G1 X107.737 Y148.486 E283.476
G1 X100.646 Y144.379 E283.885
G1 X103.271 Y137.284 E284.263
G1 X105.428 Y138.524 E284.387
G1 X105.606 Y138.215 E284.405
;rapid-leaky
G1 F236
G0 X105.753 Y138.761
;bead-skirt/brim
G1 X109.42 Y140.878 F780 E284.616
G1 X108.105 Y143.168 E284.747
G1 X109.784 Y144.14 E284.844
G1 X107.59 Y147.939 E285.063
G1 X101.138 Y144.202 E285.435
G1 X103.482 Y137.867 E285.772
G1 X105.574 Y139.07 E285.893
G1 X105.753 Y138.761 E285.91
;rapid-leaky
G1 F236
G0 X105.899 Y139.308
;bead-skirt/brim
G1 X108.874 Y141.025 F780 E286.082
G1 X107.56 Y143.315 E286.213
G1 X109.237 Y144.286 E286.31
G1 X107.444 Y147.392 E286.489
G1 X101.63 Y144.024 E286.824
G1 X103.693 Y138.449 E287.121
G1 X105.721 Y139.616 E287.238
G1 X105.899 Y139.308 E287.255
;rapid-leaky
G1 F236
G0 X106.046 Y139.854
;bead-skirt/brim
G1 X108.329 Y141.172 F780 E287.387
G1 X107.015 Y143.461 E287.519
G1 X108.691 Y144.432 E287.615
G1 X107.298 Y146.845 E287.754
G1 X102.122 Y143.847 E288.053
G1 X103.903 Y139.032 E288.309
G1 X105.868 Y140.162 E288.422
G1 X106.046 Y139.854 E288.44
;rapid-leaky
G1 F236
G0 X106.192 Y140.4
;bead-skirt/brim
G1 X107.783 Y141.319 F780 E288.531
G1 X106.469 Y143.608 E288.663
G1 X108.145 Y144.578 E288.76
G1 X107.152 Y146.298 E288.859
G1 X102.614 Y143.67 E289.12
G1 X104.114 Y139.615 E289.336
G1 X106.015 Y140.708 E289.445
G1 X106.192 Y140.4 E289.463
;rapid-leaky
G1 F236
G0 X106.338 Y140.947
;bead-skirt/brim
G1 X107.238 Y141.466 F780 E289.515
G1 X105.924 Y143.754 E289.647
G1 X107.599 Y144.724 E289.743
G1 X107.006 Y145.751 E289.802
G1 X103.106 Y143.493 E290.027
G1 X104.325 Y140.198 E290.202
G1 X106.161 Y141.254 E290.308
G1 X106.338 Y140.947 E290.326
;rapid-leaky
G1 F236
G0 X114.839 Y152.533
;bead-skirt/brim
G1 X119.457 Y151.169 F780 E290.566
G1 X122.764 Y147.873 E290.799
G1 X125.403 Y150.175 E290.974
G1 X127.673 Y150.966 E291.094
G1 X132.266 Y148.318 E291.358
G1 X132.269 Y160.622 E291.972
G1 X130.422 Y161.689 E292.078
G1 X130.425 Y164.428 E292.215
G1 X125.326 Y167.368 E292.509
G1 X123.575 Y166.354 E292.61
G1 X122.35 Y167.112 E292.682
G1 X111.636 Y160.907 E293.299
G1 X115.046 Y158.929 E293.496
G1 X115.627 Y155.952 E293.647
G1 X114.839 Y152.533 E293.822
;rapid-leaky
G1 F236
G0 X115.314 Y152.81
;bead-skirt/brim
G1 X119.668 Y151.524 F780 E294.049
G1 X122.782 Y148.419 E294.268
G1 X125.198 Y150.528 E294.428
G1 X127.714 Y151.404 E294.561
G1 X131.866 Y149.01 E294.8
G1 X131.869 Y160.392 E295.368
G1 X130.022 Y161.459 E295.474
G1 X130.024 Y164.197 E295.611
G1 X125.327 Y166.906 E295.882
G1 X123.568 Y165.888 E295.983
G1 X122.343 Y166.646 E296.055
G1 X112.433 Y160.906 E296.626
G1 X115.403 Y159.184 E296.797
G1 X116.036 Y155.945 E296.962
G1 X115.314 Y152.81 E297.123
;rapid-leaky
G1 F236
G0 X115.788 Y153.087
;bead-skirt/brim
G1 X119.879 Y151.872 F780 E297.336
G1 X122.8 Y148.966 E297.541
G1 X124.994 Y150.88 E297.686
G1 X127.755 Y151.842 E297.832
G1 X131.466 Y149.703 E298.046
G1 X131.469 Y160.161 E298.568
G1 X129.622 Y161.228 E298.674
G1 X129.624 Y163.966 E298.811
G1 X125.327 Y166.444 E299.058
G1 X123.561 Y165.421 E299.16
G1 X122.337 Y166.18 E299.232
G1 X113.231 Y160.906 E299.757
G1 X115.761 Y159.439 E299.903
G1 X116.445 Y155.938 E300.081
G1 X115.788 Y153.087 E300.227
;rapid-leaky
G1 F236
G0 X116.262 Y153.364
;bead-skirt/brim
G1 X119.934 Y152.279 F780 E300.418
G1 X120.089 Y152.22 E300.426
G1 X122.818 Y149.513 E300.618
G1 X124.789 Y151.232 E300.748
G1 X127.796 Y152.28 E300.907
G1 X131.066 Y150.395 E301.095
G1 X131.069 Y159.93 E301.571
G1 X129.222 Y160.997 E301.678
G1 X129.224 Y163.735 E301.814
G1 X125.328 Y165.982 E302.039
G1 X123.555 Y164.955 E302.141
G1 X122.33 Y165.713 E302.213
G1 X114.029 Y160.906 E302.691
G1 X116.119 Y159.694 E302.812
G1 X116.854 Y155.932 E303.003
G1 X116.262 Y153.364 E303.134
;rapid-leaky
G1 F236
G0 X116.737 Y153.641
;bead-skirt/brim
G1 X120.063 Y152.658 F780 E303.307
G1 X120.299 Y152.567 E303.32
G1 X120.474 Y152.415 E303.332
G1 X122.836 Y150.06 E303.498
G1 X124.584 Y151.584 E303.614
G1 X127.837 Y152.718 E303.786
G1 X130.667 Y151.087 E303.949
G1 X130.669 Y159.699 E304.378
G1 X128.821 Y160.766 E304.485
G1 X128.824 Y163.504 E304.621
G1 X125.328 Y165.52 E304.823
G1 X123.548 Y164.489 E304.925
G1 X122.323 Y165.247 E304.997
G1 X114.826 Y160.906 E305.429
G1 X118.224 Y158.935 E305.625
G1 X116.581 Y159.414 E305.711
G1 X117.263 Y155.925 E305.888
G1 X116.737 Y153.641 E306.005
;rapid-leaky
G1 F236
G0 X117.211 Y153.918
;bead-skirt/brim
G1 X120.192 Y153.037 F780 E306.16
G1 X120.509 Y152.915 E306.177
G1 X120.747 Y152.708 E306.193
G1 X122.855 Y150.606 E306.341
G1 X124.38 Y151.937 E306.442
G1 X127.301 Y152.955 E306.597
G1 X125.882 Y154.308 E306.694
G1 X130.267 Y151.779 E306.947
G1 X130.269 Y159.468 E307.331
G1 X128.421 Y160.535 E307.437
G1 X128.424 Y163.273 E307.574
G1 X125.329 Y165.058 E307.752
G1 X123.541 Y164.023 E307.855
G1 X122.316 Y164.781 E307.927
G1 X115.624 Y160.905 E308.313
G1 X120.649 Y157.99 E308.602
G1 X120.636 Y157.941 E308.605
G1 X120.473 Y157.924 E308.613
G1 X120.134 Y157.961 E308.63
G1 X117.1 Y158.846 E308.788
G1 X117.672 Y155.918 E308.937
G1 X117.211 Y153.918 E309.039
;rapid-leaky
G1 F236
G0 X117.685 Y154.195
;bead-skirt/brim
G1 X120.321 Y153.416 F780 E309.176
G1 X120.711 Y153.269 E309.197
G1 X121.02 Y153 E309.217
G1 X122.873 Y151.153 E309.348
G1 X124.175 Y152.289 E309.434
G1 X126.551 Y153.117 E309.56
G1 X124.702 Y154.88 E309.687
G1 X124.468 Y155.198 E309.707
G1 X124.341 Y155.496 E309.723
G1 X124.327 Y155.652 E309.731
G1 X124.372 Y155.735 E309.736
G1 X125.425 Y155.032 E309.799
G1 X129.867 Y152.472 E310.055
G1 X129.869 Y159.237 E310.392
G1 X128.021 Y160.305 E310.499
G1 X128.023 Y163.042 E310.635
G1 X125.329 Y164.596 E310.79
G1 X123.534 Y163.556 E310.894
G1 X122.309 Y164.315 E310.966
G1 X116.422 Y160.905 E311.305
G1 X121.084 Y158.201 E311.574
G1 X121.066 Y158 E311.584
G1 X120.988 Y157.706 E311.599
G1 X120.929 Y157.625 E311.604
G1 X120.78 Y157.554 E311.612
G1 X120.472 Y157.522 E311.628
G1 X120.056 Y157.567 E311.649
G1 X117.618 Y158.278 E311.775
G1 X118.081 Y155.911 E311.896
G1 X117.685 Y154.195 E311.984
;rapid-leaky
G1 F236
G0 X118.16 Y154.472
;bead-skirt/brim
G1 X120.45 Y153.795 F780 E312.103
G1 X120.806 Y153.658 E312.122
G1 X120.898 Y153.637 E312.127
G1 X121.292 Y153.293 E312.153
G1 X122.891 Y151.7 E312.265
G1 X123.97 Y152.641 E312.337
G1 X125.801 Y153.279 E312.433
G1 X124.4 Y154.614 E312.53
G1 X124.118 Y154.999 E312.554
G1 X123.949 Y155.397 E312.575
G1 X123.92 Y155.717 E312.591
G1 X124.029 Y155.969 E312.605
G1 X124.315 Y156.254 E312.625
G1 X125.636 Y155.372 E312.704
G1 X129.467 Y153.164 E312.925
G1 X129.468 Y159.007 E313.217
G1 X127.621 Y160.074 E313.323
G1 X127.623 Y162.811 E313.46
G1 X125.329 Y164.134 E313.592
G1 X123.528 Y163.09 E313.696
G1 X122.302 Y163.849 E313.768
G1 X117.219 Y160.905 E314.061
G1 X121.506 Y158.419 E314.308
G1 X121.461 Y157.93 E314.332
G1 X121.355 Y157.531 E314.353
G1 X121.188 Y157.302 E314.367
G1 X120.895 Y157.163 E314.383
G1 X120.471 Y157.12 E314.404
G1 X119.977 Y157.174 E314.429
G1 X118.137 Y157.71 E314.525
G1 X118.49 Y155.904 E314.617
G1 X118.16 Y154.472 E314.69
;rapid-leaky
G1 F236
G0 X118.634 Y154.749
;bead-skirt/brim
G1 X120.579 Y154.174 F780 E314.791
G1 X120.923 Y154.041 E314.81
G1 X121.085 Y154.005 E314.818
G1 X121.565 Y153.586 E314.85
G1 X122.909 Y152.246 E314.944
G1 X123.766 Y152.993 E315.001
G1 X125.051 Y153.441 E315.069
G1 X124.099 Y154.349 E315.135
G1 X123.768 Y154.8 E315.162
G1 X123.556 Y155.299 E315.19
G1 X123.512 Y155.783 E315.214
G1 X123.699 Y156.213 E315.237
G1 X123.846 Y156.339 E315.247
G1 X124.255 Y156.775 E315.277
G1 X125.847 Y155.712 E315.372
G1 X129.067 Y153.856 E315.558
G1 X129.068 Y158.776 E315.803
G1 X127.221 Y159.843 E315.91
G1 X127.223 Y162.58 E316.046
G1 X125.33 Y163.672 E316.155
G1 X123.521 Y162.624 E316.259
G1 X122.296 Y163.382 E316.331
G1 X118.017 Y160.905 E316.578
G1 X121.927 Y158.636 E316.803
G1 X121.856 Y157.86 E316.842
G1 X121.722 Y157.356 E316.868
G1 X121.448 Y156.979 E316.892
G1 X121.01 Y156.773 E316.916
G1 X120.47 Y156.718 E316.943
G1 X119.899 Y156.78 E316.972
G1 X118.655 Y157.142 E317.036
G1 X118.898 Y155.897 E317.099
G1 X118.634 Y154.749 E317.158
;rapid-leaky
G1 F236
G0 X119.108 Y155.026
;bead-skirt/brim
G1 X120.708 Y154.553 F780 E317.242
G1 X121.04 Y154.425 E317.259
G1 X121.272 Y154.373 E317.271
G1 X121.838 Y153.879 E317.309
G1 X122.927 Y152.793 E317.385
G1 X123.561 Y153.346 E317.427
G1 X124.301 Y153.604 E317.466
G1 X123.797 Y154.084 E317.501
G1 X123.418 Y154.6 E317.533
G1 X123.163 Y155.2 E317.566
G1 X123.105 Y155.849 E317.598
G1 X123.369 Y156.458 E317.631
G1 X123.569 Y156.629 E317.644
G1 X124.195 Y157.296 E317.69
G1 X126.059 Y156.052 E317.802
G1 X128.667 Y154.548 E317.952
G1 X128.668 Y158.545 E318.151
G1 X126.82 Y159.612 E318.258
G1 X126.823 Y162.349 E318.394
G1 X125.33 Y163.21 E318.48
G1 X123.514 Y162.158 E318.585
G1 X122.289 Y162.916 E318.657
G1 X118.815 Y160.904 E318.857
G1 X122.349 Y158.854 E319.061
G1 X122.252 Y157.79 E319.114
G1 X122.09 Y157.182 E319.146
G1 X121.708 Y156.656 E319.178
G1 X121.124 Y156.383 E319.21
G1 X120.468 Y156.316 E319.243
G1 X119.821 Y156.386 E319.276
G1 X119.174 Y156.575 E319.309
G1 X119.307 Y155.891 E319.344
G1 X119.108 Y155.026 E319.388
G1 F1800 E309.388
;rapid-dry
G1 F236
G0 X123.349 Y157.312
G1 F1800 E319.388
;bead-support-structure
G1 X123.194 Y157.342 F2100 E319.396
G1 X123.007 Y157.441 E319.407
G1 X122.862 Y157.581 E319.417
G1 X122.378 Y157.415 E319.443
G1 X122.38 Y157.233 E319.452
G1 X122.494 Y156.802 E319.474
G1 X122.236 Y156.322 E319.501
G1 X121.619 Y156.247 E319.532
G1 X121.501 Y156.21 E319.538
G1 X121.328 Y156.225 E319.547
G1 X121.359 Y155.732 E319.572
G1 X121.862 Y155.546 E319.598
G1 X122.152 Y155.369 E319.615
G1 X122.461 Y155.101 E319.636
G1 X122.921 Y155.299 E319.661
G1 X122.83 Y155.438 E319.669
G1 X122.683 Y155.864 E319.691
G1 X122.529 Y156.095 E319.705
G1 X122.846 Y156.642 E319.737
G1 X123.046 Y156.649 E319.747
G1 X123.369 Y156.77 E319.764
G1 X123.419 Y156.802 E319.767
G1 F1800 E309.767
G1 F236
G0 X123.369 Y156.77
G0 X123.046 Y156.649
G0 X122.846 Y156.642
G0 X122.748 Y156.473
G0 X122.846 Y156.642
G0 X123.046 Y156.649
G0 X123.369 Y156.77
G0 X123.419 Y156.802
;rapid-dry
G1 F236
G0 X99.039 Y117.971
G1 F1800 E319.767
;bead-support-structure
G1 X98.743 Y118.003 F2100 E319.782
G1 X98.601 Y118.576 E319.811
G1 F1800 E309.811
G1 F236
G0 X98.743 Y118.003
G0 X98.951 Y117.98
G0 X98.743 Y118.003
G0 X98.601 Y118.576
;rapid-dry
G1 F236
G0 X98.397 Y119.143
G1 F1800 E319.811
;bead-support-structure
G1 X98.497 Y118.885 F2100 E319.825
G1 X98.618 Y118.507 E319.845
G1 X98.885 Y117.393 E319.902
G1 F1800 E309.902
G1 F236
G0 X98.698 Y118.171
G0 X98.885 Y117.393
;rapid-dry
G1 F236
G0 X99.537 Y115.399
G1 F1800 E319.902
;bead-support-structure
G1 X108.249 Y110.442 F2100 E320.402
G1 X109.193 Y109.808 E320.459
G1 X109.531 Y109.536 E320.48
G1 F1800 E310.48
G1 F236
G0 X109.193 Y109.808
G0 X108.888 Y110.012
G0 X109.193 Y109.808
G0 X109.531 Y109.536
;rapid-dry
G1 F236
G0 X111.294 Y108.835
G1 F1800 E320.48
;bead-support-structure
G1 X111.009 Y109.164 F2100 E320.502
G1 X110.587 Y109.729 E320.537
G1 X110.233 Y110.315 E320.572
G1 X110.072 Y110.816 E320.598
G1 Y122.438 E321.178
G1 X110.193 Y122.879 E321.2
G1 X110.289 Y123.108 E321.213
G1 X110.45 Y123.389 E321.229
G1 X110.789 Y123.922 E321.26
G1 X111.151 Y124.415 E321.291
G1 X111.454 Y124.786 E321.315
G1 X110.029 Y124.297 E321.39
G1 X109.586 Y123.901 E321.42
G1 X109.136 Y123.54 E321.448
G1 X108.188 Y122.878 E321.506
G1 X100.315 Y118.418 E321.958
G1 X100.25 Y117.347 E322.011
G1 X100.03 Y117.412 E322.022
G1 X99.93 Y116.486 E322.069
G1 X100.12 Y116.349 E322.081
G1 X100.93 Y116.724 E322.125
G1 X101.732 Y115.942 E322.181
G1 X102.015 Y115.33 E322.215
G1 X104.363 Y113.719 E322.357
G1 X104.571 Y114.078 E322.377
G1 X104.73 Y114.202 E322.387
G1 X104.901 Y114.596 E322.409
G1 X105.037 Y115.026 E322.431
G1 X106.03 Y117.144 E322.548
G1 X105.94 Y117.218 E322.554
G1 X104.842 Y114.97 E322.679
G1 X104.727 Y114.533 E322.701
G1 X105.158 Y113.597 E322.753
G1 X104.848 Y113.338 E322.773
G1 X109.067 Y110.818 E323.018
G1 Y122.549 E323.603
G1 X110.581 Y119.417 E323.777
G1 X110.558 Y119.164 E323.79
G1 F1800 E313.79
G1 F236
G0 X110.581 Y119.417
G0 X110.344 Y119.908
G0 X110.581 Y119.417
G0 X110.558 Y119.164
;rapid-dry
G1 F236
G0 X113.106 Y110.657
G1 F1800 E323.79
;bead-support-structure
G1 Y123.961 F2100 E324.453
G1 X112.481 Y124.397 E324.491
G1 X112.174 Y123.957 E324.518
G1 X112.173 Y109.45 E325.242
G1 X112.402 Y109.139 E325.261
G1 X113.106 Y109.657 E325.305
G1 X113.634 Y108.747 E325.357
G1 X113.689 Y108.62 E325.364
G1 X113.432 Y108.598 E325.377
G1 F1800 E315.377
G1 F236
G0 X113.689 Y108.62
G0 X113.634 Y108.747
G0 X113.431 Y109.096
G0 X113.634 Y108.747
G0 X113.689 Y108.62
G0 X113.432 Y108.598
;rapid-dry
G1 F236
G0 X121.389 Y77.947
G1 F1800 E325.377
;bead-support-structure
G1 X121.695 Y78.049 F2100 E325.393
G1 X122.009 Y78.205 E325.411
G1 X122.291 Y78.411 E325.428
G1 X122.459 Y78.575 E325.44
G1 X122.606 Y79.172 E325.47
G1 X123.077 Y79.743 E325.507
G1 X122.904 Y78.345 E325.578
G1 X122.818 Y78.226 E325.585
G1 X122.763 Y78.003 E325.596
G1 X122.56 Y77.578 E325.62
G1 X122.843 Y77.048 E325.65
G1 X123.201 Y76.979 E325.668
G1 X123.266 Y76.945 E325.672
G1 X123.387 Y76.662 E325.687
G1 X123.341 Y76.358 E325.702
G1 X123.296 Y76.356 E325.705
G1 X123.098 Y76.286 E325.715
G1 X122.924 Y76.159 E325.726
G1 X122.845 Y76.062 E325.732
G1 X122.38 Y76.28 E325.758
G1 X122.411 Y76.607 E325.774
G1 X122.517 Y76.847 E325.787
G1 X122.206 Y77.38 E325.818
G1 X121.848 Y77.381 E325.836
G1 X121.491 Y77.462 E325.854
G1 X121.32 Y77.438 E325.863
G1 F1800 E315.863
G1 F236
G0 X121.491 Y77.462
G0 X121.848 Y77.381
G0 X122.109 Y77.38
G0 X121.848 Y77.381
G0 X121.491 Y77.462
G0 X121.32 Y77.438
;rapid-dry
G1 F236
G0 X74.353 Y106.481
G1 F1800 E325.863
;bead-support-structure
G1 X74.274 Y106.269 F2100 E325.874
G1 X74.207 Y105.926 E325.891
G1 X74.199 Y105.596 E325.908
G1 X74.252 Y105.257 E325.925
G1 X74.352 Y104.961 E325.941
G1 X73.762 Y104.876 E325.97
G1 X73.463 Y105.134 E325.99
G1 X72.951 Y105.168 E326.016
G1 X72.191 Y105.337 E326.055
G1 X72.237 Y105.42 E326.059
G1 X72.288 Y105.637 E326.07
G1 X72.283 Y105.855 E326.081
G1 X72.194 Y106.101 E326.094
G1 X72.746 Y106.366 E326.125
G1 X72.94 Y106.266 E326.136
G1 X73.447 Y106.278 E326.161
G1 X73.786 Y106.579 E326.184
G1 F1800 E316.184
G1 F236
G0 X73.447 Y106.278
G0 X73.1 Y106.27
G0 X73.447 Y106.278
G0 X73.786 Y106.579
;rapid-dry
G1 F236
G0 X74.355 Y128.719
G1 F1800 E326.184
;bead-support-structure
G1 X74.304 Y128.594 F2100 E326.19
G1 X74.22 Y128.241 E326.209
G1 X74.196 Y127.91 E326.225
G1 X74.232 Y127.576 E326.242
G1 X74.35 Y127.18 E326.262
G1 X73.776 Y127.094 E326.291
G1 X73.466 Y127.389 E326.313
G1 X72.909 Y127.413 E326.341
G1 X72.738 Y127.298 E326.351
G1 X72.19 Y127.571 E326.381
G1 X72.254 Y127.707 E326.389
G1 X72.294 Y127.925 E326.4
G1 X72.271 Y128.142 E326.411
G1 X72.191 Y128.336 E326.421
G1 X72.662 Y128.649 E326.45
G1 X72.746 Y128.609 E326.454
G1 X72.905 Y128.49 E326.464
G1 X73.47 Y128.512 E326.492
G1 X73.773 Y128.809 E326.514
G1 F1800 E316.514
G1 F236
G0 X73.47 Y128.512
G0 X73.095 Y128.497
G0 X73.47 Y128.512
G0 X73.773 Y128.809
;rapid-dry
G1 F236
G0 X70.941 Y129.553
G1 F1800 E326.514
;bead-support-structure
G1 X70.949 Y129.607 F2100 E326.516
G1 F1800 E316.516
G1 F236
G0 X70.941 Y129.553
G0 X70.949 Y129.607
;Layer : 2 of 178
M106 S255
;rapid-dry
G1 F236
G0 Z0.5
G1 F1800 E326.516
;bead-support-structure
G1 X70.941 Y129.553 F2798 E326.518
G1 F1800 E316.518
G1 F236
G0 X70.949 Y129.607
G0 X70.941 Y129.553
;rapid-dry
G1 F236
G0 X73.773 Y128.809
G1 F1800 E326.518
;bead-support-structure
G1 X73.47 Y128.512 F2798 E326.528
G1 X72.905 Y128.49 E326.542
G1 X72.746 Y128.609 E326.547
G1 X72.662 Y128.649 E326.55
G1 X72.191 Y128.336 E326.564
G1 X72.271 Y128.142 E326.569
G1 X72.294 Y127.925 E326.574
G1 X72.254 Y127.707 E326.58
G1 X72.19 Y127.571 E326.584
G1 X72.738 Y127.298 E326.599
G1 X72.909 Y127.413 E326.604
G1 X73.466 Y127.389 E326.618
G1 X73.776 Y127.094 E326.629
G1 X74.35 Y127.18 E326.643
G1 X74.232 Y127.576 E326.653
G1 X74.196 Y127.91 E326.662
G1 X74.22 Y128.241 E326.67
G1 X74.304 Y128.594 E326.679
G1 X74.355 Y128.719 E326.683
G1 F1800 E316.683
G1 F236
G0 X74.304 Y128.594
G0 X74.22 Y128.241
G0 X74.198 Y127.94
G0 X74.22 Y128.241
G0 X74.304 Y128.594
G0 X74.355 Y128.719
;rapid-dry
G1 F236
G0 X73.786 Y106.579
G1 F1800 E326.683
;bead-support-structure
G1 X73.447 Y106.278 F2798 E326.694
G1 X72.94 Y106.266 E326.706
G1 X72.746 Y106.366 E326.712
G1 X72.194 Y106.101 E326.727
G1 X72.283 Y105.855 E326.734
G1 X72.288 Y105.637 E326.739
G1 X72.237 Y105.42 E326.745
G1 X72.191 Y105.337 E326.747
G1 X72.951 Y105.168 E326.767
G1 X73.463 Y105.134 E326.779
G1 X73.762 Y104.876 E326.789
G1 X74.352 Y104.961 E326.804
G1 X74.252 Y105.257 E326.812
G1 X74.199 Y105.596 E326.82
G1 X74.207 Y105.926 E326.829
G1 X74.274 Y106.269 E326.837
G1 X74.353 Y106.481 E326.843
G1 F1800 E316.843
G1 F236
G0 X74.274 Y106.269
G0 X74.207 Y105.926
G0 X74.202 Y105.702
G0 X74.207 Y105.926
G0 X74.274 Y106.269
G0 X74.353 Y106.481
;rapid-dry
G1 F236
G0 X121.32 Y77.438
G1 F1800 E326.843
;bead-support-structure
G1 X121.491 Y77.462 F2798 E326.847
G1 X121.848 Y77.381 E326.857
G1 X122.206 Y77.38 E326.865
G1 X122.517 Y76.847 E326.881
G1 X122.411 Y76.607 E326.887
G1 X122.38 Y76.28 E326.896
G1 X122.845 Y76.062 E326.908
G1 X122.924 Y76.159 E326.912
G1 X123.098 Y76.286 E326.917
G1 X123.296 Y76.356 E326.922
G1 X123.341 Y76.358 E326.923
G1 X123.387 Y76.662 E326.931
G1 X123.266 Y76.945 E326.939
G1 X123.201 Y76.979 E326.94
G1 X122.843 Y77.048 E326.95
G1 X122.56 Y77.578 E326.965
G1 X122.763 Y78.003 E326.976
G1 X122.818 Y78.226 E326.982
G1 X122.904 Y78.345 E326.986
G1 X123.077 Y79.743 E327.021
G1 X122.606 Y79.172 E327.039
G1 X122.459 Y78.575 E327.055
G1 X122.291 Y78.411 E327.06
G1 X122.009 Y78.205 E327.069
G1 X121.695 Y78.049 E327.078
G1 X121.389 Y77.947 E327.086
G1 F1800 E317.086
G1 F236
G0 X121.695 Y78.049
G0 X122.009 Y78.205
G0 X122.112 Y78.28
G0 X122.009 Y78.205
G0 X121.695 Y78.049
G0 X121.389 Y77.947
;rapid-dry
G1 F236
G0 X107.664 Y100.254
G1 F1800 E327.086
;bead-perimeter_outer
G1 X100.727 Y104.238 Z0.7 F719 E327.352
G1 X95.466 Y107.258 E327.554
G1 X95.279 Y106.935 E327.566
G1 X100.529 Y103.895 E327.768
G1 X107.453 Y99.887 Z0.5 E328.034
G1 X112.518 Y96.954 E328.229
G1 X112.74 Y97.34 E328.243
G1 X107.664 Y100.254 E328.438
G1 F1800 E318.438
;rapid-dry
G1 F236
G0 X113.432 Y108.598
G1 F1800 E328.438
;bead-support-structure
G1 X113.689 Y108.62 F2798 E328.445
G1 X113.634 Y108.747 E328.448
G1 X113.106 Y109.657 E328.474
G1 X112.402 Y109.139 E328.496
G1 X112.173 Y109.45 E328.506
G1 X112.174 Y123.957 E328.868
G1 X112.481 Y124.397 E328.881
G1 X113.106 Y123.961 E328.9
G1 Y110.657 E329.232
G1 F1800 E319.232
G1 F236
G0 Y111.457
G0 Y110.657
;rapid-dry
G1 F236
G0 X110.558 Y119.164
G1 F1800 E329.232
;bead-support-structure
G1 X110.581 Y119.417 F2798 E329.238
G1 X109.067 Y122.549 E329.325
G1 Y110.818 E329.618
G1 X104.848 Y113.338 E329.74
G1 X105.158 Y113.597 E329.75
G1 X104.727 Y114.533 E329.776
G1 X104.842 Y114.97 E329.787
G1 X105.94 Y117.218 E329.85
G1 X106.03 Y117.144 E329.853
G1 X105.037 Y115.026 E329.911
G1 X104.901 Y114.596 E329.922
G1 X104.73 Y114.202 E329.933
G1 X104.571 Y114.078 E329.938
G1 X104.363 Y113.719 E329.948
G1 X102.015 Y115.33 E330.019
G1 X101.732 Y115.942 E330.036
G1 X100.93 Y116.724 E330.064
G1 X100.12 Y116.349 E330.086
G1 X99.93 Y116.486 E330.092
G1 X100.03 Y117.412 E330.115
G1 X100.25 Y117.347 E330.121
G1 X100.315 Y118.418 E330.148
G1 X108.188 Y122.878 E330.374
G1 X109.136 Y123.54 E330.402
G1 X109.586 Y123.901 E330.417
G1 X110.029 Y124.297 E330.432
G1 X111.454 Y124.786 E330.469
G1 X111.151 Y124.415 E330.481
G1 X110.789 Y123.922 E330.496
G1 X110.45 Y123.389 E330.512
G1 X110.289 Y123.108 E330.52
G1 X110.193 Y122.879 E330.526
G1 X110.072 Y122.438 E330.538
G1 Y110.816 E330.828
G1 X110.233 Y110.315 E330.841
G1 X110.587 Y109.729 E330.858
G1 X111.009 Y109.164 E330.876
G1 X111.294 Y108.835 E330.886
G1 F1800 E320.886
G1 F236
G0 X111.009 Y109.164
G0 X110.791 Y109.456
G0 X111.009 Y109.164
G0 X111.294 Y108.835
;rapid-dry
G1 F236
G0 X109.531 Y109.536
G1 F1800 E330.886
;bead-support-structure
G1 X109.193 Y109.808 F2798 E330.897
G1 X108.249 Y110.442 E330.926
G1 X99.537 Y115.399 E331.176
G1 F1800 E321.176
G1 F236
G0 X100.232 Y115.003
G0 X99.537 Y115.399
;rapid-dry
G1 F236
G0 X99.039 Y117.971
G1 F1800 E331.176
;bead-support-structure
G1 X98.743 Y118.003 F2798 E331.183
G1 X98.601 Y118.576 E331.198
G1 F1800 E321.198
G1 F236
G0 X98.743 Y118.003
G0 X98.951 Y117.98
G0 X98.743 Y118.003
G0 X98.601 Y118.576
;rapid-dry
G1 F236
G0 X98.885 Y117.393
G1 F1800 E331.198
;bead-support-structure
G1 X98.618 Y118.507 F2798 E331.226
G1 X98.497 Y118.885 E331.236
G1 X98.397 Y119.143 E331.243
G1 F1800 E321.243
G1 F236
G0 X98.497 Y118.885
G0 X98.618 Y118.507
G0 X98.647 Y118.384
G0 X98.618 Y118.507
G0 X98.497 Y118.885
G0 X98.397 Y119.143
;rapid-dry
G1 F236
G0 X95.279 Y126.736 Z0.7
G1 F1800 E331.243
;bead-perimeter_outer
G1 X95.467 Y126.413 F719 E331.256
G1 X100.769 Y129.457 E331.459
G1 X107.707 Y133.441 Z0.5 E331.725
G1 X112.74 Y136.331 E331.918
G1 X112.518 Y136.717 E331.933
G1 X107.495 Y133.808 E332.126
G1 X100.571 Y129.8 Z0.7 E332.392
G1 X95.279 Y126.736 E332.595
G1 F1800 E322.595
;rapid-dry
G1 F236
G0 X123.419 Y156.802 Z0.5
G1 F1800 E332.595
;bead-support-structure
G1 X123.369 Y156.77 F2798 E332.597
G1 X123.046 Y156.649 E332.605
G1 X122.846 Y156.642 E332.61
G1 X122.529 Y156.095 E332.626
G1 X122.683 Y155.864 E332.633
G1 X122.83 Y155.438 E332.644
G1 X122.921 Y155.299 E332.649
G1 X122.461 Y155.101 E332.661
G1 X122.152 Y155.369 E332.671
G1 X121.862 Y155.546 E332.68
G1 X121.359 Y155.732 E332.693
G1 X121.328 Y156.225 E332.705
G1 X121.501 Y156.21 E332.71
G1 X121.619 Y156.247 E332.713
G1 X122.236 Y156.322 E332.728
G1 X122.494 Y156.802 E332.742
G1 X122.38 Y157.233 E332.753
G1 X122.378 Y157.415 E332.758
G1 X122.862 Y157.581 E332.77
G1 X123.007 Y157.441 E332.775
G1 X123.194 Y157.342 E332.781
G1 X123.349 Y157.312 E332.785
G1 F1800 E322.785
G1 F236
G0 X123.194 Y157.342
G0 X123.007 Y157.441
G0 X122.862 Y157.581
G0 X122.646 Y157.507
G0 X122.862 Y157.581
G0 X123.007 Y157.441
G0 X123.194 Y157.342
G0 X123.349 Y157.312
;Layer : 3 of 178
;rapid-dry
G1 F236
G0 Z0.7
G1 F1800 E332.785
;bead-support-structure
G1 X123.194 Y157.342 F4092 E332.789
G1 X123.007 Y157.441 E332.794
G1 X122.862 Y157.581 E332.799
G1 X122.378 Y157.415 E332.812
G1 X122.38 Y157.233 E332.816
G1 X122.494 Y156.802 E332.827
G1 X122.236 Y156.322 E332.841
G1 X121.619 Y156.247 E332.856
G1 X121.501 Y156.21 E332.86
G1 X121.328 Y156.225 E332.864
G1 X121.359 Y155.732 E332.876
G1 X121.862 Y155.546 E332.89
G1 X122.152 Y155.369 E332.898
G1 X122.461 Y155.101 E332.908
G1 X122.921 Y155.299 E332.921
G1 X122.83 Y155.438 E332.925
G1 X122.683 Y155.864 E332.936
G1 X122.529 Y156.095 E332.943
G1 X122.846 Y156.642 E332.959
G1 X123.046 Y156.649 E332.964
G1 X123.369 Y156.77 E332.972
G1 X123.419 Y156.802 E332.974
G1 F1800 E322.974
G1 F236
G0 X123.369 Y156.77
G0 X123.046 Y156.649
G0 X122.846 Y156.642
G0 X122.748 Y156.473
G0 X122.846 Y156.642
G0 X123.046 Y156.649
G0 X123.369 Y156.77
G0 X123.419 Y156.802
;rapid-dry
G1 F236
G0 X112.314 Y136.34
G1 F1800 E332.974
;bead-perimeter_inner
G1 X95.708 Y126.725 F1520 E333.612
G1 X95.742 Y126.665 E333.614
G1 X112.383 Y136.22 E334.253
G1 X112.314 Y136.34 E334.257
;rapid-leaky
G1 F236
G0 X112.448 Y136.839
;bead-perimeter_outer
G1 X95.209 Y126.858 F1052 E334.92
G1 X95.608 Y126.167 E334.946
G1 X112.882 Y136.086 E335.609
G1 X112.448 Y136.839 E335.638
G1 F1800 E325.638
;rapid-dry
G1 F236
G0 X110.558 Y119.164
G1 F1800 E335.638
;bead-support-structure
G1 X110.581 Y119.417 F4092 E335.644
G1 X109.067 Y122.549 E335.731
G1 Y110.818 E336.024
G1 X104.848 Y113.338 E336.146
G1 X105.158 Y113.597 E336.156
G1 X104.727 Y114.533 E336.182
G1 X104.842 Y114.97 E336.193
G1 X105.94 Y117.218 E336.256
G1 X106.03 Y117.144 E336.258
G1 X105.037 Y115.026 E336.317
G1 X104.901 Y114.596 E336.328
G1 X104.73 Y114.202 E336.339
G1 X104.571 Y114.078 E336.344
G1 X104.363 Y113.719 E336.354
G1 X102.015 Y115.33 E336.425
G1 X101.732 Y115.942 E336.442
G1 X100.93 Y116.724 E336.47
G1 X100.12 Y116.349 E336.492
G1 X99.93 Y116.486 E336.498
G1 X100.03 Y117.412 E336.521
G1 X100.25 Y117.347 E336.527
G1 X100.315 Y118.418 E336.554
G1 X108.188 Y122.878 E336.779
G1 X109.136 Y123.54 E336.808
G1 X109.586 Y123.901 E336.823
G1 X110.029 Y124.297 E336.838
G1 X111.454 Y124.786 E336.875
G1 X111.151 Y124.415 E336.887
G1 X110.789 Y123.922 E336.902
G1 X110.45 Y123.389 E336.918
G1 X110.289 Y123.108 E336.926
G1 X110.193 Y122.879 E336.932
G1 X110.072 Y122.438 E336.944
G1 Y110.816 E337.234
G1 X110.233 Y110.315 E337.247
G1 X110.587 Y109.729 E337.264
G1 X111.009 Y109.164 E337.281
G1 X111.294 Y108.835 E337.292
G1 F1800 E327.292
G1 F236
G0 X111.009 Y109.164
G0 X110.791 Y109.456
G0 X111.009 Y109.164
G0 X111.294 Y108.835
;rapid-dry
G1 F236
G0 X109.531 Y109.536
G1 F1800 E337.292
;bead-support-structure
G1 X109.193 Y109.808 F4092 E337.303
G1 X108.249 Y110.442 E337.331
G1 X99.537 Y115.399 E337.582
G1 F1800 E327.582
G1 F236
G0 X100.232 Y115.003
G0 X99.537 Y115.399
;rapid-dry
G1 F236
G0 X99.039 Y117.971
G1 F1800 E337.582
;bead-support-structure
G1 X98.743 Y118.003 F4092 E337.589
G1 X98.601 Y118.576 E337.604
G1 F1800 E327.604
G1 F236
G0 X98.743 Y118.003
G0 X98.951 Y117.98
G0 X98.743 Y118.003
G0 X98.601 Y118.576
;rapid-dry
G1 F236
G0 X98.397 Y119.143
G1 F1800 E337.604
;bead-support-structure
G1 X98.497 Y118.885 F4092 E337.611
G1 X98.618 Y118.507 E337.62
G1 X98.885 Y117.393 E337.649
G1 F1800 E327.649
G1 F236
G0 X98.698 Y118.171
G0 X98.885 Y117.393
;rapid-dry
G1 F236
G0 X95.742 Y107.006
G1 F1800 E337.649
;bead-perimeter_inner
G1 X95.708 Y106.946 F1520 E337.651
G1 X112.315 Y97.331 E338.29
G1 X112.384 Y97.451 E338.294
G1 X95.742 Y107.006 E338.932
;rapid-leaky
G1 F236
G0 X95.608 Y107.504
;bead-perimeter_outer
G1 X95.209 Y106.813 F1052 E338.959
G1 X112.448 Y96.832 E339.622
G1 X112.727 Y97.315 E339.64
G1 X112.883 Y97.585 E339.65
G1 X95.608 Y107.504 E340.313
G1 F1800 E330.313
;rapid-dry
G1 F236
G0 X113.106 Y110.657
G1 F1800 E340.313
;bead-support-structure
G1 Y123.961 F4092 E340.645
G1 X112.481 Y124.397 E340.664
G1 X112.174 Y123.957 E340.677
G1 X112.173 Y109.45 E341.039
G1 X112.402 Y109.139 E341.049
G1 X113.106 Y109.657 E341.071
G1 X113.634 Y108.747 E341.097
G1 X113.689 Y108.62 E341.1
G1 X113.432 Y108.598 E341.107
G1 F1800 E331.107
G1 F236
G0 X113.689 Y108.62
G0 X113.634 Y108.747
G0 X113.431 Y109.096
G0 X113.634 Y108.747
G0 X113.689 Y108.62
G0 X113.432 Y108.598
;rapid-dry
G1 F236
G0 X121.389 Y77.947
G1 F1800 E341.107
;bead-support-structure
G1 X121.695 Y78.049 F4092 E341.115
G1 X122.009 Y78.205 E341.124
G1 X122.291 Y78.411 E341.132
G1 X122.459 Y78.575 E341.138
G1 X122.606 Y79.172 E341.153
G1 X123.077 Y79.743 E341.172
G1 X122.904 Y78.345 E341.207
G1 X122.818 Y78.226 E341.211
G1 X122.763 Y78.003 E341.216
G1 X122.56 Y77.578 E341.228
G1 X122.843 Y77.048 E341.243
G1 X123.201 Y76.979 E341.252
G1 X123.266 Y76.945 E341.254
G1 X123.387 Y76.662 E341.262
G1 X123.341 Y76.358 E341.269
G1 X123.296 Y76.356 E341.271
G1 X123.098 Y76.286 E341.276
G1 X122.924 Y76.159 E341.281
G1 X122.845 Y76.062 E341.284
G1 X122.38 Y76.28 E341.297
G1 X122.411 Y76.607 E341.305
G1 X122.517 Y76.847 E341.312
G1 X122.206 Y77.38 E341.327
G1 X121.848 Y77.381 E341.336
G1 X121.491 Y77.462 E341.345
G1 X121.32 Y77.438 E341.35
G1 F1800 E331.35
G1 F236
G0 X121.491 Y77.462
G0 X121.848 Y77.381
G0 X122.109 Y77.38
G0 X121.848 Y77.381
G0 X121.491 Y77.462
G0 X121.32 Y77.438
;rapid-dry
G1 F236
G0 X74.353 Y106.481
G1 F1800 E341.35
;bead-support-structure
G1 X74.274 Y106.269 F4092 E341.355
G1 X74.207 Y105.926 E341.364
G1 X74.199 Y105.596 E341.372
G1 X74.252 Y105.257 E341.381
G1 X74.352 Y104.961 E341.389
G1 X73.762 Y104.876 E341.403
G1 X73.463 Y105.134 E341.413
G1 X72.951 Y105.168 E341.426
G1 X72.191 Y105.337 E341.445
G1 X72.237 Y105.42 E341.448
G1 X72.288 Y105.637 E341.453
G1 X72.283 Y105.855 E341.459
G1 X72.194 Y106.101 E341.465
G1 X72.746 Y106.366 E341.481
G1 X72.94 Y106.266 E341.486
G1 X73.447 Y106.278 E341.499
G1 X73.786 Y106.579 E341.51
G1 F1800 E331.51
G1 F236
G0 X73.447 Y106.278
G0 X73.1 Y106.27
G0 X73.447 Y106.278
G0 X73.786 Y106.579
;rapid-dry
G1 F236
G0 X74.355 Y128.719
G1 F1800 E341.51
;bead-support-structure
G1 X74.304 Y128.594 F4092 E341.513
G1 X74.22 Y128.241 E341.522
G1 X74.196 Y127.91 E341.531
G1 X74.232 Y127.576 E341.539
G1 X74.35 Y127.18 E341.549
G1 X73.776 Y127.094 E341.564
G1 X73.466 Y127.389 E341.575
G1 X72.909 Y127.413 E341.589
G1 X72.738 Y127.298 E341.594
G1 X72.19 Y127.571 E341.609
G1 X72.254 Y127.707 E341.613
G1 X72.294 Y127.925 E341.618
G1 X72.271 Y128.142 E341.624
G1 X72.191 Y128.336 E341.629
G1 X72.662 Y128.649 E341.643
G1 X72.746 Y128.609 E341.645
G1 X72.905 Y128.49 E341.65
G1 X73.47 Y128.512 E341.664
G1 X73.773 Y128.809 E341.675
G1 F1800 E331.675
G1 F236
G0 X73.47 Y128.512
G0 X73.095 Y128.497
G0 X73.47 Y128.512
G0 X73.773 Y128.809
;rapid-dry
G1 F236
G0 X70.941 Y129.553
G1 F1800 E341.675
;bead-support-structure
G1 X70.949 Y129.607 F4092 E341.676
G1 F1800 E331.676
G1 F236
G0 X70.941 Y129.553
G0 X70.949 Y129.607
;Layer : 4 of 178
;rapid-dry
G1 F236
G0 Z0.9
G1 F1800 E341.676
;bead-support-structure
G1 X70.941 Y129.553 F4161 E341.678
G1 F1800 E331.678
G1 F236
G0 X70.949 Y129.607
G0 X70.941 Y129.553
;rapid-dry
G1 F236
G0 X73.773 Y128.809
G1 F1800 E341.678
;bead-support-structure
G1 X73.47 Y128.512 F4161 E341.688
G1 X72.905 Y128.49 E341.702
G1 X72.746 Y128.609 E341.707
G1 X72.662 Y128.649 E341.71
G1 X72.191 Y128.336 E341.724
G1 X72.271 Y128.142 E341.729
G1 X72.294 Y127.925 E341.734
G1 X72.254 Y127.707 E341.74
G1 X72.19 Y127.571 E341.744
G1 X72.738 Y127.298 E341.759
G1 X72.909 Y127.413 E341.764
G1 X73.466 Y127.389 E341.778
G1 X73.776 Y127.094 E341.789
G1 X74.35 Y127.18 E341.803
G1 X74.232 Y127.576 E341.814
G1 X74.196 Y127.91 E341.822
G1 X74.22 Y128.241 E341.83
G1 X74.304 Y128.594 E341.839
G1 X74.355 Y128.719 E341.843
G1 F1800 E331.843
G1 F236
G0 X74.304 Y128.594
G0 X74.22 Y128.241
G0 X74.198 Y127.94
G0 X74.22 Y128.241
G0 X74.304 Y128.594
G0 X74.355 Y128.719
;rapid-dry
G1 F236
G0 X95.638 Y126.848
G1 F1800 E341.843
;bead-perimeter_inner
G1 X95.886 Y126.42 F1546 E341.859
G1 X112.525 Y135.975 E342.497
G1 X112.244 Y136.461 E342.516
G1 X95.638 Y126.848 E343.154
;rapid-leaky
G1 F236
G0 X95.139 Y126.981
;bead-perimeter_outer
G1 X95.752 Y125.923 F1070 E343.195
G1 X113.024 Y135.841 E343.857
G1 X112.378 Y136.961 E343.9
G1 X95.139 Y126.981 E344.563
G1 F1800 E334.563
;rapid-dry
G1 F236
G0 X98.397 Y119.143
G1 F1800 E344.563
;bead-support-structure
G1 X98.497 Y118.885 F4161 E344.57
G1 X98.618 Y118.507 E344.58
G1 X98.885 Y117.393 E344.608
G1 F1800 E334.608
G1 F236
G0 X98.698 Y118.171
G0 X98.885 Y117.393
;rapid-dry
G1 F236
G0 X98.601 Y118.576
G1 F1800 E344.608
;bead-support-structure
G1 X98.743 Y118.003 F4161 E344.623
G1 X99.039 Y117.971 E344.63
G1 F1800 E334.63
G1 F236
G0 X98.743 Y118.003
G0 X98.622 Y118.491
G0 X98.743 Y118.003
G0 X99.039 Y117.971
;rapid-dry
G1 F236
G0 X99.537 Y115.399
G1 F1800 E344.63
;bead-support-structure
G1 X108.249 Y110.442 F4161 E344.88
G1 X109.193 Y109.808 E344.909
G1 X109.531 Y109.536 E344.92
G1 F1800 E334.92
G1 F236
G0 X109.193 Y109.808
G0 X108.888 Y110.012
G0 X109.193 Y109.808
G0 X109.531 Y109.536
;rapid-dry
G1 F236
G0 X111.294 Y108.835
G1 F1800 E344.92
;bead-support-structure
G1 X111.009 Y109.164 F4161 E344.93
G1 X110.587 Y109.729 E344.948
G1 X110.233 Y110.315 E344.965
G1 X110.072 Y110.816 E344.978
G1 Y122.438 E345.268
G1 X110.193 Y122.879 E345.279
G1 X110.289 Y123.108 E345.286
G1 X110.45 Y123.389 E345.294
G1 X110.789 Y123.922 E345.31
G1 X111.151 Y124.415 E345.325
G1 X111.454 Y124.786 E345.337
G1 X110.029 Y124.297 E345.374
G1 X109.586 Y123.901 E345.389
G1 X109.136 Y123.54 E345.404
G1 X108.188 Y122.878 E345.432
G1 X100.315 Y118.418 E345.658
G1 X100.25 Y117.347 E345.685
G1 X100.03 Y117.412 E345.691
G1 X99.93 Y116.486 E345.714
G1 X100.12 Y116.349 E345.72
G1 X100.93 Y116.724 E345.742
G1 X101.732 Y115.942 E345.77
G1 X102.015 Y115.33 E345.787
G1 X104.363 Y113.719 E345.858
G1 X104.571 Y114.078 E345.868
G1 X104.73 Y114.202 E345.873
G1 X104.901 Y114.596 E345.884
G1 X105.037 Y115.026 E345.895
G1 X106.03 Y117.144 E345.953
G1 X105.94 Y117.218 E345.956
G1 X104.842 Y114.97 E346.019
G1 X104.727 Y114.533 E346.03
G1 X105.158 Y113.597 E346.056
G1 X104.848 Y113.338 E346.066
G1 X109.067 Y110.818 E346.188
G1 Y122.549 E346.481
G1 X110.581 Y119.417 E346.568
G1 X110.558 Y119.164 E346.574
G1 F1800 E336.574
G1 F236
G0 X110.581 Y119.417
G0 X110.344 Y119.908
G0 X110.581 Y119.417
G0 X110.558 Y119.164
;rapid-dry
G1 F236
G0 X113.106 Y110.657
G1 F1800 E346.574
;bead-support-structure
G1 Y123.961 F4161 E346.906
G1 X112.481 Y124.397 E346.925
G1 X112.174 Y123.957 E346.938
G1 X112.173 Y109.45 E347.3
G1 X112.402 Y109.139 E347.31
G1 X113.106 Y109.657 E347.332
G1 X113.634 Y108.747 E347.358
G1 X113.689 Y108.62 E347.361
G1 X113.432 Y108.598 E347.368
G1 F1800 E337.368
G1 F236
G0 X113.689 Y108.62
G0 X113.634 Y108.747
G0 X113.431 Y109.096
G0 X113.634 Y108.747
G0 X113.689 Y108.62
G0 X113.432 Y108.598
;rapid-dry
G1 F236
G0 X112.525 Y97.696
G1 F1800 E347.368
;bead-perimeter_inner
G1 X95.885 Y107.251 F1546 E348.006
G1 X95.637 Y106.823 E348.022
G1 X112.244 Y97.21 E348.661
G1 X112.525 Y97.696 E348.679
;rapid-leaky
G1 F236
G0 X113.024 Y97.83
;bead-perimeter_outer
G1 X95.75 Y107.749 F1070 E349.342
G1 X95.139 Y106.69 E349.383
G1 X112.378 Y96.71 E350.045
G1 X113.024 Y97.83 E350.088
G1 F1800 E340.088
;rapid-dry
G1 F236
G0 X121.389 Y77.947
G1 F1800 E350.088
;bead-support-structure
G1 X121.695 Y78.049 F4161 E350.096
G1 X122.009 Y78.205 E350.105
G1 X122.291 Y78.411 E350.114
G1 X122.459 Y78.575 E350.119
G1 X122.606 Y79.172 E350.135
G1 X123.077 Y79.743 E350.153
G1 X122.904 Y78.345 E350.188
G1 X122.818 Y78.226 E350.192
G1 X122.763 Y78.003 E350.198
G1 X122.56 Y77.578 E350.209
G1 X122.843 Y77.048 E350.224
G1 X123.201 Y76.979 E350.234
G1 X123.266 Y76.945 E350.235
G1 X123.387 Y76.662 E350.243
G1 X123.341 Y76.358 E350.251
G1 X123.296 Y76.356 E350.252
G1 X123.098 Y76.286 E350.257
G1 X122.924 Y76.159 E350.262
G1 X122.845 Y76.062 E350.266
G1 X122.38 Y76.28 E350.278
G1 X122.411 Y76.607 E350.287
G1 X122.517 Y76.847 E350.293
G1 X122.206 Y77.38 E350.309
G1 X121.848 Y77.381 E350.317
G1 X121.491 Y77.462 E350.327
G1 X121.32 Y77.438 E350.331
G1 F1800 E340.331
G1 F236
G0 X121.491 Y77.462
G0 X121.848 Y77.381
G0 X122.109 Y77.38
G0 X121.848 Y77.381
G0 X121.491 Y77.462
G0 X121.32 Y77.438
;rapid-dry
G1 F236
G0 X74.353 Y106.481
G1 F1800 E350.331
;bead-support-structure
G1 X74.274 Y106.269 F4161 E350.337
G1 X74.207 Y105.926 E350.345
G1 X74.199 Y105.596 E350.354
G1 X74.252 Y105.257 E350.362
G1 X74.352 Y104.961 E350.37
G1 X73.762 Y104.876 E350.385
G1 X73.463 Y105.134 E350.395
G1 X72.951 Y105.168 E350.407
G1 X72.191 Y105.337 E350.427
G1 X72.237 Y105.42 E350.429
G1 X72.288 Y105.637 E350.435
G1 X72.283 Y105.855 E350.44
G1 X72.194 Y106.101 E350.447
G1 X72.746 Y106.366 E350.462
G1 X72.94 Y106.266 E350.467
G1 X73.447 Y106.278 E350.48
G1 X73.786 Y106.579 E350.491
G1 F1800 E340.491
G1 F236
G0 X73.447 Y106.278
G0 X73.1 Y106.27
G0 X73.447 Y106.278
G0 X73.786 Y106.579
;rapid-dry
G1 F236
G0 X123.419 Y156.802
G1 F1800 E350.491
;bead-support-structure
G1 X123.369 Y156.77 F4161 E350.493
G1 X123.046 Y156.649 E350.501
G1 X122.846 Y156.642 E350.507
G1 X122.529 Y156.095 E350.522
G1 X122.683 Y155.864 E350.529
G1 X122.83 Y155.438 E350.54
G1 X122.921 Y155.299 E350.545
G1 X122.461 Y155.101 E350.557
G1 X122.152 Y155.369 E350.567
G1 X121.862 Y155.546 E350.576
G1 X121.359 Y155.732 E350.589
G1 X121.328 Y156.225 E350.601
G1 X121.501 Y156.21 E350.606
G1 X121.619 Y156.247 E350.609
G1 X122.236 Y156.322 E350.624
G1 X122.494 Y156.802 E350.638
G1 X122.38 Y157.233 E350.649
G1 X122.378 Y157.415 E350.654
G1 X122.862 Y157.581 E350.666
G1 X123.007 Y157.441 E350.671
G1 X123.194 Y157.342 E350.677
G1 X123.349 Y157.312 E350.681
G1 F1800 E340.681
G1 F236
G0 X123.194 Y157.342
G0 X123.007 Y157.441
G0 X122.862 Y157.581
G0 X122.646 Y157.507
G0 X122.862 Y157.581
G0 X123.007 Y157.441
G0 X123.194 Y157.342
G0 X123.349 Y157.312
;Layer : 5 of 178
;rapid-dry
G1 F236
G0 Z1.1
G1 F1800 E350.681
;bead-support-structure
G1 X123.194 Y157.342 F4200 E350.685
G1 X123.007 Y157.441 E350.69
G1 X122.862 Y157.581 E350.695
G1 X122.378 Y157.415 E350.708
G1 X122.38 Y157.233 E350.712
G1 X122.494 Y156.802 E350.723
G1 X122.236 Y156.322 E350.737
G1 X121.619 Y156.247 E350.752
G1 X121.501 Y156.21 E350.756
G1 X121.328 Y156.225 E350.76
G1 X121.359 Y155.732 E350.772
G1 X121.862 Y155.546 E350.786
G1 X122.152 Y155.369 E350.794
G1 X122.461 Y155.101 E350.804
G1 X122.921 Y155.299 E350.817
G1 X122.83 Y155.438 E350.821
G1 X122.683 Y155.864 E350.832
G1 X122.529 Y156.095 E350.839
G1 X122.846 Y156.642 E350.855
G1 X123.046 Y156.649 E350.86
G1 X123.369 Y156.77 E350.868
G1 X123.419 Y156.802 E350.87
G1 F1800 E340.87
G1 F236
G0 X123.369 Y156.77
G0 X123.046 Y156.649
G0 X122.846 Y156.642
G0 X122.748 Y156.473
G0 X122.846 Y156.642
G0 X123.046 Y156.649
G0 X123.369 Y156.77
G0 X123.419 Y156.802
;rapid-dry
G1 F236
G0 X112.174 Y136.585
G1 F1800 E350.87
;bead-perimeter_inner
G1 X95.567 Y126.97 F1560 E351.508
G1 X96.029 Y126.175 E351.539
G1 X112.667 Y135.73 E352.177
G1 X112.174 Y136.585 E352.21
;rapid-leaky
G1 F236
G0 X112.307 Y137.084
;bead-perimeter_outer
G1 X95.068 Y127.103 F1080 E352.872
G1 X95.895 Y125.678 E352.927
G1 X113.167 Y135.596 E353.589
G1 X112.307 Y137.084 E353.647
;rapid-leaky
G1 F236
G0 X105.969 Y132.622
;bead-sparse_infill
G1 X105.539 Y132.005 F3600 E353.672
G1 F1800 E343.672
;rapid-dry
G1 F236
G0 X110.558 Y119.164
G1 F1800 E353.672
;bead-support-structure
G1 X110.581 Y119.417 F4200 E353.678
G1 X109.067 Y122.549 E353.765
G1 Y110.818 E354.057
G1 X104.848 Y113.338 E354.18
G1 X105.158 Y113.597 E354.19
G1 X104.727 Y114.533 E354.216
G1 X104.842 Y114.97 E354.227
G1 X105.94 Y117.218 E354.289
G1 X106.03 Y117.144 E354.292
G1 X105.037 Y115.026 E354.351
G1 X104.901 Y114.596 E354.362
G1 X104.73 Y114.202 E354.373
G1 X104.571 Y114.078 E354.378
G1 X104.363 Y113.719 E354.388
G1 X102.015 Y115.33 E354.459
G1 X101.732 Y115.942 E354.476
G1 X100.93 Y116.724 E354.504
G1 X100.12 Y116.349 E354.526
G1 X99.93 Y116.486 E354.532
G1 X100.03 Y117.412 E354.555
G1 X100.25 Y117.347 E354.561
G1 X100.315 Y118.418 E354.588
G1 X108.188 Y122.878 E354.813
G1 X109.136 Y123.54 E354.842
G1 X109.586 Y123.901 E354.857
G1 X110.029 Y124.297 E354.871
G1 X111.454 Y124.786 E354.909
G1 X111.151 Y124.415 E354.921
G1 X110.789 Y123.922 E354.936
G1 X110.45 Y123.389 E354.952
G1 X110.289 Y123.108 E354.96
G1 X110.193 Y122.879 E354.966
G1 X110.072 Y122.438 E354.978
G1 Y110.816 E355.268
G1 X110.233 Y110.315 E355.281
G1 X110.587 Y109.729 E355.298
G1 X111.009 Y109.164 E355.315
G1 X111.294 Y108.835 E355.326
G1 F1800 E345.326
G1 F236
G0 X111.009 Y109.164
G0 X110.791 Y109.456
G0 X111.009 Y109.164
G0 X111.294 Y108.835
;rapid-dry
G1 F236
G0 X109.531 Y109.536
G1 F1800 E355.326
;bead-support-structure
G1 X109.193 Y109.808 F4200 E355.337
G1 X108.249 Y110.442 E355.365
G1 X99.537 Y115.399 E355.615
G1 F1800 E345.615
G1 F236
G0 X100.232 Y115.003
G0 X99.537 Y115.399
;rapid-dry
G1 F236
G0 X99.039 Y117.971
G1 F1800 E355.615
;bead-support-structure
G1 X98.743 Y118.003 F4200 E355.623
G1 X98.601 Y118.576 E355.638
G1 F1800 E345.638
G1 F236
G0 X98.743 Y118.003
G0 X98.951 Y117.98
G0 X98.743 Y118.003
G0 X98.601 Y118.576
;rapid-dry
G1 F236
G0 X98.397 Y119.143
G1 F1800 E355.638
;bead-support-structure
G1 X98.497 Y118.885 F4200 E355.644
G1 X98.618 Y118.507 E355.654
G1 X98.885 Y117.393 E355.683
G1 F1800 E345.683
G1 F236
G0 X98.698 Y118.171
G0 X98.885 Y117.393
;rapid-dry
G1 F236
G0 X96.026 Y107.496
G1 F1800 E355.683
;bead-perimeter_inner
G1 X95.567 Y106.701 F1560 E355.713
G1 X112.174 Y97.086 E356.352
G1 X112.667 Y97.941 E356.385
G1 X96.026 Y107.496 E357.023
;rapid-leaky
G1 F236
G0 X95.892 Y107.994
;bead-perimeter_outer
G1 X95.068 Y106.568 F1080 E357.078
G1 X112.307 Y96.587 E357.74
G1 X113.167 Y98.075 E357.797
G1 X95.892 Y107.994 E358.46
;rapid-leaky
G1 F236
G0 X99.076 Y105.376
;bead-sparse_infill
G1 X98.979 Y105.095 F3600 E358.47
G1 X104.584 Y101.85 E358.685
G1 X104.797 Y102.091 E358.696
G1 X110.165 Y99.009 E358.902
G1 X110.152 Y98.863 E358.906
G1 X110.254 Y98.568 E358.917
G1 F1800 E348.917
;rapid-dry
G1 F236
G0 X121.32 Y77.438
G1 F1800 E358.917
;bead-support-structure
G1 X121.491 Y77.462 F4200 E358.921
G1 X121.848 Y77.381 E358.93
G1 X122.206 Y77.38 E358.939
G1 X122.517 Y76.847 E358.955
G1 X122.411 Y76.607 E358.961
G1 X122.38 Y76.28 E358.969
G1 X122.845 Y76.062 E358.982
G1 X122.924 Y76.159 E358.985
G1 X123.098 Y76.286 E358.991
G1 X123.296 Y76.356 E358.996
G1 X123.341 Y76.358 E358.997
G1 X123.387 Y76.662 E359.005
G1 X123.266 Y76.945 E359.012
G1 X123.201 Y76.979 E359.014
G1 X122.843 Y77.048 E359.023
G1 X122.56 Y77.578 E359.038
G1 X122.763 Y78.003 E359.05
G1 X122.818 Y78.226 E359.056
G1 X122.904 Y78.345 E359.059
G1 X123.077 Y79.743 E359.095
G1 X122.606 Y79.172 E359.113
G1 X122.459 Y78.575 E359.128
G1 X122.291 Y78.411 E359.134
G1 X122.009 Y78.205 E359.143
G1 X121.695 Y78.049 E359.152
G1 X121.389 Y77.947 E359.16
G1 F1800 E349.16
G1 F236
G0 X121.695 Y78.049
G0 X122.009 Y78.205
G0 X122.112 Y78.28
G0 X122.009 Y78.205
G0 X121.695 Y78.049
G0 X121.389 Y77.947
;rapid-dry
G1 F236
G0 X113.432 Y108.598
G1 F1800 E359.16
;bead-support-structure
G1 X113.689 Y108.62 F4200 E359.166
G1 X113.634 Y108.747 E359.17
G1 X113.106 Y109.657 E359.196
G1 X112.402 Y109.139 E359.218
G1 X112.173 Y109.45 E359.227
G1 X112.174 Y123.957 E359.589
G1 X112.481 Y124.397 E359.603
G1 X113.106 Y123.961 E359.622
G1 Y110.657 E359.953
G1 F1800 E349.953
G1 F236
G0 Y111.457
G0 Y110.657
;rapid-dry
G1 F236
G0 X74.353 Y106.481
G1 F1800 E359.953
;bead-support-structure
G1 X74.274 Y106.269 F4200 E359.959
G1 X74.207 Y105.926 E359.968
G1 X74.199 Y105.596 E359.976
G1 X74.252 Y105.257 E359.985
G1 X74.352 Y104.961 E359.992
G1 X73.762 Y104.876 E360.007
G1 X73.463 Y105.134 E360.017
G1 X72.951 Y105.168 E360.03
G1 X72.191 Y105.337 E360.049
G1 X72.237 Y105.42 E360.052
G1 X72.288 Y105.637 E360.057
G1 X72.283 Y105.855 E360.063
G1 X72.194 Y106.101 E360.069
G1 X72.746 Y106.366 E360.085
G1 X72.94 Y106.266 E360.09
G1 X73.447 Y106.278 E360.103
G1 X73.786 Y106.579 E360.114
