;1001
;Printer name: Creality Ender 3 V2
;Print time: 28m:25s
;Extruder 1 material used: 1154mm
;Extruder 1 material name: PVA 1.75mm
;Extruder 1 filament diameter: 1.75mm
;Extruder 1 nozzle diameter: 0.4mm
;Extruder 1 offset x: 0mm
;Extruder 1 offset y: 0mm
;Extruder 1 offset z: 0mm
;Extruder 1 max temp: 220
;Bed temp: 60
;Layer count: 50
;Width: 220mm
;Depth: 220mm
;Height: 250mm
;Center x: 110mm
;Center y: 110mm
;Center z: 0mm
;Count of bodies: 1
;Fusion version: 2.0.10032
;--------------------------------
;Selected Profile: PVA 1.75mm, 0.4mm Nozzle
;Selected Printer: Creality, Ender 3 V2
;--------------------------------
T0
M140 S60
M190 S60
M104 S220 T0
M105
M109 S220 T0
G1 F236
G21
G90
M82
;Reset multiplier
M220 S100
M221 S100
;Enable auto bed leveling
M420 S1 Z2
G28
G1 Z10
G92 E0
G0 X10 Y10 Z10
G92 E0
;--------------------------------
;Layer : 1 of 50
M107
;rapid-leaky
G0 X20 Y20.8 Z0.3
G1 F1800 E10
;bead-prime
G1 X200 F270 E45.921
G1 F1800 E35.921
;rapid-dry
G1 F236
G0 X123.992 Y87.881
G1 F1800 E45.921
;bead-skirt/brim
G1 Y102.558 F780 E46.653
G1 X124.023 Y103.472 E46.699
G1 X124.102 Y104.28 E46.739
G1 X124.238 Y105.102 E46.781
G1 X124.426 Y105.911 E46.822
G1 X124.668 Y106.706 E46.864
G1 X124.962 Y107.486 E46.905
G1 X125.304 Y108.243 E46.947
G1 X125.697 Y108.976 E46.988
G1 X126.135 Y109.683 E47.03
G1 X126.62 Y110.358 E47.071
G1 X127.147 Y111 E47.113
G1 X127.758 Y111.652 E47.157
G1 X135.458 Y119.353 E47.701
G1 X141.953 Y112.858 E48.159
G1 X149.332 Y120.237 E48.679
G1 X147.584 Y121.985 E48.803
G1 X148.497 Y122.897 E48.867
G1 X140.125 Y131.268 E49.458
G1 X139.212 Y130.356 E49.522
G1 X135.875 Y133.693 E49.758
G1 X113.217 Y111.035 E51.356
G1 Y103.756 E51.719
G1 X114.487 E51.783
G1 Y97.386 E52.101
G1 X105.577 E52.545
G1 Y103.756 E52.863
G1 X106.847 E52.926
G1 Y111.048 E53.29
G1 X84.044 Y133.581 E54.889
G1 X80.776 Y130.274 E55.121
G1 X79.858 Y131.18 E55.186
G1 X71.542 Y122.764 E55.776
G1 X72.46 Y121.857 E55.84
G1 X70.667 Y120.043 E55.968
G1 X78.083 Y112.72 E56.488
G1 X84.621 Y119.337 E56.952
G1 X92.306 Y111.652 E57.494
G1 X92.917 Y111 E57.538
G1 X93.443 Y110.359 E57.58
G1 X93.928 Y109.683 E57.621
G1 X94.367 Y108.976 E57.663
G1 X94.759 Y108.243 E57.704
G1 X95.103 Y107.484 E57.746
G1 X95.396 Y106.707 E57.787
G1 X95.637 Y105.911 E57.829
G1 X95.826 Y105.1 E57.87
G1 X95.961 Y104.282 E57.912
G1 X96.042 Y103.454 E57.953
G1 X96.072 Y102.559 E57.998
G1 Y87.881 E58.73
G1 X123.992 E60.123
;rapid-leaky
G1 F236
G0 X123.592 Y88.281
;bead-skirt/brim
G1 Y102.565 F780 E60.836
G1 X123.623 Y103.499 E60.882
G1 X123.706 Y104.333 E60.924
G1 X123.846 Y105.18 E60.967
G1 X124.04 Y106.014 E61.01
G1 X124.289 Y106.834 E61.053
G1 X124.592 Y107.639 E61.095
G1 X124.945 Y108.42 E61.138
G1 X125.35 Y109.176 E61.181
G1 X125.803 Y109.905 E61.224
G1 X126.302 Y110.602 E61.267
G1 X126.846 Y111.264 E61.309
G1 X127.471 Y111.93 E61.355
G1 X135.458 Y119.919 E61.918
G1 X141.953 Y113.424 E62.377
G1 X148.766 Y120.237 E62.857
G1 X147.018 Y121.985 E62.981
G1 X147.931 Y122.897 E63.045
G1 X140.125 Y130.702 E63.596
G1 X139.212 Y129.79 E63.66
G1 X135.875 Y133.127 E63.896
G1 X113.617 Y110.869 E65.466
G1 Y104.156 E65.801
G1 X114.887 E65.864
G1 Y96.986 E66.222
G1 X105.177 E66.707
G1 Y104.156 E67.064
G1 X106.447 E67.128
G1 Y110.881 E67.463
G1 X84.047 Y133.015 E69.034
G1 X80.779 Y129.708 E69.266
G1 X79.862 Y130.615 E69.331
G1 X72.108 Y122.767 E69.881
G1 X73.025 Y121.86 E69.945
G1 X71.233 Y120.046 E70.073
G1 X78.079 Y113.285 E70.553
G1 X84.619 Y119.904 E71.017
G1 X92.593 Y111.93 E71.579
G1 X93.218 Y111.264 E71.625
G1 X93.761 Y110.603 E71.668
G1 X94.26 Y109.905 E71.71
G1 X94.714 Y109.176 E71.753
G1 X95.118 Y108.42 E71.796
G1 X95.473 Y107.637 E71.839
G1 X95.775 Y106.836 E71.882
G1 X96.023 Y106.015 E71.924
G1 X96.219 Y105.178 E71.967
G1 X96.358 Y104.334 E72.01
G1 X96.442 Y103.48 E72.053
G1 X96.472 Y102.565 E72.098
G1 Y88.281 E72.811
G1 X123.592 E74.164
;rapid-leaky
G1 F236
G0 X123.192 Y88.681
;bead-skirt/brim
G1 Y102.572 F780 E74.857
G1 X123.224 Y103.525 E74.905
G1 X123.309 Y104.385 E74.948
G1 X123.453 Y105.258 E74.992
G1 X123.653 Y106.118 E75.036
G1 X123.91 Y106.963 E75.08
G1 X124.222 Y107.792 E75.124
G1 X124.586 Y108.597 E75.168
G1 X125.004 Y109.376 E75.212
G1 X125.47 Y110.127 E75.257
G1 X125.985 Y110.845 E75.301
G1 X126.545 Y111.528 E75.345
G1 X127.183 Y112.209 E75.391
G1 X135.458 Y120.484 E75.975
G1 X141.953 Y113.989 E76.433
G1 X148.201 Y120.237 E76.874
G1 X146.452 Y121.986 E76.998
G1 X147.365 Y122.897 E77.062
G1 X140.125 Y130.136 E77.573
G1 X139.212 Y129.224 E77.637
G1 X135.875 Y132.562 E77.873
G1 X114.017 Y110.704 E79.415
G1 Y104.556 E79.721
G1 X115.287 E79.785
G1 Y96.586 E80.182
G1 X104.777 E80.707
G1 Y104.556 E81.104
G1 X106.047 E81.168
G1 Y110.714 E81.475
G1 X84.051 Y132.45 E83.018
G1 X80.783 Y129.142 E83.25
G1 X79.865 Y130.049 E83.314
G1 X72.673 Y122.77 E83.825
G1 X73.591 Y121.863 E83.889
G1 X71.799 Y120.05 E84.016
G1 X78.076 Y113.851 E84.456
G1 X84.618 Y120.472 E84.921
G1 X92.881 Y112.209 E85.504
G1 X93.519 Y111.528 E85.55
G1 X94.078 Y110.846 E85.594
G1 X94.593 Y110.127 E85.638
G1 X95.06 Y109.376 E85.682
G1 X95.477 Y108.597 E85.726
G1 X95.842 Y107.791 E85.771
G1 X96.154 Y106.964 E85.815
G1 X96.41 Y106.118 E85.859
G1 X96.611 Y105.256 E85.903
G1 X96.755 Y104.386 E85.947
G1 X96.841 Y103.506 E85.991
G1 X96.872 Y102.572 E86.038
G1 Y88.681 E86.731
G1 X123.192 E88.044
;rapid-leaky
G1 F236
G0 X122.792 Y89.081
;bead-skirt/brim
G1 Y102.578 F780 E88.717
G1 X122.825 Y103.552 E88.766
G1 X122.912 Y104.437 E88.81
G1 X123.06 Y105.336 E88.856
G1 X123.267 Y106.222 E88.901
G1 X123.531 Y107.092 E88.946
G1 X123.853 Y107.945 E88.992
G1 X124.227 Y108.774 E89.037
G1 X124.657 Y109.577 E89.083
G1 X125.137 Y110.35 E89.128
G1 X125.667 Y111.089 E89.173
G1 X126.244 Y111.792 E89.219
G1 X126.896 Y112.487 E89.266
G1 X135.458 Y121.05 E89.871
G1 X141.953 Y114.555 E90.329
G1 X147.635 Y120.237 E90.73
G1 X145.886 Y121.986 E90.853
G1 X146.799 Y122.897 E90.917
G1 X140.125 Y129.571 E91.388
G1 X139.212 Y128.659 E91.453
G1 X135.875 Y131.996 E91.688
G1 X114.417 Y110.538 E93.202
G1 Y104.956 E93.481
G1 X115.687 E93.544
G1 Y96.186 E93.981
G1 X104.377 E94.546
G1 Y104.956 E94.983
G1 X105.647 E95.047
G1 Y110.547 E95.326
G1 X84.054 Y131.884 E96.84
G1 X80.786 Y128.577 E97.072
G1 X79.869 Y129.483 E97.136
G1 X73.239 Y122.774 E97.607
G1 X74.156 Y121.867 E97.671
G1 X72.365 Y120.053 E97.798
G1 X78.073 Y114.417 E98.199
G1 X84.616 Y121.039 E98.663
G1 X93.168 Y112.487 E99.267
G1 X93.82 Y111.792 E99.314
G1 X94.396 Y111.09 E99.359
G1 X94.926 Y110.35 E99.405
G1 X95.407 Y109.577 E99.45
G1 X95.836 Y108.774 E99.496
G1 X96.212 Y107.944 E99.541
G1 X96.533 Y107.093 E99.586
G1 X96.796 Y106.222 E99.632
G1 X97.004 Y105.335 E99.677
G1 X97.152 Y104.438 E99.723
G1 X97.24 Y103.532 E99.768
G1 X97.272 Y102.579 E99.816
G1 Y89.081 E100.489
G1 X122.792 E101.762
;rapid-leaky
G1 F236
G0 X122.392 Y89.481
;bead-skirt/brim
G1 Y102.585 F780 E102.416
G1 X122.425 Y103.578 E102.466
G1 X122.515 Y104.49 E102.511
G1 X122.668 Y105.414 E102.558
G1 X122.88 Y106.325 E102.605
G1 X123.152 Y107.221 E102.651
G1 X123.483 Y108.098 E102.698
G1 X123.868 Y108.951 E102.745
G1 X124.31 Y109.777 E102.792
G1 X124.804 Y110.572 E102.838
G1 X125.35 Y111.333 E102.885
G1 X125.944 Y112.056 E102.932
G1 X126.609 Y112.765 E102.98
G1 X135.458 Y121.616 E103.605
G1 X141.953 Y115.121 E104.063
G1 X147.069 Y120.237 E104.424
G1 X145.32 Y121.986 E104.547
G1 X146.233 Y122.897 E104.612
G1 X140.125 Y129.005 E105.043
G1 X139.212 Y128.093 E105.107
G1 X135.875 Y131.43 E105.342
G1 X114.817 Y110.372 E106.828
G1 Y105.356 E107.078
G1 X116.087 E107.142
G1 Y95.786 E107.619
G1 X103.977 E108.223
G1 Y105.356 E108.701
G1 X105.247 E108.764
G1 Y110.38 E109.015
G1 X84.057 Y131.318 E110.501
G1 X80.79 Y128.011 E110.733
G1 X79.872 Y128.918 E110.797
G1 X73.804 Y122.777 E111.228
G1 X74.722 Y121.87 E111.292
G1 X72.93 Y120.057 E111.42
G1 X78.069 Y114.982 E111.78
G1 X84.614 Y121.606 E112.244
G1 X93.455 Y112.765 E112.868
G1 X94.12 Y112.056 E112.917
G1 X94.714 Y111.333 E112.963
G1 X95.259 Y110.572 E113.01
G1 X95.754 Y109.777 E113.057
G1 X96.195 Y108.951 E113.104
G1 X96.582 Y108.097 E113.15
G1 X96.912 Y107.222 E113.197
G1 X97.183 Y106.325 E113.244
G1 X97.396 Y105.413 E113.29
G1 X97.549 Y104.491 E113.337
G1 X97.64 Y103.558 E113.384
G1 X97.672 Y102.585 E113.432
G1 Y89.481 E114.086
G1 X122.392 E115.319
;rapid-leaky
G1 F236
G0 X121.992 Y89.881
;bead-skirt/brim
G1 Y102.592 F780 E115.954
G1 X122.026 Y103.604 E116.004
G1 X122.119 Y104.542 E116.051
G1 X122.275 Y105.492 E116.099
G1 X122.494 Y106.429 E116.147
G1 X122.773 Y107.349 E116.195
G1 X123.113 Y108.251 E116.243
G1 X123.509 Y109.128 E116.291
G1 X123.964 Y109.977 E116.339
G1 X124.472 Y110.794 E116.387
G1 X125.033 Y111.576 E116.435
G1 X125.643 Y112.32 E116.483
G1 X126.321 Y113.044 E116.533
G1 X135.458 Y122.181 E117.178
G1 X141.953 Y115.686 E117.636
G1 X146.504 Y120.237 E117.957
G1 X144.755 Y121.986 E118.08
G1 X145.667 Y122.898 E118.145
G1 X140.125 Y128.439 E118.536
G1 X139.212 Y127.527 E118.6
G1 X135.875 Y130.865 E118.835
G1 X115.217 Y110.207 E120.293
G1 Y105.756 E120.515
G1 X116.487 E120.578
G1 Y95.386 E121.096
G1 X103.577 E121.74
G1 Y105.756 E122.257
G1 X104.847 E122.321
G1 Y110.213 E122.543
G1 X84.061 Y130.753 E124.001
G1 X80.793 Y127.445 E124.233
G1 X79.875 Y128.352 E124.297
G1 X74.37 Y122.78 E124.688
G1 X75.287 Y121.873 E124.752
G1 X73.496 Y120.06 E124.879
G1 X78.066 Y115.548 E125.2
G1 X84.613 Y122.174 E125.665
G1 X93.743 Y113.044 E126.309
G1 X94.421 Y112.32 E126.358
G1 X95.031 Y111.577 E126.406
G1 X95.592 Y110.794 E126.454
G1 X96.1 Y109.977 E126.502
G1 X96.554 Y109.128 E126.55
G1 X96.951 Y108.25 E126.598
G1 X97.291 Y107.35 E126.646
G1 X97.569 Y106.429 E126.694
G1 X97.789 Y105.491 E126.742
G1 X97.945 Y104.543 E126.79
G1 X98.039 Y103.584 E126.838
G1 X98.072 Y102.592 E126.888
G1 Y89.881 E127.522
G1 X121.992 E128.715
;rapid-leaky
G1 F236
G0 X121.592 Y90.281
;bead-skirt/brim
G1 Y102.598 F780 E129.33
G1 X121.627 Y103.631 E129.381
G1 X121.722 Y104.594 E129.43
G1 X121.883 Y105.57 E129.479
G1 X122.107 Y106.532 E129.528
G1 X122.394 Y107.478 E129.578
G1 X122.743 Y108.404 E129.627
G1 X123.15 Y109.305 E129.676
G1 X123.617 Y110.177 E129.726
G1 X124.139 Y111.017 E129.775
G1 X124.715 Y111.82 E129.824
G1 X125.342 Y112.584 E129.874
G1 X126.034 Y113.322 E129.924
G1 X135.458 Y122.747 E130.589
G1 X141.953 Y116.252 E131.047
G1 X145.938 Y120.237 E131.329
G1 X144.189 Y121.986 E131.452
G1 X145.101 Y122.898 E131.516
G1 X140.125 Y127.874 E131.867
G1 X139.212 Y126.962 E131.932
G1 X135.875 Y130.299 E132.167
G1 X115.617 Y110.041 E133.597
G1 Y106.156 E133.79
G1 X116.887 E133.854
G1 Y94.986 E134.411
G1 X103.177 E135.095
G1 Y106.156 E135.652
G1 X104.447 E135.716
G1 Y110.046 E135.91
G1 X84.064 Y130.187 E137.339
G1 X80.796 Y126.88 E137.571
G1 X79.879 Y127.786 E137.636
G1 X74.936 Y122.783 E137.987
G1 X75.853 Y121.876 E138.051
G1 X74.062 Y120.064 E138.178
G1 X78.062 Y116.113 E138.458
G1 X84.611 Y122.741 E138.923
G1 X94.03 Y113.322 E139.588
G1 X94.722 Y112.584 E139.638
G1 X95.349 Y111.82 E139.688
G1 X95.924 Y111.017 E139.737
G1 X96.447 Y110.177 E139.786
G1 X96.913 Y109.305 E139.836
G1 X97.321 Y108.404 E139.885
G1 X97.67 Y107.479 E139.934
G1 X97.956 Y106.532 E139.984
G1 X98.181 Y105.569 E140.033
G1 X98.342 Y104.595 E140.082
G1 X98.438 Y103.611 E140.132
G1 X98.472 Y102.599 E140.182
G1 Y90.281 E140.797
G1 X121.592 E141.95
;rapid-leaky
G1 F236
G0 X121.192 Y90.681
;bead-skirt/brim
G1 Y102.605 F780 E142.545
G1 X121.227 Y103.657 E142.598
G1 X121.325 Y104.646 E142.647
G1 X121.49 Y105.648 E142.698
G1 X121.72 Y106.636 E142.748
G1 X122.015 Y107.607 E142.799
G1 X122.373 Y108.557 E142.85
G1 X122.791 Y109.482 E142.9
G1 X123.271 Y110.377 E142.951
G1 X123.806 Y111.239 E143.002
G1 X124.398 Y112.064 E143.052
G1 X125.041 Y112.848 E143.103
G1 X125.746 Y113.6 E143.154
G1 X135.458 Y123.313 E143.839
G1 X141.953 Y116.818 E144.298
G1 X145.372 Y120.237 E144.539
G1 X143.623 Y121.986 E144.662
G1 X144.535 Y122.898 E144.727
G1 X140.125 Y127.308 E145.038
G1 X139.212 Y126.396 E145.102
G1 X135.875 Y129.733 E145.338
G1 X116.017 Y109.875 E146.739
G1 Y106.556 E146.904
G1 X117.287 E146.968
G1 Y94.586 E147.565
G1 X102.777 E148.289
G1 Y106.556 E148.886
G1 X104.047 E148.949
G1 Y109.879 E149.115
G1 X84.068 Y129.621 E150.517
G1 X80.8 Y126.314 E150.749
G1 X79.882 Y127.221 E150.813
G1 X75.501 Y122.787 E151.124
G1 X76.418 Y121.88 E151.188
G1 X74.628 Y120.067 E151.315
G1 X78.059 Y116.679 E151.556
G1 X84.609 Y123.309 E152.021
G1 X94.318 Y113.6 E152.706
G1 X95.023 Y112.848 E152.757
G1 X95.666 Y112.064 E152.808
G1 X96.257 Y111.239 E152.858
G1 X96.793 Y110.377 E152.909
G1 X97.272 Y109.482 E152.96
G1 X97.691 Y108.557 E153.01
G1 X98.049 Y107.607 E153.061
G1 X98.343 Y106.636 E153.112
G1 X98.574 Y105.647 E153.162
G1 X98.739 Y104.647 E153.213
G1 X98.838 Y103.637 E153.264
G1 X98.872 Y102.605 E153.315
G1 Y90.681 E153.91
G1 X121.192 E155.024
;rapid-leaky
G1 F236
G0 X120.792 Y91.081
;bead-skirt/brim
G1 Y102.612 F780 E155.599
G1 X120.828 Y103.683 E155.652
G1 X120.928 Y104.699 E155.703
G1 X121.098 Y105.726 E155.755
G1 X121.334 Y106.74 E155.807
G1 X121.636 Y107.736 E155.859
G1 X122.004 Y108.71 E155.911
G1 X122.432 Y109.659 E155.963
G1 X122.924 Y110.577 E156.015
G1 X123.473 Y111.462 E156.067
G1 X124.08 Y112.307 E156.119
G1 X124.74 Y113.112 E156.171
G1 X125.459 Y113.879 E156.223
G1 X135.458 Y123.878 E156.929
G1 X141.953 Y117.383 E157.387
G1 X144.807 Y120.237 E157.588
G1 X143.057 Y121.986 E157.712
G1 X143.97 Y122.898 E157.776
G1 X140.125 Y126.743 E158.047
G1 X139.212 Y125.83 E158.112
G1 X135.875 Y129.168 E158.347
G1 X116.417 Y109.71 E159.72
G1 Y106.956 E159.857
G1 X117.687 E159.921
G1 Y94.186 E160.558
G1 X102.377 E161.322
G1 Y106.956 E161.959
G1 X103.647 E162.022
G1 Y109.712 E162.16
G1 X84.071 Y129.056 E163.533
G1 X80.803 Y125.748 E163.764
G1 X79.886 Y126.655 E163.829
G1 X76.067 Y122.79 E164.1
G1 X76.984 Y121.883 E164.164
G1 X75.193 Y120.071 E164.291
G1 X78.055 Y117.245 E164.492
G1 X84.608 Y123.876 E164.957
G1 X94.605 Y113.879 E165.663
G1 X95.324 Y113.112 E165.715
G1 X95.984 Y112.308 E165.767
G1 X96.59 Y111.461 E165.819
G1 X97.14 Y110.577 E165.871
G1 X97.631 Y109.659 E165.923
G1 X98.06 Y108.71 E165.975
G1 X98.428 Y107.736 E166.027
G1 X98.729 Y106.74 E166.079
G1 X98.966 Y105.726 E166.13
G1 X99.136 Y104.699 E166.182
G1 X99.237 Y103.663 E166.234
G1 X99.272 Y102.612 E166.287
G1 Y91.081 E166.862
G1 X120.792 E167.936
;rapid-leaky
G1 F236
G0 X120.392 Y91.481
;bead-skirt/brim
G1 Y102.619 F780 E168.491
G1 X120.429 Y103.71 E168.546
G1 X120.531 Y104.751 E168.598
G1 X120.705 Y105.804 E168.651
G1 X120.947 Y106.843 E168.704
G1 X121.257 Y107.865 E168.758
G1 X121.634 Y108.863 E168.811
G1 X122.073 Y109.836 E168.864
G1 X122.577 Y110.777 E168.918
G1 X123.14 Y111.684 E168.971
G1 X123.763 Y112.551 E169.024
G1 X124.439 Y113.376 E169.077
G1 X125.172 Y114.157 E169.131
G1 X135.458 Y124.444 E169.856
G1 X141.953 Y117.949 E170.315
G1 X144.241 Y120.237 E170.476
G1 X135.875 Y128.602 E171.066
G1 X116.817 Y109.544 E172.411
G1 Y107.356 E172.52
G1 X118.087 E172.584
G1 Y93.786 E173.261
G1 X101.977 E174.064
G1 Y107.356 E174.741
G1 X103.247 E174.805
G1 Y109.545 E174.914
G1 X84.074 Y128.49 E176.259
G1 X75.759 Y120.074 E176.849
G1 X78.052 Y117.81 E177.01
G1 X84.606 Y124.443 E177.475
G1 X94.892 Y114.157 E178.201
G1 X95.625 Y113.376 E178.254
G1 X96.301 Y112.551 E178.307
G1 X96.923 Y111.684 E178.36
G1 X97.487 Y110.777 E178.414
G1 X97.99 Y109.836 E178.467
G1 X98.43 Y108.863 E178.52
G1 X98.807 Y107.865 E178.573
G1 X99.116 Y106.843 E178.627
G1 X99.359 Y105.804 E178.68
G1 X99.533 Y104.751 E178.733
G1 X99.636 Y103.689 E178.786
G1 X99.672 Y102.619 E178.84
G1 Y91.481 E179.395
G1 X120.392 E180.429
;rapid-leaky
G1 F236
G0 X142.664 Y122.16
;bead-skirt/brim
G1 X143.404 Y122.898 F780 E180.481
G1 X140.125 Y126.177 E180.713
G1 X139.386 Y125.438 E180.765
G1 X140.96 Y123.864 E180.876
G1 X142.664 Y122.16 E180.996
;rapid-leaky
G1 F236
G0 X80.632 Y125.355
;bead-skirt/brim
G1 X79.889 Y126.089 F780 E181.048
G1 X76.632 Y122.793 E181.279
G1 X77.375 Y122.059 E181.331
G1 X78.791 Y123.492 E181.432
G1 X80.632 Y125.355 E181.563
G1 F1800 E171.563
;rapid-dry
G1 F236
G0 X84.603 Y125.528
G1 F1800 E181.563
;bead-perimeter_inner
G1 X95.442 Y114.689 F780 E182.327
G1 X96.2 Y113.881 E182.383
G1 X96.909 Y113.017 E182.438
G1 X97.559 Y112.109 E182.494
G1 X98.15 Y111.16 E182.55
G1 X98.676 Y110.174 E182.606
G1 X99.137 Y109.156 E182.661
G1 X99.531 Y108.111 E182.717
G1 X99.855 Y107.041 E182.773
G1 X100.109 Y105.953 E182.829
G1 X100.292 Y104.851 E182.884
G1 X100.4 Y103.739 E182.94
G1 X100.437 Y102.631 E182.995
G1 Y92.246 E183.514
G1 X119.627 E184.471
G1 Y102.631 E184.989
G1 X119.665 Y103.76 E185.045
G1 X119.773 Y104.851 E185.1
G1 X119.955 Y105.953 E185.156
G1 X120.208 Y107.041 E185.212
G1 X120.533 Y108.111 E185.267
G1 X120.927 Y109.156 E185.323
G1 X121.387 Y110.174 E185.379
G1 X121.914 Y111.16 E185.435
G1 X122.504 Y112.109 E185.49
G1 X123.156 Y113.017 E185.546
G1 X123.864 Y113.881 E185.602
G1 X124.622 Y114.689 E185.657
G1 X135.458 Y125.526 E186.422
G1 X141.953 Y119.031 E186.88
G1 X143.159 Y120.237 E186.965
G1 X135.875 Y127.52 E187.479
G1 X117.582 Y109.227 E188.77
G1 Y108.121 E188.825
G1 X118.852 E188.888
G1 Y93.021 E189.642
G1 X101.212 E190.522
G1 Y108.121 E191.275
G1 X102.482 E191.338
G1 Y109.225 E191.393
G1 X84.081 Y127.408 E192.684
G1 X76.841 Y120.081 E193.198
G1 X78.045 Y118.892 E193.282
G1 X84.603 Y125.528 E193.748
;rapid-leaky
G1 F236
G0 X84.604 Y125.011
;bead-perimeter_outer
G1 X95.18 Y114.435 F540 E194.494
G1 X95.925 Y113.64 E194.548
G1 X96.619 Y112.795 E194.603
G1 X97.255 Y111.906 E194.657
G1 X97.833 Y110.977 E194.712
G1 X98.348 Y110.012 E194.767
G1 X98.8 Y109.017 E194.821
G1 X99.185 Y107.993 E194.876
G1 X99.502 Y106.947 E194.93
G1 X99.751 Y105.882 E194.985
G1 X99.929 Y104.803 E195.039
G1 X100.036 Y103.715 E195.094
G1 X100.072 Y102.625 E195.148
G1 Y91.881 E195.684
G1 X119.992 E196.678
G1 Y102.625 E197.214
G1 X120.029 Y103.736 E197.27
G1 X120.135 Y104.803 E197.323
G1 X120.313 Y105.882 E197.378
G1 X120.561 Y106.947 E197.432
G1 X120.879 Y107.993 E197.487
G1 X121.264 Y109.017 E197.541
G1 X121.715 Y110.012 E197.596
G1 X122.231 Y110.977 E197.65
G1 X122.808 Y111.906 E197.705
G1 X123.445 Y112.795 E197.76
G1 X124.139 Y113.64 E197.814
G1 X124.884 Y114.435 E197.868
G1 X135.458 Y125.01 E198.615
G1 X141.953 Y118.515 E199.073
G1 X143.675 Y120.237 E199.194
G1 X135.875 Y128.036 E199.745
G1 X117.217 Y109.378 E201.061
G1 Y107.756 E201.142
G1 X118.487 E201.205
G1 Y93.386 E201.922
G1 X101.577 E202.766
G1 Y107.756 E203.483
G1 X102.847 E203.546
G1 Y109.377 E203.627
G1 X84.078 Y127.924 E204.943
G1 X76.325 Y120.078 E205.494
G1 X78.048 Y118.376 E205.615
G1 X84.604 Y125.011 E206.08
G1 F1800 E196.08
;rapid-dry
G1 F236
G0 X77.388 Y120.179
G1 F1800 E206.08
;bead-solid_infill
G1 X78.132 Y119.435 F1200 E206.133
G1 X78.413 Y119.72 E206.152
G1 X77.67 Y120.464 E206.205
G1 X77.951 Y120.749 E206.225
G1 X78.695 Y120.005 E206.277
G1 X78.976 Y120.289 E206.297
G1 X78.232 Y121.033 E206.35
G1 X78.513 Y121.318 E206.37
G1 X79.257 Y120.574 E206.422
G1 X79.538 Y120.858 E206.442
G1 X78.794 Y121.602 E206.495
G1 X79.075 Y121.887 E206.515
G1 X79.819 Y121.143 E206.567
G1 X80.1 Y121.427 E206.587
G1 X79.356 Y122.171 E206.64
G1 X79.638 Y122.456 E206.66
G1 X80.382 Y121.712 E206.712
G1 X80.663 Y121.996 E206.732
G1 X79.919 Y122.74 E206.785
G1 X80.2 Y123.025 E206.805
G1 X80.944 Y122.281 E206.857
G1 X81.225 Y122.565 E206.877
G1 X80.481 Y123.309 E206.929
G1 X80.762 Y123.594 E206.949
G1 X81.506 Y122.85 E207.002
G1 X81.787 Y123.134 E207.022
G1 X81.043 Y123.878 E207.074
G1 X81.324 Y124.163 E207.094
G1 X82.068 Y123.419 E207.147
G1 X82.35 Y123.704 E207.167
G1 X81.606 Y124.448 E207.219
G1 X81.887 Y124.732 E207.239
G1 X82.631 Y123.988 E207.292
G1 X82.912 Y124.273 E207.312
G1 X82.168 Y125.017 E207.364
G1 X82.449 Y125.301 E207.384
G1 X83.193 Y124.557 E207.437
G1 X83.474 Y124.842 E207.457
G1 X82.73 Y125.586 E207.509
G1 X83.011 Y125.87 E207.529
G1 X83.755 Y125.126 E207.581
G1 X84.036 Y125.411 E207.601
G1 X83.292 Y126.155 E207.654
G1 X83.574 Y126.439 E207.674
G1 X84.318 Y125.695 E207.726
G1 X84.599 Y125.98 E207.746
G1 X83.855 Y126.724 E207.799
G1 X84.083 Y126.955 E207.815
G1 X92.965 Y118.179 E208.438
G1 X102.162 Y108.982 E209.087
G1 Y108.441 E209.114
G1 X102.138 E209.115
G1 X95.747 Y114.831 E209.566
G1 X96.077 Y114.479 E209.59
G1 X96.441 Y114.092 E209.617
G1 X97.163 Y113.212 E209.673
G1 X97.825 Y112.287 E209.73
G1 X97.989 Y112.024 E209.746
G1 X101.572 Y108.441 E209.998
G1 X101.006 E210.027
G1 X98.77 Y110.677 E210.184
G1 X98.963 Y110.316 E210.205
G1 X99.293 Y109.589 E210.245
G1 X100.892 Y107.99 E210.357
G1 Y107.424 E210.386
G1 X99.673 Y108.643 E210.472
G1 X99.835 Y108.214 E210.495
G1 X99.964 Y107.786 E210.517
G1 X100.892 Y106.858 E210.582
G1 Y106.292 E210.611
G1 X100.196 Y106.988 E210.66
G1 X100.369 Y106.25 E210.698
G1 X100.892 Y105.727 E210.734
G1 Y105.161 E210.763
G1 X100.5 Y105.553 E210.79
G1 X100.609 Y104.892 E210.824
G1 X100.61 Y104.877 E210.825
G1 X100.892 Y104.595 E210.844
G1 Y104.03 E210.873
G1 X100.672 Y104.25 E210.888
G1 X100.72 Y103.76 E210.913
G1 X100.724 Y103.632 E210.919
G1 X100.892 Y103.464 E210.931
G1 Y102.898 E210.959
G1 X100.743 Y103.047 E210.97
G1 X100.757 Y102.637 E210.99
G1 Y102.468 E210.999
G1 X100.892 Y102.333 E211.008
G1 Y101.767 E211.036
G1 X100.757 Y101.902 E211.046
G1 Y101.336 E211.074
G1 X100.892 Y101.201 E211.084
G1 Y100.636 E211.112
G1 X100.757 Y100.771 E211.121
G1 Y100.205 E211.15
G1 X100.892 Y100.07 E211.159
G1 Y99.504 E211.187
G1 X100.757 Y99.639 E211.197
G1 Y99.074 E211.225
G1 X100.892 Y98.939 E211.235
G1 Y98.373 E211.263
G1 X100.757 Y98.508 E211.272
G1 Y97.942 E211.301
G1 X100.892 Y97.807 E211.31
G1 Y97.241 E211.338
G1 X100.757 Y97.376 E211.348
G1 Y96.811 E211.376
G1 X100.892 Y96.676 E211.386
G1 Y96.11 E211.414
G1 X100.757 Y96.245 E211.423
G1 Y95.679 E211.452
G1 X100.892 Y95.544 E211.461
G1 Y94.979 E211.489
G1 X100.757 Y95.114 E211.499
G1 Y94.548 E211.527
G1 X100.892 Y94.413 E211.537
G1 Y93.847 E211.565
G1 X100.757 Y93.982 E211.574
G1 Y93.417 E211.603
G1 X100.892 Y93.282 E211.612
G1 X100.757 Y92.851 E211.635
G1 X100.892 Y92.716 E211.644
G1 Y92.701 E211.645
G1 X100.907 E211.646
G1 X101.042 Y92.566 E211.655
G1 X101.608 E211.683
G1 X101.473 Y92.701 E211.693
G1 X102.038 E211.721
G1 X102.173 Y92.566 E211.731
G1 X102.739 E211.759
G1 X102.604 Y92.701 E211.768
G1 X103.17 E211.797
G1 X103.305 Y92.566 E211.806
G1 X103.87 E211.834
G1 X103.735 Y92.701 E211.844
G1 X104.301 E211.872
G1 X104.436 Y92.566 E211.882
G1 X105.002 E211.91
G1 X104.867 Y92.701 E211.919
G1 X105.432 E211.948
G1 X105.567 Y92.566 E211.957
G1 X106.133 E211.985
G1 X105.998 Y92.701 E211.995
G1 X106.564 E212.023
G1 X106.699 Y92.566 E212.033
G1 X107.265 E212.061
G1 X107.13 Y92.701 E212.07
G1 X107.695 E212.099
G1 X107.83 Y92.566 E212.108
G1 X108.396 E212.136
G1 X108.261 Y92.701 E212.146
G1 X108.827 E212.174
G1 X108.962 Y92.566 E212.184
G1 X109.527 E212.212
G1 X109.392 Y92.701 E212.221
G1 X109.958 E212.25
G1 X110.093 Y92.566 E212.259
G1 X110.659 E212.287
G1 X110.524 Y92.701 E212.297
G1 X111.089 E212.325
G1 X111.224 Y92.566 E212.335
G1 X111.79 E212.363
G1 X111.655 Y92.701 E212.372
G1 X112.221 E212.401
G1 X112.356 Y92.566 E212.41
G1 X112.921 E212.438
G1 X112.786 Y92.701 E212.448
G1 X113.352 E212.476
G1 X113.487 Y92.566 E212.486
G1 X114.053 E212.514
G1 X113.918 Y92.701 E212.523
G1 X114.483 E212.552
G1 X114.618 Y92.566 E212.561
G1 X115.184 E212.589
G1 X115.049 Y92.701 E212.599
G1 X115.615 E212.627
G1 X115.75 Y92.566 E212.637
G1 X116.315 E212.665
G1 X116.18 Y92.701 E212.674
G1 X116.746 E212.703
G1 X116.881 Y92.566 E212.712
G1 X117.447 E212.74
G1 X117.312 Y92.701 E212.75
G1 X117.878 E212.778
G1 X118.013 Y92.566 E212.788
G1 X118.578 E212.816
G1 X118.443 Y92.701 E212.825
G1 X119.009 E212.854
G1 X119.144 Y92.566 E212.863
G1 X119.307 E212.871
G1 Y92.969 E212.891
G1 X119.172 Y93.104 E212.901
G1 Y93.669 E212.929
G1 X119.307 Y93.534 E212.939
G1 Y94.1 E212.967
G1 X119.172 Y94.235 E212.976
G1 Y94.801 E213.005
G1 X119.307 Y94.666 E213.014
G1 Y95.231 E213.042
G1 X119.172 Y95.366 E213.052
G1 Y95.932 E213.08
G1 X119.307 Y95.797 E213.09
G1 Y96.363 E213.118
G1 X119.172 Y96.498 E213.127
G1 Y97.063 E213.156
G1 X119.307 Y96.928 E213.165
G1 Y97.494 E213.193
G1 X119.172 Y97.629 E213.203
G1 Y98.195 E213.231
G1 X119.307 Y98.06 E213.241
G1 Y98.625 E213.269
G1 X119.172 Y98.76 E213.278
G1 Y99.326 E213.307
G1 X119.307 Y99.191 E213.316
G1 Y99.757 E213.344
G1 X119.172 Y99.892 E213.354
G1 Y100.458 E213.382
G1 X119.307 Y100.323 E213.392
G1 Y100.888 E213.42
G1 X119.172 Y101.023 E213.429
G1 Y101.589 E213.458
G1 X119.307 Y101.454 E213.467
G1 Y102.02 E213.495
G1 X119.172 Y102.155 E213.505
G1 Y102.72 E213.533
G1 X119.307 Y102.585 E213.543
G1 Y102.637 E213.545
G1 X119.324 Y103.134 E213.57
G1 X119.172 Y103.286 E213.581
G1 Y103.852 E213.609
G1 X119.342 Y103.682 E213.621
G1 X119.345 Y103.781 E213.626
G1 X119.387 Y104.202 E213.647
G1 X119.172 Y104.417 E213.662
G1 Y104.983 E213.69
G1 X119.438 Y104.717 E213.709
G1 X119.455 Y104.893 E213.718
G1 X119.508 Y105.213 E213.734
G1 X119.172 Y105.549 E213.758
G1 Y106.114 E213.786
G1 X119.588 Y105.698 E213.815
G1 X119.64 Y106.016 E213.831
G1 X119.678 Y106.175 E213.84
G1 X119.172 Y106.68 E213.875
G1 Y107.246 E213.903
G1 X119.784 Y106.633 E213.947
G1 X119.891 Y107.092 E213.97
G1 X119.172 Y107.811 E214.021
G1 Y108.377 E214.049
G1 X120.021 Y107.528 E214.109
G1 X120.153 Y107.962 E214.132
G1 X118.461 Y109.654 E214.251
G1 X118.178 Y109.371 E214.271
G1 X119.108 Y108.441 E214.337
G1 X118.542 E214.365
G1 X117.902 Y109.081 E214.41
G1 Y108.516 E214.438
G1 X117.977 Y108.441 E214.444
G1 F1800 E204.444
;rapid-dry
G1 F236
G0 X118.744 Y109.936
G1 F1800 E214.444
;bead-solid_infill
G1 X120.294 Y108.386 F1200 E214.553
G1 X120.449 Y108.797 E214.575
G1 X119.027 Y110.219 E214.675
G1 X119.31 Y110.502 E214.695
G1 X120.604 Y109.208 E214.786
G1 X120.631 Y109.279 E214.79
G1 X120.777 Y109.601 E214.808
G1 X119.593 Y110.785 E214.891
G1 X119.875 Y111.068 E214.911
G1 X120.953 Y109.99 E214.987
G1 X121.1 Y110.316 E215.005
G1 X121.132 Y110.377 E215.009
G1 X120.158 Y111.351 E215.077
G1 X120.441 Y111.634 E215.097
G1 X121.33 Y110.745 E215.16
G1 X121.527 Y111.113 E215.181
G1 X120.724 Y111.916 E215.238
G1 X121.007 Y112.199 E215.257
G1 X121.733 Y111.473 E215.309
G1 X121.949 Y111.822 E215.329
G1 X121.29 Y112.482 E215.376
G1 X121.572 Y112.765 E215.396
G1 X122.166 Y112.171 E215.438
G1 X122.238 Y112.287 E215.444
G1 X122.396 Y112.507 E215.458
G1 X121.855 Y113.048 E215.496
G1 X122.138 Y113.331 E215.516
G1 X122.632 Y112.837 E215.551
G1 X122.868 Y113.166 E215.571
G1 X122.421 Y113.613 E215.603
G1 X122.704 Y113.896 E215.623
G1 X123.121 Y113.479 E215.652
G1 X123.376 Y113.79 E215.672
G1 X122.987 Y114.179 E215.7
G1 X123.27 Y114.462 E215.719
G1 X123.631 Y114.1 E215.745
G1 X123.905 Y114.392 E215.765
G1 X123.552 Y114.745 E215.79
G1 X123.835 Y115.028 E215.81
G1 X124.179 Y114.684 E215.834
G1 X124.392 Y114.912 E215.85
G1 X124.454 Y114.974 E215.854
G1 X124.118 Y115.31 E215.878
G1 X124.401 Y115.593 E215.898
G1 X124.737 Y115.257 E215.921
G1 X125.02 Y115.54 E215.941
G1 X124.684 Y115.876 E215.965
G1 X124.967 Y116.159 E215.985
G1 X125.303 Y115.823 E216.009
G1 X125.586 Y116.105 E216.029
G1 X125.249 Y116.442 E216.052
G1 X125.532 Y116.725 E216.072
G1 X125.869 Y116.388 E216.096
G1 X126.151 Y116.671 E216.116
G1 X125.815 Y117.008 E216.14
G1 X126.098 Y117.29 E216.16
G1 X126.434 Y116.954 E216.184
G1 X126.717 Y117.237 E216.203
G1 X126.381 Y117.573 E216.227
G1 X126.664 Y117.856 E216.247
G1 X127 Y117.52 E216.271
G1 X127.283 Y117.803 E216.291
G1 X126.946 Y118.139 E216.315
G1 X127.229 Y118.422 E216.335
G1 X127.566 Y118.085 E216.358
G1 X127.848 Y118.368 E216.378
G1 X127.512 Y118.705 E216.402
G1 X127.795 Y118.987 E216.422
G1 X128.131 Y118.651 E216.446
G1 X128.414 Y118.934 E216.466
G1 X128.078 Y119.27 E216.489
G1 X128.361 Y119.553 E216.509
G1 X128.697 Y119.217 E216.533
G1 X128.98 Y119.5 E216.553
G1 X128.644 Y119.836 E216.577
G1 X128.926 Y120.119 E216.597
G1 X129.263 Y119.783 E216.62
G1 X129.545 Y120.065 E216.64
G1 X129.209 Y120.402 E216.664
G1 X129.492 Y120.684 E216.684
G1 X129.828 Y120.348 E216.708
G1 X130.111 Y120.631 E216.728
G1 X129.775 Y120.967 E216.751
G1 X130.058 Y121.25 E216.771
G1 X130.394 Y120.914 E216.795
G1 X130.677 Y121.197 E216.815
G1 X130.341 Y121.533 E216.839
G1 X130.623 Y121.816 E216.859
G1 X130.96 Y121.48 E216.882
G1 X131.242 Y121.763 E216.902
G1 X130.906 Y122.099 E216.926
G1 X131.189 Y122.382 E216.946
G1 X131.525 Y122.045 E216.97
G1 X131.808 Y122.328 E216.99
G1 X131.472 Y122.664 E217.013
G1 X131.755 Y122.947 E217.033
G1 X132.091 Y122.611 E217.057
G1 X132.374 Y122.894 E217.077
G1 X132.038 Y123.23 E217.101
G1 X132.32 Y123.513 E217.121
G1 X132.657 Y123.177 E217.144
G1 X132.939 Y123.46 E217.164
G1 X132.603 Y123.796 E217.188
G1 X132.886 Y124.079 E217.208
G1 X133.222 Y123.743 E217.232
G1 X133.505 Y124.025 E217.252
G1 X133.169 Y124.361 E217.275
G1 X133.452 Y124.644 E217.295
G1 X133.788 Y124.308 E217.319
G1 X134.071 Y124.591 E217.339
G1 X133.735 Y124.927 E217.363
G1 X134.018 Y125.21 E217.383
G1 X134.354 Y124.874 E217.406
G1 X134.636 Y125.157 E217.426
G1 X134.3 Y125.493 E217.45
G1 X134.583 Y125.776 E217.47
G1 X134.919 Y125.44 E217.494
G1 X135.202 Y125.723 E217.514
G1 X134.866 Y126.059 E217.537
G1 X135.149 Y126.341 E217.557
G1 X141.98 Y119.51 E218.039
G1 X142.263 Y119.793 E218.059
G1 X135.432 Y126.624 E218.541
G1 X135.715 Y126.907 E218.561
G1 X142.546 Y120.076 E219.043
G1 F1800 E209.043
;Layer : 2 of 50
M106 S255
;rapid-leaky
G1 F236
G0 X143.159 Y120.237 Z0.5
G1 F1800 E219.043
;bead-perimeter_inner
G1 X135.875 Y127.52 F1560 E219.386
G1 X117.582 Y109.227 E220.246
G1 Y108.121 E220.283
G1 X118.852 E220.325
G1 Y93.021 E220.827
G1 X101.212 E221.414
G1 Y108.121 E221.916
G1 X102.482 E221.959
G1 Y109.225 E221.995
G1 X84.081 Y127.408 E222.856
G1 X76.841 Y120.081 E223.198
G1 X78.045 Y118.892 E223.255
G1 X84.603 Y125.528 E223.565
G1 X95.442 Y114.689 E224.075
G1 X96.2 Y113.881 E224.112
G1 X96.909 Y113.017 E224.149
G1 X97.559 Y112.109 E224.186
G1 X98.15 Y111.16 E224.223
G1 X98.676 Y110.174 E224.26
G1 X99.137 Y109.156 E224.297
G1 X99.531 Y108.111 E224.335
G1 X99.855 Y107.041 E224.372
G1 X100.109 Y105.953 E224.409
G1 X100.292 Y104.851 E224.446
G1 X100.4 Y103.739 E224.483
G1 X100.437 Y102.631 E224.52
G1 Y92.246 E224.865
G1 X119.627 E225.504
G1 Y102.632 E225.849
G1 X119.667 Y103.782 E225.887
G1 X119.773 Y104.851 E225.923
G1 X119.955 Y105.953 E225.96
G1 X120.208 Y107.041 E225.998
G1 X120.533 Y108.111 E226.035
G1 X120.927 Y109.156 E226.072
G1 X121.387 Y110.174 E226.109
G1 X121.914 Y111.16 E226.146
G1 X122.504 Y112.109 E226.183
G1 X123.156 Y113.017 E226.221
G1 X123.864 Y113.881 E226.258
G1 X124.622 Y114.689 E226.295
G1 X135.458 Y125.526 E226.804
G1 X141.953 Y119.031 E227.11
G1 X143.159 Y120.237 E227.166
;rapid-leaky
G1 F236
G0 X143.675
;bead-perimeter_outer
G1 X135.875 Y128.036 F1080 E227.533
G1 X117.217 Y109.378 E228.411
G1 Y107.756 E228.465
G1 X118.487 E228.507
G1 Y93.386 E228.985
G1 X101.577 E229.548
G1 Y107.756 E230.025
G1 X102.847 E230.068
G1 Y109.377 E230.122
G1 X84.078 Y127.924 E230.999
G1 X76.325 Y120.078 E231.366
G1 X78.048 Y118.376 E231.447
G1 X84.604 Y125.011 E231.757
G1 X95.18 Y114.435 E232.254
G1 X95.925 Y113.64 E232.291
G1 X96.619 Y112.795 E232.327
G1 X97.255 Y111.906 E232.363
G1 X97.833 Y110.977 E232.4
G1 X98.348 Y110.012 E232.436
G1 X98.8 Y109.017 E232.473
G1 X99.185 Y107.993 E232.509
G1 X99.502 Y106.947 E232.545
G1 X99.751 Y105.882 E232.582
G1 X99.929 Y104.803 E232.618
G1 X100.036 Y103.715 E232.654
G1 X100.072 Y102.625 E232.691
G1 Y91.881 E233.048
G1 X119.992 E233.71
G1 Y102.625 E234.068
G1 X120.031 Y103.757 E234.106
G1 X120.135 Y104.803 E234.14
G1 X120.313 Y105.882 E234.177
G1 X120.561 Y106.947 E234.213
G1 X120.879 Y107.993 E234.25
G1 X121.264 Y109.017 E234.286
G1 X121.715 Y110.012 E234.322
G1 X122.231 Y110.977 E234.359
G1 X122.808 Y111.906 E234.395
G1 X123.445 Y112.795 E234.431
G1 X124.139 Y113.64 E234.468
G1 X124.884 Y114.435 E234.504
G1 X135.458 Y125.01 E235.001
G1 X141.953 Y118.515 E235.307
G1 X143.675 Y120.237 E235.388
;rapid-leaky
G1 F236
G0 X141.847 Y119.59
;bead-solid_infill
G1 X142.6 Y120.343 F2400 E235.423
G1 X142.317 Y120.626 E235.437
G1 X141.564 Y119.873 E235.472
G1 X141.281 Y120.156 E235.485
G1 X142.034 Y120.909 E235.521
G1 X141.752 Y121.192 E235.534
G1 X140.998 Y120.438 E235.57
G1 X140.715 Y120.721 E235.583
G1 X141.469 Y121.475 E235.618
G1 X141.186 Y121.757 E235.632
G1 X140.433 Y121.004 E235.667
G1 X140.15 Y121.287 E235.68
G1 X140.903 Y122.04 E235.716
G1 X140.62 Y122.323 E235.729
G1 X139.867 Y121.57 E235.765
G1 X139.584 Y121.853 E235.778
G1 X140.337 Y122.606 E235.813
G1 X140.054 Y122.889 E235.827
G1 X139.301 Y122.135 E235.862
G1 X139.018 Y122.418 E235.875
G1 X139.772 Y123.171 E235.911
G1 X139.489 Y123.454 E235.924
G1 X138.735 Y122.701 E235.959
G1 X138.453 Y122.984 E235.973
G1 X139.206 Y123.737 E236.008
G1 X138.923 Y124.02 E236.022
G1 X138.17 Y123.267 E236.057
G1 X137.887 Y123.55 E236.07
G1 X138.64 Y124.303 E236.106
G1 X138.357 Y124.586 E236.119
G1 X137.604 Y123.832 E236.154
G1 X137.321 Y124.115 E236.168
G1 X138.074 Y124.868 E236.203
G1 X137.792 Y125.151 E236.216
G1 X137.038 Y124.398 E236.252
G1 X136.756 Y124.681 E236.265
G1 X137.509 Y125.434 E236.301
G1 X137.226 Y125.717 E236.314
G1 X136.473 Y124.964 E236.349
G1 X136.19 Y125.247 E236.363
G1 X136.943 Y126 E236.398
G1 X136.66 Y126.283 E236.411
G1 X135.907 Y125.53 E236.447
G1 X135.624 Y125.812 E236.46
G1 X136.377 Y126.565 E236.495
G1 X136.094 Y126.848 E236.509
G1 X117.902 Y108.656 E237.365
G1 Y108.441 E237.372
G1 X118.253 E237.383
G1 X122.591 Y112.779 E237.587
G1 X122.238 Y112.287 E237.607
G1 X121.637 Y111.32 E237.645
G1 X121.568 Y111.19 E237.65
G1 X118.819 Y108.441 E237.78
G1 X119.172 E237.791
G1 Y108.229 E237.798
G1 X120.969 Y110.025 E237.883
G1 X120.631 Y109.279 E237.91
G1 X120.536 Y109.027 E237.919
G1 X119.172 Y107.663 E237.983
G1 Y107.097 E238.002
G1 X120.204 Y108.129 E238.051
G1 X119.957 Y107.317 E238.079
G1 X119.172 Y106.532 E238.116
G1 Y105.966 E238.135
G1 X119.768 Y106.562 E238.163
G1 X119.64 Y106.016 E238.181
G1 X119.611 Y105.84 E238.187
G1 X119.172 Y105.4 E238.208
G1 Y104.835 E238.227
G1 X119.5 Y105.162 E238.242
G1 X119.482 Y105.056 E238.246
G1 X119.455 Y104.893 E238.251
G1 X119.418 Y104.515 E238.264
G1 X119.172 Y104.269 E238.275
G1 Y103.703 E238.294
G1 X119.356 Y103.887 E238.303
G1 X119.348 Y103.803 E238.306
G1 X119.33 Y103.295 E238.323
G1 X119.172 Y103.138 E238.33
G1 Y102.572 E238.349
G1 X119.31 Y102.709 E238.355
G1 X119.307 Y102.637 E238.358
G1 Y102.141 E238.374
G1 X119.172 Y102.006 E238.38
G1 Y101.441 E238.399
G1 X119.307 Y101.576 E238.406
G1 Y101.01 E238.424
G1 X119.172 Y100.875 E238.431
G1 Y100.309 E238.45
G1 X119.307 Y100.444 E238.456
G1 Y99.878 E238.475
G1 X119.172 Y99.743 E238.481
G1 Y99.178 E238.5
G1 X119.307 Y99.313 E238.506
G1 Y98.747 E238.525
G1 X119.172 Y98.612 E238.531
G1 Y98.046 E238.55
G1 X119.307 Y98.181 E238.557
G1 Y97.616 E238.575
G1 X119.172 Y97.481 E238.582
G1 Y96.915 E238.601
G1 X119.307 Y97.05 E238.607
G1 Y96.484 E238.626
G1 X119.172 Y96.349 E238.632
G1 Y95.784 E238.651
G1 X119.307 Y95.919 E238.657
G1 Y95.353 E238.676
G1 X119.172 Y95.218 E238.682
G1 Y94.652 E238.701
G1 X119.307 Y94.787 E238.708
G1 Y94.222 E238.726
G1 X119.172 Y94.087 E238.733
G1 Y93.521 E238.752
G1 X119.307 Y93.656 E238.758
G1 Y93.09 E238.777
G1 X119.172 Y92.955 E238.783
G1 Y92.701 E238.792
G1 X118.918 E238.8
G1 X118.783 Y92.566 E238.806
G1 X118.217 E238.825
G1 X118.352 Y92.701 E238.832
G1 X117.786 E238.85
G1 X117.651 Y92.566 E238.857
G1 X117.086 E238.876
G1 X117.221 Y92.701 E238.882
G1 X116.655 E238.901
G1 X116.52 Y92.566 E238.907
G1 X115.954 E238.926
G1 X116.089 Y92.701 E238.932
G1 X115.524 E238.951
G1 X115.389 Y92.566 E238.957
G1 X114.823 E238.976
G1 X114.958 Y92.701 E238.983
G1 X114.392 E239.001
G1 X114.257 Y92.566 E239.008
G1 X113.692 E239.027
G1 X113.827 Y92.701 E239.033
G1 X113.261 E239.052
G1 X113.126 Y92.566 E239.058
G1 X112.56 E239.077
G1 X112.695 Y92.701 E239.083
G1 X112.13 E239.102
G1 X111.995 Y92.566 E239.108
G1 X111.429 E239.127
G1 X111.564 Y92.701 E239.134
G1 X110.998 E239.152
G1 X110.863 Y92.566 E239.159
G1 X110.297 E239.177
G1 X110.432 Y92.701 E239.184
G1 X109.867 E239.203
G1 X109.732 Y92.566 E239.209
G1 X109.166 E239.228
G1 X109.301 Y92.701 E239.234
G1 X108.735 E239.253
G1 X108.6 Y92.566 E239.259
G1 X108.035 E239.278
G1 X108.17 Y92.701 E239.285
G1 X107.604 E239.303
G1 X107.469 Y92.566 E239.31
G1 X106.903 E239.328
G1 X107.038 Y92.701 E239.335
G1 X106.473 E239.354
G1 X106.338 Y92.566 E239.36
G1 X105.772 E239.379
G1 X105.907 Y92.701 E239.385
G1 X105.341 E239.404
G1 X105.206 Y92.566 E239.41
G1 X104.641 E239.429
G1 X104.776 Y92.701 E239.435
G1 X104.21 E239.454
G1 X104.075 Y92.566 E239.461
G1 X103.509 E239.479
G1 X103.644 Y92.701 E239.486
G1 X103.079 E239.505
G1 X102.944 Y92.566 E239.511
G1 X102.378 E239.53
G1 X102.513 Y92.701 E239.536
G1 X101.947 E239.555
G1 X101.812 Y92.566 E239.561
G1 X101.247 E239.58
G1 X101.382 Y92.701 E239.586
G1 X100.892 E239.603
G1 Y92.777 E239.605
G1 X100.757 Y92.642 E239.612
G1 Y93.208 E239.63
G1 X100.892 Y93.343 E239.637
G1 Y93.909 E239.656
G1 X100.757 Y93.774 E239.662
G1 Y94.339 E239.681
G1 X100.892 Y94.474 E239.687
G1 Y95.04 E239.706
G1 X100.757 Y94.905 E239.712
G1 Y95.471 E239.731
G1 X100.892 Y95.606 E239.737
G1 Y96.171 E239.756
G1 X100.757 Y96.036 E239.763
G1 Y96.602 E239.781
G1 X100.892 Y96.737 E239.788
G1 Y97.303 E239.807
G1 X100.757 Y97.168 E239.813
G1 Y97.733 E239.832
G1 X100.892 Y97.868 E239.838
G1 Y98.434 E239.857
G1 X100.757 Y98.299 E239.863
G1 Y98.865 E239.882
G1 X100.892 Y99 E239.888
G1 Y99.565 E239.907
G1 X100.757 Y99.43 E239.914
G1 Y99.996 E239.932
G1 X100.892 Y100.131 E239.939
G1 Y100.697 E239.958
G1 X100.757 Y100.562 E239.964
G1 Y101.127 E239.983
G1 X100.892 Y101.262 E239.989
G1 Y101.828 E240.008
G1 X100.757 Y101.693 E240.014
G1 Y102.259 E240.033
G1 X100.892 Y102.394 E240.039
G1 Y102.96 E240.058
G1 X100.751 Y102.818 E240.065
G1 X100.733 Y103.366 E240.083
G1 X100.892 Y103.525 E240.091
G1 Y104.091 E240.109
G1 X100.705 Y103.904 E240.118
G1 X100.655 Y104.42 E240.135
G1 X100.892 Y104.657 E240.147
G1 Y105.222 E240.165
G1 X100.602 Y104.933 E240.179
G1 X100.522 Y105.418 E240.195
G1 X100.892 Y105.788 E240.213
G1 Y106.354 E240.232
G1 X100.442 Y105.904 E240.253
G1 X100.423 Y106.016 E240.257
G1 X100.341 Y106.368 E240.269
G1 X100.892 Y106.919 E240.294
G1 Y107.485 E240.313
G1 X100.234 Y106.827 E240.344
G1 X100.164 Y107.124 E240.354
G1 X100.118 Y107.277 E240.36
G1 X100.892 Y108.051 E240.396
G1 Y108.441 E240.409
G1 X101.282 E240.422
G1 X102.047 Y109.205 E240.458
G1 X101.762 Y109.486 E240.471
G1 X99.987 Y107.711 E240.555
G1 X99.855 Y108.145 E240.57
G1 X101.478 Y109.768 E240.646
G1 X101.193 Y110.049 E240.66
G1 X99.704 Y108.56 E240.73
G1 X99.549 Y108.971 E240.744
G1 X100.909 Y110.33 E240.808
G1 X100.624 Y110.611 E240.821
G1 X99.389 Y109.376 E240.88
G1 X99.213 Y109.765 E240.894
G1 X100.339 Y110.892 E240.947
G1 X100.055 Y111.173 E240.96
G1 X99.036 Y110.155 E241.008
G1 X98.963 Y110.316 E241.014
G1 X98.848 Y110.532 E241.022
G1 X99.77 Y111.455 E241.065
G1 X99.486 Y111.736 E241.079
G1 X98.651 Y110.901 E241.118
G1 X98.454 Y111.269 E241.132
G1 X99.201 Y112.017 E241.167
G1 X98.917 Y112.298 E241.18
G1 X98.24 Y111.621 E241.212
G1 X98.023 Y111.97 E241.226
G1 X98.632 Y112.579 E241.255
G1 X98.348 Y112.86 E241.268
G1 X97.804 Y112.317 E241.293
G1 X97.568 Y112.646 E241.307
G1 X98.063 Y113.142 E241.33
G1 X97.779 Y113.423 E241.344
G1 X97.332 Y112.976 E241.365
G1 X97.163 Y113.212 E241.374
G1 X97.09 Y113.3 E241.378
G1 X97.494 Y113.704 E241.397
G1 X97.21 Y113.985 E241.41
G1 X96.835 Y113.611 E241.428
G1 X96.58 Y113.922 E241.441
G1 X96.925 Y114.266 E241.457
G1 X96.641 Y114.547 E241.471
G1 X96.317 Y114.224 E241.486
G1 X96.077 Y114.479 E241.498
G1 X96.043 Y114.516 E241.499
G1 X96.356 Y114.828 E241.514
G1 X96.072 Y115.11 E241.527
G1 X95.77 Y114.808 E241.542
G1 X95.672 Y114.912 E241.546
G1 X95.49 Y115.094 E241.555
G1 X95.787 Y115.391 E241.569
G1 X95.502 Y115.672 E241.582
G1 X95.207 Y115.377 E241.596
G1 X94.924 Y115.659 E241.609
G1 X95.218 Y115.953 E241.623
G1 X94.933 Y116.234 E241.636
G1 X94.641 Y115.942 E241.65
G1 X94.359 Y116.225 E241.663
G1 X94.649 Y116.515 E241.677
G1 X94.364 Y116.797 E241.69
G1 X94.076 Y116.508 E241.704
G1 X93.793 Y116.791 E241.717
G1 X94.08 Y117.078 E241.731
G1 X93.795 Y117.359 E241.744
G1 X93.51 Y117.074 E241.758
G1 X93.227 Y117.356 E241.771
G1 X93.511 Y117.64 E241.784
G1 X93.226 Y117.921 E241.797
G1 X92.944 Y117.639 E241.811
G1 X92.661 Y117.922 E241.824
G1 X92.942 Y118.202 E241.837
G1 X92.657 Y118.483 E241.851
G1 X92.379 Y118.205 E241.864
G1 X92.096 Y118.488 E241.877
G1 X92.373 Y118.765 E241.89
G1 X92.088 Y119.046 E241.903
G1 X91.813 Y118.771 E241.916
G1 X91.53 Y119.053 E241.93
G1 X91.804 Y119.327 E241.942
G1 X91.519 Y119.608 E241.956
G1 X91.247 Y119.336 E241.968
G1 X90.964 Y119.619 E241.982
G1 X91.234 Y119.889 E241.994
G1 X90.95 Y120.17 E242.008
G1 X90.682 Y119.902 E242.02
G1 X90.399 Y120.185 E242.034
G1 X90.665 Y120.452 E242.046
G1 X90.381 Y120.733 E242.06
G1 X90.116 Y120.468 E242.072
G1 X89.833 Y120.751 E242.085
G1 X90.096 Y121.014 E242.098
G1 X89.812 Y121.295 E242.111
G1 X89.55 Y121.033 E242.123
G1 X89.267 Y121.316 E242.137
G1 X89.527 Y121.576 E242.149
G1 X89.243 Y121.857 E242.162
G1 X88.985 Y121.599 E242.174
G1 X88.702 Y121.882 E242.188
G1 X88.958 Y122.138 E242.2
G1 X88.674 Y122.42 E242.213
G1 X88.419 Y122.165 E242.225
G1 X88.136 Y122.448 E242.238
G1 X88.389 Y122.701 E242.25
G1 X88.105 Y122.982 E242.263
G1 X87.853 Y122.73 E242.275
G1 X87.57 Y123.013 E242.289
G1 X87.82 Y123.263 E242.3
G1 X87.536 Y123.544 E242.314
G1 X87.287 Y123.296 E242.325
G1 X87.005 Y123.579 E242.339
G1 X87.251 Y123.825 E242.35
G1 X86.967 Y124.107 E242.364
G1 X86.722 Y123.862 E242.375
G1 X86.439 Y124.145 E242.388
G1 X86.682 Y124.388 E242.4
G1 X86.397 Y124.669 E242.413
G1 X86.156 Y124.427 E242.424
G1 X85.873 Y124.71 E242.438
G1 X86.113 Y124.95 E242.449
G1 X85.828 Y125.231 E242.462
G1 X85.59 Y124.993 E242.474
G1 X85.308 Y125.276 E242.487
G1 X85.544 Y125.512 E242.498
G1 X85.259 Y125.793 E242.511
G1 X85.025 Y125.559 E242.522
G1 X84.742 Y125.842 E242.536
G1 X84.975 Y126.075 E242.547
G1 X84.69 Y126.356 E242.56
G1 X77.859 Y119.525 E242.881
G1 X77.575 Y119.806 E242.894
G1 X84.406 Y126.637 E243.216
G1 X84.121 Y126.918 E243.229
G1 X77.868 Y120.665 E243.523
G1 F1800 E233.523
;rapid-dry
G1 F236
G0 X101.848 Y108.441
G1 F1800 E243.523
;bead-solid_infill
G1 X102.162 Y108.755 F2400 E243.538
G1 F1800 E233.538
;Layer : 3 of 50
;rapid-dry
G1 F236
G0 X102.482 Y109.225 Z0.7
G1 F1800 E243.538
;bead-perimeter_inner
G1 X84.081 Y127.408 F1560 E244.398
G1 X76.841 Y120.081 E244.741
G1 X78.045 Y118.892 E244.797
G1 X84.603 Y125.528 E245.108
G1 X95.442 Y114.689 E245.617
G1 X96.2 Y113.881 E245.654
G1 X96.909 Y113.017 E245.691
G1 X97.559 Y112.109 E245.729
G1 X98.15 Y111.16 E245.766
G1 X98.676 Y110.174 E245.803
G1 X99.137 Y109.156 E245.84
G1 X99.531 Y108.111 E245.877
G1 X99.855 Y107.041 E245.914
G1 X100.109 Y105.953 E245.952
G1 X100.292 Y104.851 E245.989
G1 X100.4 Y103.739 E246.026
G1 X100.437 Y102.631 E246.063
G1 Y92.246 E246.408
G1 X119.627 E247.046
G1 Y102.632 E247.392
G1 X119.669 Y103.803 E247.431
G1 X119.773 Y104.851 E247.466
G1 X119.955 Y105.953 E247.503
G1 X120.208 Y107.041 E247.54
G1 X120.533 Y108.111 E247.577
G1 X120.927 Y109.156 E247.615
G1 X121.387 Y110.174 E247.652
G1 X121.914 Y111.16 E247.689
G1 X122.504 Y112.109 E247.726
G1 X123.156 Y113.017 E247.763
G1 X123.864 Y113.881 E247.8
G1 X124.622 Y114.689 E247.837
G1 X135.458 Y125.526 E248.347
G1 X141.953 Y119.031 E248.652
G1 X143.159 Y120.237 E248.709
G1 X135.875 Y127.52 E249.052
G1 X117.582 Y109.227 E249.912
G1 Y108.121 E249.949
G1 X118.852 E249.991
G1 Y93.021 E250.493
G1 X101.212 E251.08
G1 Y108.121 E251.582
G1 X102.482 E251.625
G1 Y109.225 E251.661
;rapid-leaky
G1 F236
G0 X102.847 Y109.377
;bead-perimeter_outer
G1 X84.078 Y127.924 F1080 E252.539
G1 X76.325 Y120.078 E252.906
G1 X78.048 Y118.376 E252.986
G1 X84.604 Y125.011 E253.297
G1 X95.18 Y114.435 E253.794
G1 X95.925 Y113.64 E253.83
G1 X96.619 Y112.795 E253.867
G1 X97.255 Y111.906 E253.903
G1 X97.833 Y110.977 E253.939
G1 X98.348 Y110.012 E253.976
G1 X98.8 Y109.017 E254.012
G1 X99.185 Y107.993 E254.049
G1 X99.502 Y106.947 E254.085
G1 X99.751 Y105.882 E254.121
G1 X99.929 Y104.803 E254.158
G1 X100.036 Y103.715 E254.194
G1 X100.072 Y102.625 E254.23
G1 Y91.881 E254.588
G1 X119.992 E255.25
G1 Y102.626 E255.608
G1 X120.033 Y103.778 E255.646
G1 X120.135 Y104.803 E255.68
G1 X120.313 Y105.882 E255.717
G1 X120.561 Y106.947 E255.753
G1 X120.879 Y107.993 E255.789
G1 X121.264 Y109.017 E255.826
G1 X121.715 Y110.012 E255.862
G1 X122.231 Y110.977 E255.898
G1 X122.808 Y111.906 E255.935
G1 X123.445 Y112.795 E255.971
G1 X124.139 Y113.64 E256.008
G1 X124.884 Y114.435 E256.044
G1 X135.458 Y125.01 E256.541
G1 X141.953 Y118.515 E256.847
G1 X143.675 Y120.237 E256.928
G1 X135.875 Y128.036 E257.295
G1 X117.217 Y109.378 E258.172
G1 Y107.756 E258.226
G1 X118.487 E258.268
G1 Y93.386 E258.746
G1 X101.577 E259.309
G1 Y107.756 E259.787
G1 X102.847 E259.829
G1 Y109.377 E259.883
G1 F1800 E249.883
;rapid-dry
G1 F236
G0 X77.388 Y120.179
G1 F1800 E259.883
;bead-solid_infill
G1 X78.132 Y119.435 F2400 E259.918
G1 X78.413 Y119.72 E259.931
G1 X77.67 Y120.464 E259.966
G1 X77.951 Y120.749 E259.979
G1 X78.695 Y120.005 E260.014
G1 X78.976 Y120.289 E260.028
G1 X78.232 Y121.033 E260.063
G1 X78.513 Y121.318 E260.076
G1 X79.257 Y120.574 E260.111
G1 X79.538 Y120.858 E260.124
G1 X78.794 Y121.602 E260.159
G1 X79.075 Y121.887 E260.173
G1 X79.819 Y121.143 E260.208
G1 X80.1 Y121.427 E260.221
G1 X79.356 Y122.171 E260.256
G1 X79.638 Y122.456 E260.269
G1 X80.382 Y121.712 E260.304
G1 X80.663 Y121.996 E260.318
G1 X79.919 Y122.74 E260.353
G1 X80.2 Y123.025 E260.366
G1 X80.944 Y122.281 E260.401
G1 X81.225 Y122.565 E260.414
G1 X80.481 Y123.309 E260.449
G1 X80.762 Y123.594 E260.462
G1 X81.506 Y122.85 E260.497
G1 X81.787 Y123.134 E260.511
G1 X81.043 Y123.878 E260.546
G1 X81.324 Y124.163 E260.559
G1 X82.068 Y123.419 E260.594
G1 X82.35 Y123.704 E260.607
G1 X81.606 Y124.448 E260.642
G1 X81.887 Y124.732 E260.656
G1 X82.631 Y123.988 E260.691
G1 X82.912 Y124.273 E260.704
G1 X82.168 Y125.017 E260.739
G1 X82.449 Y125.301 E260.752
G1 X83.193 Y124.557 E260.787
G1 X83.474 Y124.842 E260.801
G1 X82.73 Y125.586 E260.836
G1 X83.011 Y125.87 E260.849
G1 X83.755 Y125.126 E260.884
G1 X84.036 Y125.411 E260.897
G1 X83.292 Y126.155 E260.932
G1 X83.574 Y126.439 E260.945
G1 X84.318 Y125.695 E260.98
G1 X84.599 Y125.98 E260.994
G1 X83.855 Y126.724 E261.029
G1 X84.083 Y126.955 E261.04
G1 X92.965 Y118.179 E261.455
G1 X102.162 Y108.982 E261.887
G1 Y108.441 E261.905
G1 X102.138 E261.906
G1 X95.747 Y114.831 E262.207
G1 X96.077 Y114.479 E262.223
G1 X96.441 Y114.092 E262.241
G1 X97.163 Y113.212 E262.278
G1 X97.825 Y112.287 E262.316
G1 X97.989 Y112.024 E262.327
G1 X101.572 Y108.441 E262.495
G1 X101.006 E262.514
G1 X98.77 Y110.677 E262.619
G1 X98.963 Y110.316 E262.633
G1 X99.293 Y109.589 E262.659
G1 X100.892 Y107.99 E262.734
G1 Y107.424 E262.753
G1 X99.673 Y108.643 E262.811
G1 X99.835 Y108.214 E262.826
G1 X99.964 Y107.786 E262.841
G1 X100.892 Y106.858 E262.884
G1 Y106.292 E262.903
G1 X100.196 Y106.988 E262.936
G1 X100.369 Y106.25 E262.961
G1 X100.892 Y105.727 E262.986
G1 Y105.161 E263.005
G1 X100.5 Y105.553 E263.023
G1 X100.609 Y104.892 E263.045
G1 X100.61 Y104.877 E263.046
G1 X100.892 Y104.595 E263.059
G1 Y104.03 E263.078
G1 X100.672 Y104.25 E263.088
G1 X100.72 Y103.76 E263.105
G1 X100.724 Y103.632 E263.109
G1 X100.892 Y103.464 E263.117
G1 Y102.898 E263.136
G1 X100.743 Y103.047 E263.143
G1 X100.757 Y102.637 E263.156
G1 Y102.468 E263.162
G1 X100.892 Y102.333 E263.168
G1 Y101.767 E263.187
G1 X100.757 Y101.902 E263.193
G1 Y101.336 E263.212
G1 X100.892 Y101.201 E263.219
G1 Y100.636 E263.237
G1 X100.757 Y100.771 E263.244
G1 Y100.205 E263.263
G1 X100.892 Y100.07 E263.269
G1 Y99.504 E263.288
G1 X100.757 Y99.639 E263.294
G1 Y99.074 E263.313
G1 X100.892 Y98.939 E263.319
G1 Y98.373 E263.338
G1 X100.757 Y98.508 E263.344
G1 Y97.942 E263.363
G1 X100.892 Y97.807 E263.37
G1 Y97.241 E263.388
G1 X100.757 Y97.376 E263.395
G1 Y96.811 E263.414
G1 X100.892 Y96.676 E263.42
G1 Y96.11 E263.439
G1 X100.757 Y96.245 E263.445
G1 Y95.679 E263.464
G1 X100.892 Y95.544 E263.47
G1 Y94.979 E263.489
G1 X100.757 Y95.114 E263.495
G1 Y94.548 E263.514
G1 X100.892 Y94.413 E263.521
G1 Y93.847 E263.539
G1 X100.757 Y93.982 E263.546
G1 Y93.417 E263.565
G1 X100.892 Y93.282 E263.571
G1 X100.757 Y92.851 E263.586
G1 X100.892 Y92.716 E263.592
G1 Y92.701 E263.593
G1 X100.907
G1 X101.042 Y92.566 E263.6
G1 X101.608 E263.618
G1 X101.473 Y92.701 E263.625
G1 X102.038 E263.644
G1 X102.173 Y92.566 E263.65
G1 X102.739 E263.669
G1 X102.604 Y92.701 E263.675
G1 X103.17 E263.694
G1 X103.305 Y92.566 E263.7
G1 X103.87 E263.719
G1 X103.735 Y92.701 E263.725
G1 X104.301 E263.744
G1 X104.436 Y92.566 E263.751
G1 X105.002 E263.769
G1 X104.867 Y92.701 E263.776
G1 X105.432 E263.795
G1 X105.567 Y92.566 E263.801
G1 X106.133 E263.82
G1 X105.998 Y92.701 E263.826
G1 X106.564 E263.845
G1 X106.699 Y92.566 E263.851
G1 X107.265 E263.87
G1 X107.13 Y92.701 E263.876
G1 X107.695 E263.895
G1 X107.83 Y92.566 E263.902
G1 X108.396 E263.92
G1 X108.261 Y92.701 E263.927
G1 X108.827 E263.946
G1 X108.962 Y92.566 E263.952
G1 X109.527 E263.971
G1 X109.392 Y92.701 E263.977
G1 X109.958 E263.996
G1 X110.093 Y92.566 E264.002
G1 X110.659 E264.021
G1 X110.524 Y92.701 E264.027
G1 X111.089 E264.046
G1 X111.224 Y92.566 E264.053
G1 X111.79 E264.071
G1 X111.655 Y92.701 E264.078
G1 X112.221 E264.097
G1 X112.356 Y92.566 E264.103
G1 X112.921 E264.122
G1 X112.786 Y92.701 E264.128
G1 X113.352 E264.147
G1 X113.487 Y92.566 E264.153
G1 X114.053 E264.172
G1 X113.918 Y92.701 E264.178
G1 X114.483 E264.197
G1 X114.618 Y92.566 E264.204
G1 X115.184 E264.222
G1 X115.049 Y92.701 E264.229
G1 X115.615 E264.248
G1 X115.75 Y92.566 E264.254
G1 X116.315 E264.273
G1 X116.18 Y92.701 E264.279
G1 X116.746 E264.298
G1 X116.881 Y92.566 E264.304
G1 X117.447 E264.323
G1 X117.312 Y92.701 E264.329
G1 X117.878 E264.348
G1 X118.013 Y92.566 E264.355
G1 X118.578 E264.373
G1 X118.443 Y92.701 E264.38
G1 X119.009 E264.399
G1 X119.144 Y92.566 E264.405
G1 X119.307 E264.41
G1 Y92.969 E264.424
G1 X119.172 Y93.104 E264.43
G1 Y93.669 E264.449
G1 X119.307 Y93.534 E264.455
G1 Y94.1 E264.474
G1 X119.172 Y94.235 E264.48
G1 Y94.801 E264.499
G1 X119.307 Y94.666 E264.506
G1 Y95.231 E264.524
G1 X119.172 Y95.366 E264.531
G1 Y95.932 E264.55
G1 X119.307 Y95.797 E264.556
G1 Y96.363 E264.575
G1 X119.172 Y96.498 E264.581
G1 Y97.063 E264.6
G1 X119.307 Y96.928 E264.606
G1 Y97.494 E264.625
G1 X119.172 Y97.629 E264.631
G1 Y98.195 E264.65
G1 X119.307 Y98.06 E264.657
G1 Y98.625 E264.675
G1 X119.172 Y98.76 E264.682
G1 Y99.326 E264.701
G1 X119.307 Y99.191 E264.707
G1 Y99.757 E264.726
G1 X119.172 Y99.892 E264.732
G1 Y100.458 E264.751
G1 X119.307 Y100.323 E264.757
G1 Y100.888 E264.776
G1 X119.172 Y101.023 E264.782
G1 Y101.589 E264.801
G1 X119.307 Y101.454 E264.808
G1 Y102.02 E264.826
G1 X119.172 Y102.155 E264.833
G1 Y102.72 E264.852
G1 X119.307 Y102.585 E264.858
G1 Y102.638 E264.86
G1 X119.325 Y103.133 E264.876
G1 X119.172 Y103.286 E264.883
G1 Y103.852 E264.902
G1 X119.344 Y103.679 E264.91
G1 X119.35 Y103.824 E264.915
G1 X119.387 Y104.202 E264.928
G1 X119.172 Y104.417 E264.938
G1 Y104.983 E264.957
G1 X119.438 Y104.717 E264.969
G1 X119.455 Y104.893 E264.975
G1 X119.508 Y105.213 E264.986
G1 X119.172 Y105.549 E265.002
G1 Y106.114 E265.02
G1 X119.588 Y105.698 E265.04
G1 X119.64 Y106.016 E265.051
G1 X119.678 Y106.175 E265.056
G1 X119.172 Y106.68 E265.08
G1 Y107.246 E265.099
G1 X119.784 Y106.633 E265.128
G1 X119.891 Y107.092 E265.143
G1 X119.172 Y107.811 E265.177
G1 Y108.377 E265.196
G1 X120.021 Y107.528 E265.236
G1 X120.153 Y107.962 E265.251
G1 X118.461 Y109.654 E265.33
G1 X118.178 Y109.371 E265.344
G1 X119.108 Y108.441 E265.387
G1 X118.542 E265.406
G1 X117.902 Y109.081 E265.436
G1 Y108.516 E265.455
G1 X117.977 Y108.441 E265.459
G1 F1800 E255.459
;rapid-dry
G1 F236
G0 X118.744 Y109.936
G1 F1800 E265.459
;bead-solid_infill
G1 X120.294 Y108.386 F2400 E265.532
G1 X120.449 Y108.797 E265.546
G1 X119.027 Y110.219 E265.613
G1 X119.31 Y110.502 E265.626
G1 X120.604 Y109.208 E265.687
G1 X120.631 Y109.279 E265.69
G1 X120.777 Y109.601 E265.702
G1 X119.593 Y110.785 E265.757
G1 X119.875 Y111.068 E265.771
G1 X120.953 Y109.99 E265.821
G1 X121.1 Y110.316 E265.833
G1 X121.132 Y110.377 E265.835
G1 X120.158 Y111.351 E265.881
G1 X120.441 Y111.634 E265.895
G1 X121.33 Y110.745 E265.936
G1 X121.527 Y111.113 E265.95
G1 X120.724 Y111.916 E265.988
G1 X121.007 Y112.199 E266.001
G1 X121.733 Y111.473 E266.036
G1 X121.949 Y111.822 E266.049
G1 X121.29 Y112.482 E266.08
G1 X121.572 Y112.765 E266.094
G1 X122.166 Y112.171 E266.121
G1 X122.238 Y112.287 E266.126
G1 X122.396 Y112.507 E266.135
G1 X121.855 Y113.048 E266.16
G1 X122.138 Y113.331 E266.174
G1 X122.632 Y112.837 E266.197
G1 X122.868 Y113.166 E266.21
G1 X122.421 Y113.613 E266.231
G1 X122.704 Y113.896 E266.245
G1 X123.121 Y113.479 E266.264
G1 X123.376 Y113.79 E266.278
G1 X122.987 Y114.179 E266.296
G1 X123.27 Y114.462 E266.309
G1 X123.631 Y114.1 E266.326
G1 X123.905 Y114.392 E266.34
G1 X123.552 Y114.745 E266.356
G1 X123.835 Y115.028 E266.37
G1 X124.179 Y114.684 E266.386
G1 X124.392 Y114.912 E266.396
G1 X124.454 Y114.974 E266.399
G1 X124.118 Y115.31 E266.415
G1 X124.401 Y115.593 E266.428
G1 X124.737 Y115.257 E266.444
G1 X125.02 Y115.54 E266.457
G1 X124.684 Y115.876 E266.473
G1 X124.967 Y116.159 E266.486
G1 X125.303 Y115.823 E266.502
G1 X125.586 Y116.105 E266.516
G1 X125.249 Y116.442 E266.531
G1 X125.532 Y116.725 E266.545
G1 X125.869 Y116.388 E266.56
G1 X126.151 Y116.671 E266.574
G1 X125.815 Y117.008 E266.59
G1 X126.098 Y117.29 E266.603
G1 X126.434 Y116.954 E266.619
G1 X126.717 Y117.237 E266.632
G1 X126.381 Y117.573 E266.648
G1 X126.664 Y117.856 E266.661
G1 X127 Y117.52 E266.677
G1 X127.283 Y117.803 E266.69
G1 X126.946 Y118.139 E266.706
G1 X127.229 Y118.422 E266.719
G1 X127.566 Y118.085 E266.735
G1 X127.848 Y118.368 E266.749
G1 X127.512 Y118.705 E266.764
G1 X127.795 Y118.987 E266.778
G1 X128.131 Y118.651 E266.793
G1 X128.414 Y118.934 E266.807
G1 X128.078 Y119.27 E266.823
G1 X128.361 Y119.553 E266.836
G1 X128.697 Y119.217 E266.852
G1 X128.98 Y119.5 E266.865
G1 X128.644 Y119.836 E266.881
G1 X128.926 Y120.119 E266.894
G1 X129.263 Y119.783 E266.91
G1 X129.545 Y120.065 E266.923
G1 X129.209 Y120.402 E266.939
G1 X129.492 Y120.684 E266.952
G1 X129.828 Y120.348 E266.968
G1 X130.111 Y120.631 E266.981
G1 X129.775 Y120.967 E266.997
G1 X130.058 Y121.25 E267.011
G1 X130.394 Y120.914 E267.026
G1 X130.677 Y121.197 E267.04
G1 X130.341 Y121.533 E267.056
G1 X130.623 Y121.816 E267.069
G1 X130.96 Y121.48 E267.085
G1 X131.242 Y121.763 E267.098
G1 X130.906 Y122.099 E267.114
G1 X131.189 Y122.382 E267.127
G1 X131.525 Y122.045 E267.143
G1 X131.808 Y122.328 E267.156
G1 X131.472 Y122.664 E267.172
G1 X131.755 Y122.947 E267.185
G1 X132.091 Y122.611 E267.201
G1 X132.374 Y122.894 E267.214
G1 X132.038 Y123.23 E267.23
G1 X132.32 Y123.513 E267.243
G1 X132.657 Y123.177 E267.259
G1 X132.939 Y123.46 E267.273
G1 X132.603 Y123.796 E267.288
G1 X132.886 Y124.079 E267.302
G1 X133.222 Y123.743 E267.318
G1 X133.505 Y124.025 E267.331
G1 X133.169 Y124.361 E267.347
G1 X133.452 Y124.644 E267.36
G1 X133.788 Y124.308 E267.376
G1 X134.071 Y124.591 E267.389
G1 X133.735 Y124.927 E267.405
G1 X134.018 Y125.21 E267.418
G1 X134.354 Y124.874 E267.434
G1 X134.636 Y125.157 E267.447
G1 X134.3 Y125.493 E267.463
G1 X134.583 Y125.776 E267.476
G1 X134.919 Y125.44 E267.492
G1 X135.202 Y125.723 E267.505
G1 X134.866 Y126.059 E267.521
G1 X135.149 Y126.341 E267.535
G1 X141.98 Y119.51 E267.856
G1 X142.263 Y119.793 E267.869
G1 X135.432 Y126.624 E268.19
G1 X135.715 Y126.907 E268.204
G1 X142.546 Y120.076 E268.525
G1 F1800 E258.525
;Layer : 4 of 50
;rapid-leaky
G1 F236
G0 X143.159 Y120.237 Z0.9
G1 F1800 E268.525
;bead-perimeter_inner
G1 X135.875 Y127.52 F1560 E268.868
G1 X117.582 Y109.227 E269.728
G1 Y108.121 E269.765
G1 X118.852 E269.807
G1 Y93.021 E270.309
G1 X101.212 E270.896
G1 Y108.121 E271.398
G1 X102.482 E271.441
G1 Y109.225 E271.477
G1 X84.081 Y127.408 E272.338
G1 X76.841 Y120.081 E272.68
G1 X78.045 Y118.892 E272.737
G1 X84.603 Y125.528 E273.047
G1 X95.442 Y114.689 E273.557
G1 X96.2 Y113.881 E273.594
G1 X96.909 Y113.017 E273.631
G1 X97.559 Y112.109 E273.668
G1 X98.15 Y111.16 E273.705
G1 X98.676 Y110.174 E273.742
G1 X99.137 Y109.156 E273.779
G1 X99.531 Y108.111 E273.817
G1 X99.855 Y107.041 E273.854
G1 X100.109 Y105.953 E273.891
G1 X100.292 Y104.851 E273.928
G1 X100.4 Y103.739 E273.965
G1 X100.437 Y102.631 E274.002
G1 Y92.246 E274.348
G1 X119.627 E274.986
G1 Y102.632 E275.331
G1 X119.671 Y103.824 E275.371
G1 X119.773 Y104.851 E275.405
G1 X119.955 Y105.953 E275.442
G1 X120.208 Y107.041 E275.48
G1 X120.533 Y108.111 E275.517
G1 X120.927 Y109.156 E275.554
G1 X121.387 Y110.174 E275.591
G1 X121.914 Y111.16 E275.628
G1 X122.504 Y112.109 E275.665
G1 X123.156 Y113.017 E275.703
G1 X123.864 Y113.881 E275.74
G1 X124.622 Y114.689 E275.777
G1 X135.458 Y125.526 E276.286
G1 X141.953 Y119.031 E276.592
G1 X143.159 Y120.237 E276.648
;rapid-leaky
G1 F236
G0 X143.675
;bead-perimeter_outer
G1 X135.875 Y128.036 F1080 E277.015
G1 X117.217 Y109.378 E277.893
G1 Y107.756 E277.947
G1 X118.487 E277.989
G1 Y93.386 E278.467
G1 X101.577 E279.03
G1 Y107.756 E279.508
G1 X102.847 E279.55
G1 Y109.377 E279.604
G1 X84.078 Y127.924 E280.481
G1 X76.325 Y120.078 E280.848
G1 X78.048 Y118.376 E280.929
G1 X84.604 Y125.011 E281.239
G1 X95.18 Y114.435 E281.736
G1 X95.925 Y113.64 E281.773
G1 X96.619 Y112.795 E281.809
G1 X97.255 Y111.906 E281.845
G1 X97.833 Y110.977 E281.882
G1 X98.348 Y110.012 E281.918
G1 X98.8 Y109.017 E281.954
G1 X99.185 Y107.993 E281.991
G1 X99.502 Y106.947 E282.027
G1 X99.751 Y105.882 E282.064
G1 X99.929 Y104.803 E282.1
G1 X100.036 Y103.715 E282.136
G1 X100.072 Y102.625 E282.173
G1 Y91.881 E282.53
G1 X119.992 E283.193
G1 Y102.626 E283.55
G1 X120.035 Y103.8 E283.589
G1 X120.135 Y104.803 E283.622
G1 X120.313 Y105.882 E283.659
G1 X120.561 Y106.947 E283.695
G1 X120.879 Y107.993 E283.732
G1 X121.264 Y109.017 E283.768
G1 X121.715 Y110.012 E283.804
G1 X122.231 Y110.977 E283.841
G1 X122.808 Y111.906 E283.877
G1 X123.445 Y112.795 E283.913
G1 X124.139 Y113.64 E283.95
G1 X124.884 Y114.435 E283.986
G1 X135.458 Y125.01 E284.483
G1 X141.953 Y118.515 E284.789
G1 X143.675 Y120.237 E284.87
;rapid-leaky
G1 F236
G0 X142.438 Y120.506
;bead-sparse_infill
G1 X142.037 Y119.78 F3600 E284.898
G1 X142.01 Y119.54 E284.906
G1 X137.675 Y125.268 E285.144
G1 X137.643 Y125.21 E285.147
G1 X136.893 Y124.543 E285.18
G1 F1800 E275.18
;rapid-dry
G1 F236
G0 X127.426 Y118.618
G1 F1800 E285.18
;bead-sparse_infill
G1 X127.352 Y117.97 F3600 E285.202
G1 X127.387 Y117.907 E285.204
G1 X123.933 Y115.125 E285.352
G1 X124.18 Y114.685 E285.368
G1 F1800 E275.368
;rapid-dry
G1 F236
G0 X114.155 Y92.701
G1 F1800 E285.368
;bead-sparse_infill
G1 X114.077 Y92.631 F3600 E285.372
G1 X114.041 Y92.566 E285.374
G1 X105.672 Y92.701 E285.653
G1 X105.633 Y92.631 E285.655
G1 X105.64 Y92.566 E285.658
G1 F1800 E275.658
;rapid-dry
G1 F236
G0 X100.757 Y93.663
G1 F1800 E285.658
;bead-sparse_infill
G1 X100.892 Y93.783 F3600 E285.664
G1 Y100.363 E285.883
G1 X100.757 Y100.483 E285.889
G1 X100.047 Y107.511 E286.123
G1 X100.892 Y108.262 E286.161
G1 X101.093 Y108.441 E286.17
G1 X101.632 Y108.921 E286.194
G1 X101.883 Y109.367 E286.211
G1 X92.045 Y118.539 E286.658
G1 X91.378 Y119.748 E286.704
G1 X87.164 Y123.42 E286.89
G1 X87.341 Y123.736 E286.902
G1 F1800 E276.902
;Layer : 5 of 50
;rapid-leaky
G1 F236
G0 X84.603 Y125.528 Z1.1
G1 F1800 E286.902
;bead-perimeter_inner
G1 X95.442 Y114.689 F1560 E287.412
G1 X96.2 Y113.881 E287.449
G1 X96.909 Y113.017 E287.486
G1 X97.559 Y112.109 E287.523
G1 X98.15 Y111.16 E287.56
G1 X98.676 Y110.174 E287.598
G1 X99.137 Y109.156 E287.635
G1 X99.531 Y108.111 E287.672
G1 X99.855 Y107.041 E287.709
G1 X100.109 Y105.953 E287.746
G1 X100.292 Y104.851 E287.783
G1 X100.4 Y103.739 E287.821
G1 X100.437 Y102.631 E287.857
G1 Y92.246 E288.203
G1 X119.627 E288.841
G1 Y102.631 E289.187
G1 X119.675 Y103.862 E289.228
G1 X119.773 Y104.851 E289.261
G1 X119.955 Y105.953 E289.298
G1 X120.208 Y107.041 E289.335
G1 X120.533 Y108.111 E289.372
G1 X120.927 Y109.156 E289.409
G1 X121.387 Y110.174 E289.446
G1 X121.914 Y111.16 E289.484
G1 X122.504 Y112.109 E289.521
G1 X123.156 Y113.017 E289.558
G1 X123.864 Y113.881 E289.595
G1 X124.622 Y114.689 E289.632
G1 X135.458 Y125.526 E290.142
G1 X141.953 Y119.031 E290.447
G1 X143.159 Y120.237 E290.504
G1 X135.875 Y127.52 E290.846
G1 X117.582 Y109.227 E291.707
G1 Y108.121 E291.744
G1 X118.852 E291.786
G1 Y93.021 E292.288
G1 X101.212 E292.875
G1 Y108.121 E293.377
G1 X102.482 E293.419
G1 Y109.225 E293.456
G1 X84.081 Y127.408 E294.316
G1 X76.841 Y120.081 E294.659
G1 X78.045 Y118.892 E294.715
G1 X84.603 Y125.528 E295.026
;rapid-leaky
G1 F236
G0 X84.604 Y125.011
;bead-perimeter_outer
G1 X95.18 Y114.435 F1080 E295.523
G1 X95.925 Y113.64 E295.559
G1 X96.619 Y112.795 E295.596
G1 X97.255 Y111.906 E295.632
G1 X97.833 Y110.977 E295.668
G1 X98.348 Y110.012 E295.705
G1 X98.8 Y109.017 E295.741
G1 X99.185 Y107.993 E295.778
G1 X99.502 Y106.947 E295.814
G1 X99.751 Y105.882 E295.85
G1 X99.929 Y104.803 E295.887
G1 X100.036 Y103.715 E295.923
G1 X100.072 Y102.625 E295.959
G1 Y91.881 E296.317
G1 X119.992 E296.979
G1 Y102.625 E297.337
G1 X120.038 Y103.827 E297.377
G1 X120.135 Y104.803 E297.409
G1 X120.313 Y105.882 E297.446
G1 X120.561 Y106.947 E297.482
G1 X120.879 Y107.993 E297.518
G1 X121.264 Y109.017 E297.555
G1 X121.715 Y110.012 E297.591
G1 X122.231 Y110.977 E297.627
G1 X122.808 Y111.906 E297.664
G1 X123.445 Y112.795 E297.7
G1 X124.139 Y113.64 E297.737
G1 X124.884 Y114.435 E297.773
G1 X135.458 Y125.01 E298.27
G1 X141.953 Y118.515 E298.576
G1 X143.675 Y120.237 E298.657
G1 X135.875 Y128.036 E299.024
G1 X117.217 Y109.378 E299.901
G1 Y107.756 E299.955
G1 X118.487 E299.997
G1 Y93.386 E300.475
G1 X101.577 E301.038
G1 Y107.756 E301.516
G1 X102.847 E301.558
G1 Y109.377 E301.612
G1 X84.078 Y127.924 E302.489
G1 X76.325 Y120.078 E302.856
G1 X78.048 Y118.376 E302.937
G1 X84.604 Y125.011 E303.247
;rapid-leaky
G1 F236
G0 X87.302 Y123.281
;bead-sparse_infill
G1 X87.45 Y123.4 F3600 E303.253
G1 X87.526 Y123.553 E303.259
G1 X91.3 Y119.824 E303.436
G1 X91.308 Y119.78 E303.437
G1 X92.156 Y118.428 E303.49
G1 X93.322 Y117.262 E303.545
G1 X94.689 Y116.16 E303.603
G1 X94.955 Y115.628 E303.623
G1 X102.063 Y109.189 E303.942
G1 X101.929 Y108.921 E303.952
G1 X101.333 Y108.441 E303.978
G1 X100.892 Y108.085 E303.996
G1 X100.073 Y107.426 E304.031
G1 X100.757 Y100.357 E304.268
G1 X100.892 Y100.248 E304.273
G1 Y93.606 E304.494
G1 X100.757 Y93.497 E304.5
;rapid-leaky
G1 F236
G0 X105.46 Y92.566
;bead-sparse_infill
G1 X105.448 Y92.631 F3600 E304.502
G1 X105.483 Y92.701 E304.505
G1 X114.12 Y92.566 E304.792
G1 X114.161 Y92.631 E304.795
G1 X114.248 Y92.701 E304.798
G1 F1800 E294.798
;rapid-dry
G1 F236
G0 X124.314 Y114.828
G1 F1800 E304.798
;bead-sparse_infill
G1 X124.088 Y115.28 F3600 E304.815
G1 X127.261 Y117.781 E304.95
G1 X127.167 Y117.97 E304.957
G1 X127.257 Y118.449 E304.973
G1 F1800 E294.973
;rapid-dry
G1 F236
G0 X136.821 Y124.616
G1 F1800 E304.973
;bead-sparse_infill
G1 X137.559 Y125.21 F3600 E305.004
G1 X137.626 Y125.317 E305.009
G1 X142.439 Y120.504 E305.235
G1 X141.986 Y119.78 E305.263
G1 X141.934 Y119.503 E305.273
G1 F1800 E295.273
;Layer : 6 of 50
;rapid-leaky
G1 F236
G0 X141.953 Y119.032 Z1.3
G1 F1800 E305.273
;bead-perimeter_inner
G1 X143.159 Y120.237 F1560 E305.33
G1 X135.875 Y127.52 E305.672
G1 X117.582 Y109.227 E306.533
G1 Y108.121 E306.569
G1 X118.852 E306.612
G1 Y93.021 E307.114
G1 X101.212 E307.701
G1 Y108.121 E308.203
G1 X102.482 E308.245
G1 Y109.225 E308.282
G1 X84.081 Y127.408 E309.142
G1 X76.841 Y120.081 E309.485
G1 X78.045 Y118.892 E309.541
G1 X84.603 Y125.528 E309.851
G1 X95.442 Y114.689 E310.361
G1 X96.2 Y113.881 E310.398
G1 X96.909 Y113.017 E310.435
G1 X97.559 Y112.109 E310.472
G1 X98.15 Y111.16 E310.509
G1 X98.676 Y110.174 E310.547
G1 X99.137 Y109.156 E310.584
G1 X99.531 Y108.111 E310.621
G1 X99.855 Y107.041 E310.658
G1 X100.109 Y105.953 E310.695
G1 X100.292 Y104.851 E310.732
G1 X100.4 Y103.739 E310.77
G1 X100.437 Y102.631 E310.806
G1 Y92.246 E311.152
G1 X119.627 E311.79
G1 Y102.631 E312.136
G1 X119.663 Y103.739 E312.172
G1 X119.773 Y104.851 E312.21
G1 X119.955 Y105.953 E312.247
G1 X120.208 Y107.041 E312.284
G1 X120.533 Y108.111 E312.321
G1 X120.927 Y109.156 E312.358
G1 X121.387 Y110.174 E312.395
G1 X121.914 Y111.16 E312.433
G1 X122.504 Y112.109 E312.47
G1 X123.156 Y113.017 E312.507
G1 X123.864 Y113.881 E312.544
G1 X124.622 Y114.689 E312.581
G1 X135.458 Y125.526 E313.091
G1 X141.953 Y119.032 E313.396
;rapid-leaky
G1 F236
G0 Y118.515
;bead-perimeter_outer
G1 X143.675 Y120.237 F1080 E313.477
G1 X135.875 Y128.036 E313.844
G1 X117.217 Y109.378 E314.722
G1 Y107.756 E314.776
G1 X118.487 E314.818
G1 Y93.386 E315.296
G1 X101.577 E315.858
G1 Y107.756 E316.336
G1 X102.847 E316.378
G1 Y109.377 E316.432
G1 X84.078 Y127.924 E317.31
G1 X76.325 Y120.078 E317.677
G1 X78.048 Y118.376 E317.757
G1 X84.604 Y125.011 E318.068
G1 X95.18 Y114.435 E318.565
G1 X95.925 Y113.64 E318.601
G1 X96.619 Y112.795 E318.638
G1 X97.255 Y111.906 E318.674
G1 X97.833 Y110.977 E318.71
G1 X98.348 Y110.012 E318.747
G1 X98.8 Y109.017 E318.783
G1 X99.185 Y107.993 E318.82
G1 X99.502 Y106.947 E318.856
G1 X99.751 Y105.882 E318.892
G1 X99.929 Y104.803 E318.929
G1 X100.036 Y103.715 E318.965
G1 X100.072 Y102.625 E319.001
G1 Y91.881 E319.359
G1 X119.992 E320.021
G1 Y102.625 E320.379
G1 X120.027 Y103.715 E320.415
G1 X120.135 Y104.803 E320.451
G1 X120.313 Y105.882 E320.488
G1 X120.561 Y106.947 E320.524
G1 X120.879 Y107.993 E320.56
G1 X121.264 Y109.017 E320.597
G1 X121.715 Y110.012 E320.633
G1 X122.231 Y110.977 E320.669
G1 X122.808 Y111.906 E320.706
G1 X123.445 Y112.795 E320.742
G1 X124.139 Y113.64 E320.778
G1 X124.884 Y114.435 E320.815
G1 X135.458 Y125.01 E321.312
G1 X141.953 Y118.515 E321.618
;rapid-leaky
G1 F236
G0 X141.867 Y119.57
;bead-sparse_infill
G1 X141.923 Y119.78 F3600 E321.625
G1 X142.436 Y120.507 E321.654
G1 X137.584 Y125.359 E321.883
G1 X137.478 Y125.21 E321.889
G1 X136.749 Y124.688 E321.919
G1 F1800 E311.919
;rapid-dry
G1 F236
G0 X127.029 Y118.221
G1 F1800 E321.919
;bead-sparse_infill
G1 X126.962 Y117.97 F3600 E321.927
G1 X127.104 Y117.624 E321.94
G1 X124.487 Y115.007 E322.063
G1 X124.291 Y115.483 E322.08
G1 X120.506 Y108.947 E322.331
G1 X120.469 Y108.921 E322.333
G1 X119.722 Y107.111 E322.398
G1 X119.815 Y106.763 E322.41
G1 F1800 E312.41
;rapid-dry
G1 F236
G0 X114.339 Y92.701
G1 F1800 E322.41
;bead-sparse_infill
G1 X114.242 Y92.631 F3600 E322.414
G1 X114.196 Y92.566 E322.416
G1 X105.26 E322.714
G1 X105.243 Y92.631 E322.716
G1 X105.272 Y92.701 E322.718
;rapid-leaky
G1 F236
G0 X100.892 Y93.439
;bead-sparse_infill
G1 X100.757 Y93.343 F3600 E322.724
G1 X100.892 Y100.149 E322.95
G1 X100.757 Y100.245 E322.956
G1 X100.096 Y107.349 E323.193
G1 X100.892 Y107.919 E323.226
G1 X101.622 Y108.441 E323.255
G1 X102.162 Y108.827 E323.278
G1 X95.495 Y115.088 E323.582
G1 X95.084 Y116.085 E323.618
G1 X94.89 Y116.277 E323.627
G1 X92.841 Y117.743 E323.71
G1 X92.306 Y118.278 E323.736
G1 X91.246 Y119.78 E323.797
G1 X91.211 Y119.913 E323.801
G1 X87.737 Y123.345 E323.964
G1 X87.446 Y123.137 E323.976
G1 F1800 E313.976
;Layer : 7 of 50
;rapid-leaky
G1 F236
G0 X84.603 Y125.528 Z1.5
G1 F1800 E323.976
;bead-perimeter_inner
G1 X95.442 Y114.689 F1560 E324.486
G1 X96.2 Y113.881 E324.522
G1 X96.909 Y113.017 E324.56
G1 X97.559 Y112.109 E324.597
G1 X98.15 Y111.16 E324.634
G1 X98.676 Y110.174 E324.671
G1 X99.137 Y109.156 E324.708
G1 X99.531 Y108.111 E324.745
G1 X99.855 Y107.041 E324.783
G1 X100.109 Y105.953 E324.82
G1 X100.292 Y104.851 E324.857
G1 X100.4 Y103.739 E324.894
G1 X100.437 Y102.631 E324.931
G1 Y92.246 E325.276
G1 X119.627 E325.915
G1 Y102.631 E326.26
G1 X119.663 Y103.739 E326.297
G1 X119.773 Y104.851 E326.334
G1 X119.955 Y105.953 E326.371
G1 X120.208 Y107.041 E326.408
G1 X120.533 Y108.111 E326.445
G1 X120.927 Y109.156 E326.483
G1 X121.387 Y110.174 E326.52
G1 X121.914 Y111.16 E326.557
G1 X122.504 Y112.109 E326.594
G1 X123.156 Y113.017 E326.631
G1 X123.864 Y113.881 E326.668
G1 X124.622 Y114.689 E326.705
G1 X135.458 Y125.526 E327.215
G1 X138.128 Y122.856 E327.341
G1 X138.98 Y122.04 E327.38
G1 X140.088 Y120.896 E327.433
G1 X141.953 Y119.031 E327.521
G1 X143.159 Y120.237 E327.577
G1 X135.875 Y127.52 E327.92
G1 X117.582 Y109.227 E328.78
G1 Y108.121 E328.817
G1 X118.852 E328.859
G1 Y93.021 E329.362
G1 X101.212 E329.948
G1 Y108.121 E330.451
G1 X102.482 E330.493
G1 Y109.225 E330.529
G1 X84.081 Y127.408 E331.39
G1 X76.841 Y120.081 E331.732
G1 X78.045 Y118.892 E331.789
G1 X79.953 Y120.823 E331.879
G1 X80.888 Y121.804 E331.924
G1 X81.902 Y122.796 E331.971
G1 X84.603 Y125.528 E332.099
;rapid-leaky
G1 F236
G0 X84.604 Y125.011
;bead-perimeter_outer
G1 X95.18 Y114.435 F1080 E332.597
G1 X95.925 Y113.64 E332.633
G1 X96.619 Y112.795 E332.669
G1 X97.255 Y111.906 E332.706
G1 X97.833 Y110.977 E332.742
G1 X98.348 Y110.012 E332.778
G1 X98.8 Y109.017 E332.815
G1 X99.185 Y107.993 E332.851
G1 X99.502 Y106.947 E332.887
G1 X99.751 Y105.882 E332.924
G1 X99.929 Y104.803 E332.96
G1 X100.036 Y103.715 E332.996
G1 X100.072 Y102.625 E333.033
G1 Y91.881 E333.39
G1 X119.992 E334.053
G1 Y102.625 E334.41
G1 X120.027 Y103.715 E334.446
G1 X120.135 Y104.803 E334.483
G1 X120.313 Y105.882 E334.519
G1 X120.561 Y106.947 E334.555
G1 X120.879 Y107.993 E334.592
G1 X121.264 Y109.017 E334.628
G1 X121.715 Y110.012 E334.664
G1 X122.231 Y110.977 E334.701
G1 X122.808 Y111.906 E334.737
G1 X123.445 Y112.795 E334.774
G1 X124.139 Y113.64 E334.81
G1 X124.884 Y114.435 E334.846
G1 X135.458 Y125.01 E335.344
G1 X137.873 Y122.595 E335.457
G1 X138.724 Y121.78 E335.496
G1 X139.826 Y120.642 E335.549
G1 X141.953 Y118.515 E335.649
G1 X143.675 Y120.237 E335.73
G1 X135.875 Y128.036 E336.097
G1 X117.217 Y109.378 E336.975
G1 Y107.756 E337.029
G1 X118.487 E337.071
G1 Y93.386 E337.549
G1 X101.577 E338.111
G1 Y107.756 E338.589
G1 X102.847 E338.631
G1 Y109.377 E338.685
G1 X84.078 Y127.924 E339.563
G1 X76.325 Y120.078 E339.93
G1 X78.048 Y118.376 E340.01
G1 X80.217 Y120.571 E340.113
G1 X81.148 Y121.547 E340.158
G1 X82.159 Y122.536 E340.205
G1 X84.604 Y125.011 E340.321
;rapid-leaky
G1 F236
G0 X87.612 Y122.972
;bead-sparse_infill
G1 X87.922 Y123.162 F3600 E340.333
G1 X91.079 Y120.042 E340.48
G1 X91.172 Y119.78 E340.49
G1 X92.55 Y118.033 E340.564
G1 X92.634 Y117.949 E340.568
G1 X94.122 Y117.036 E340.626
G1 X95.961 Y114.603 E340.727
G1 X95.74 Y115.437 E340.756
G1 X102.162 Y108.536 E341.069
G1 X102.007 Y108.441 E341.075
;rapid-leaky
G1 F236
G0 X100.892 Y107.757
;bead-sparse_infill
G1 X100.117 Y107.281 F3600 E341.106
G1 X100.757 Y100.145 E341.344
G1 X100.892 Y100.062 E341.349
G1 X100.757 Y93.194 E341.578
G1 X100.892 Y93.277 E341.583
;rapid-leaky
G1 F236
G0 X105.033 Y92.701
;bead-sparse_infill
G1 X105.014 Y92.631 F3600 E341.585
G1 X105.037 Y92.566 E341.588
G1 X114.267 E341.895
G1 X114.319 Y92.631 E341.897
G1 X114.432 Y92.701 E341.902
G1 F1800 E331.902
;rapid-dry
G1 F236
G0 X119.735 Y106.423
G1 F1800 E341.902
;bead-sparse_infill
G1 X119.493 Y107.111 F3600 E341.926
G1 X119.973 Y108.921 E341.988
G1 X120.66 Y109.342 E342.015
G1 X124.604 Y115.796 E342.267
G1 X124.745 Y115.264 E342.285
G1 X126.883 Y117.403 E342.386
G1 X126.742 Y117.935 E342.404
G1 F1800 E332.404
;rapid-dry
G1 F236
G0 X136.673 Y124.763
G1 F1800 E342.404
;bead-sparse_infill
G1 X137.401 Y125.21 F3600 E342.432
G1 X137.547 Y125.395 E342.44
G1 X142.429 Y120.515 E342.67
G1 X141.849 Y119.78 E342.701
G1 X141.799 Y119.638 E342.706
G1 F1800 E332.706
;Layer : 8 of 50
;rapid-leaky
G1 F236
G0 X141.953 Y119.031 Z1.7
G1 F1800 E342.706
;bead-perimeter_inner
G1 X143.159 Y120.237 F1560 E342.763
G1 X135.875 Y127.52 E343.105
G1 X117.582 Y109.227 E343.966
G1 Y108.121 E344.002
G1 X118.852 E344.045
G1 Y93.021 E344.547
G1 X101.212 E345.134
G1 Y108.121 E345.636
G1 X102.482 E345.678
G1 Y109.225 E345.715
G1 X84.081 Y127.408 E346.575
G1 X76.841 Y120.081 E346.918
G1 X78.045 Y118.892 E346.974
G1 X79.634 Y120.5 E347.049
G1 X80.572 Y121.542 E347.096
G1 X80.874 Y121.859 E347.11
G1 X82.215 Y123.112 E347.171
G1 X84.603 Y125.528 E347.284
G1 X95.442 Y114.689 E347.794
G1 X96.2 Y113.881 E347.831
G1 X96.909 Y113.017 E347.868
G1 X97.559 Y112.109 E347.905
G1 X98.15 Y111.16 E347.943
G1 X98.676 Y110.174 E347.98
G1 X99.137 Y109.156 E348.017
G1 X99.531 Y108.111 E348.054
G1 X99.855 Y107.041 E348.091
G1 X100.109 Y105.953 E348.128
G1 X100.291 Y104.851 E348.166
G1 X100.31 Y104.664 E348.172
G1 X100.4 Y103.739 E348.203
G1 X100.437 Y102.631 E348.24
G1 Y92.246 E348.585
G1 X119.627 E349.223
G1 Y102.631 E349.569
G1 X119.663 Y103.739 E349.606
G1 X119.773 Y104.851 E349.643
G1 X119.955 Y105.953 E349.68
G1 X120.208 Y107.041 E349.717
G1 X120.533 Y108.111 E349.754
G1 X120.927 Y109.156 E349.791
G1 X121.387 Y110.174 E349.829
G1 X121.914 Y111.16 E349.866
G1 X122.504 Y112.109 E349.903
G1 X123.156 Y113.017 E349.94
G1 X123.864 Y113.881 E349.977
G1 X124.622 Y114.689 E350.014
G1 X135.458 Y125.526 E350.524
G1 X137.806 Y123.178 E350.634
G1 X139.002 Y122.083 E350.688
G1 X139.308 Y121.776 E350.703
G1 X140.403 Y120.582 E350.757
G1 X141.953 Y119.031 E350.829
;rapid-leaky
G1 F236
G0 Y118.515
;bead-perimeter_outer
G1 X143.675 Y120.237 F1080 E350.91
G1 X135.875 Y128.036 E351.277
G1 X117.217 Y109.378 E352.155
G1 Y107.756 E352.209
G1 X118.487 E352.251
G1 Y93.386 E352.729
G1 X101.577 E353.291
G1 Y107.756 E353.769
G1 X102.847 E353.812
G1 Y109.377 E353.866
G1 X84.078 Y127.924 E354.743
G1 X76.325 Y120.078 E355.11
G1 X78.048 Y118.376 E355.191
G1 X79.898 Y120.248 E355.278
G1 X81.134 Y121.602 E355.339
G1 X82.47 Y122.851 E355.4
G1 X84.604 Y125.011 E355.501
G1 X95.18 Y114.435 E355.998
G1 X95.925 Y113.64 E356.035
G1 X96.619 Y112.795 E356.071
G1 X97.255 Y111.906 E356.107
G1 X97.833 Y110.977 E356.144
G1 X98.348 Y110.012 E356.18
G1 X98.8 Y109.017 E356.217
G1 X99.185 Y107.993 E356.253
G1 X99.502 Y106.947 E356.289
G1 X99.751 Y105.882 E356.326
G1 X99.947 Y104.628 E356.368
G1 X100.036 Y103.715 E356.398
G1 X100.072 Y102.625 E356.435
G1 Y91.881 E356.792
G1 X119.992 E357.455
G1 Y102.625 E357.812
G1 X120.027 Y103.715 E357.848
G1 X120.135 Y104.803 E357.885
G1 X120.313 Y105.882 E357.921
G1 X120.561 Y106.947 E357.957
G1 X120.879 Y107.993 E357.994
G1 X121.264 Y109.017 E358.03
G1 X121.715 Y110.012 E358.066
G1 X122.231 Y110.977 E358.103
G1 X122.808 Y111.906 E358.139
G1 X123.445 Y112.795 E358.176
G1 X124.139 Y113.64 E358.212
G1 X124.884 Y114.435 E358.248
G1 X135.458 Y125.01 E358.745
G1 X137.553 Y122.915 E358.844
G1 X138.749 Y121.82 E358.898
G1 X139.045 Y121.523 E358.912
G1 X140.14 Y120.329 E358.966
G1 X141.953 Y118.515 E359.051
;rapid-leaky
G1 F236
G0 X141.73 Y119.707
;bead-sparse_infill
G1 X141.762 Y119.78 F3600 E359.054
G1 X142.417 Y120.526 E359.087
G1 X137.516 Y125.426 E359.317
G1 X137.326 Y125.21 E359.327
G1 X136.574 Y124.863 E359.354
G1 F1800 E349.354
;rapid-dry
G1 F236
G0 X132.71 Y123.903
G1 F1800 E359.354
;bead-sparse_infill
G1 X132.798 Y123.4 F3600 E359.371
G1 X131.702 Y122.895 E359.412
G1 X126.413 Y117.606 E359.66
G1 X126.272 Y116.791 E359.688
G1 X125.541 Y116.061 E359.722
G1 X125.558 Y116.16 E359.726
G1 X125.154 Y116.347 E359.74
G1 X120.877 Y109.822 E360
G1 X118.922 Y108.921 E360.071
G1 X119.006 Y108.441 E360.088
G1 X117.902 Y108.729 E360.126
G1 X118.319 Y108.921 E360.141
G1 X118.231 Y109.423 E360.158
;rapid-leaky
G1 F236
G0 X119.172 Y107.485
;bead-sparse_infill
G1 X119.237 Y107.111 F3600 E360.17
G1 X119.669 Y106.14 E360.206
G1 X119.307 Y94.619 E360.589
G1 X119.172 Y94.557 E360.594
G1 Y93.006 E360.646
G1 X119.237 Y92.631 E360.658
G1 X119.266 Y92.566 E360.661
G1 X114.544 Y92.701 E360.818
G1 X114.394 Y92.631 E360.823
G1 X114.336 Y92.566 E360.826
G1 X104.787 E361.144
G1 X104.758 Y92.631 E361.146
G1 X104.746 Y92.701 E361.149
G1 X100.757 Y93.02 E361.282
G1 X100.892 Y93.082 E361.287
G1 Y99.98 E361.516
G1 X100.757 Y100.042 E361.521
G1 X100.137 Y107.214 E361.76
G1 X100.892 Y107.562 E361.788
G1 X96.257 Y114.288 E362.06
G1 X96.285 Y114.35 E362.062
G1 X96.366 Y114.818 E362.078
G1 X93.616 Y117.536 E362.206
G1 X92.675 Y117.97 E362.241
G1 X91.085 Y119.78 E362.321
G1 X90.88 Y120.239 E362.338
G1 X88.216 Y122.872 E362.462
G1 X87.871 Y122.713 E362.475
G1 F1800 E352.475
;Layer : 9 of 50
;rapid-leaky
G1 F236
G0 X84.603 Y125.528 Z1.9
G1 F1800 E362.475
;bead-perimeter_inner
G1 X95.442 Y114.689 F1560 E362.985
G1 X96.2 Y113.881 E363.022
G1 X96.909 Y113.017 E363.059
G1 X97.559 Y112.109 E363.096
G1 X98.15 Y111.16 E363.133
G1 X98.676 Y110.174 E363.17
G1 X99.137 Y109.156 E363.207
G1 X99.531 Y108.111 E363.245
G1 X99.855 Y107.041 E363.282
G1 X100.109 Y105.953 E363.319
G1 X100.291 Y104.851 E363.356
G1 X100.312 Y104.642 E363.363
G1 X100.4 Y103.739 E363.393
G1 X100.437 Y102.631 E363.43
G1 Y92.246 E363.776
G1 X119.627 E364.414
G1 Y102.631 E364.759
G1 X119.663 Y103.739 E364.796
G1 X119.773 Y104.851 E364.833
G1 X119.955 Y105.953 E364.87
G1 X120.208 Y107.041 E364.908
G1 X120.533 Y108.111 E364.945
G1 X120.927 Y109.156 E364.982
G1 X121.387 Y110.174 E365.019
G1 X121.914 Y111.16 E365.056
G1 X122.504 Y112.109 E365.093
G1 X123.156 Y113.017 E365.131
G1 X123.864 Y113.881 E365.168
G1 X124.622 Y114.689 E365.205
G1 X135.458 Y125.526 E365.714
G1 X137.559 Y123.426 E365.813
G1 X138.026 Y123.001 E365.834
G1 X138.422 Y122.684 E365.851
G1 X139.073 Y122.104 E365.88
G1 X139.629 Y121.521 E365.907
G1 X140.227 Y120.8 E365.938
G1 X140.643 Y120.342 E365.958
G1 X141.953 Y119.031 E366.02
G1 X143.159 Y120.237 E366.077
G1 X135.875 Y127.52 E366.419
G1 X117.582 Y109.227 E367.28
G1 Y108.121 E367.317
G1 X118.852 E367.359
G1 Y93.021 E367.861
G1 X101.212 E368.448
G1 Y108.121 E368.95
G1 X102.482 E368.992
G1 Y109.225 E369.029
G1 X84.081 Y127.408 E369.889
G1 X76.841 Y120.081 E370.232
G1 X78.045 Y118.892 E370.288
G1 X79.389 Y120.251 E370.352
G1 X79.813 Y120.724 E370.373
G1 X80.267 Y121.286 E370.397
G1 X80.828 Y121.908 E370.425
G1 X81.436 Y122.471 E370.452
G1 X81.996 Y122.933 E370.477
G1 X82.454 Y123.354 E370.497
G1 X84.603 Y125.528 E370.599
;rapid-leaky
G1 F236
G0 X84.604 Y125.011
;bead-perimeter_outer
G1 X95.18 Y114.435 F1080 E371.096
G1 X95.925 Y113.64 E371.133
G1 X96.619 Y112.795 E371.169
G1 X97.255 Y111.906 E371.205
G1 X97.833 Y110.977 E371.242
G1 X98.348 Y110.012 E371.278
G1 X98.8 Y109.017 E371.315
G1 X99.185 Y107.993 E371.351
G1 X99.502 Y106.947 E371.387
G1 X99.751 Y105.882 E371.424
G1 X99.929 Y104.803 E371.46
G1 X99.949 Y104.607 E371.467
G1 X100.036 Y103.715 E371.496
G1 X100.072 Y102.625 E371.533
G1 Y91.881 E371.89
G1 X119.992 E372.553
G1 Y102.625 E372.91
G1 X120.027 Y103.715 E372.946
G1 X120.135 Y104.803 E372.983
G1 X120.313 Y105.882 E373.019
G1 X120.561 Y106.947 E373.055
G1 X120.879 Y107.993 E373.092
G1 X121.264 Y109.017 E373.128
G1 X121.715 Y110.012 E373.164
G1 X122.231 Y110.977 E373.201
G1 X122.808 Y111.906 E373.237
G1 X123.445 Y112.795 E373.273
G1 X124.139 Y113.64 E373.31
G1 X124.884 Y114.435 E373.346
G1 X135.458 Y125.01 E373.843
G1 X137.307 Y123.162 E373.93
G1 X137.789 Y122.723 E373.952
G1 X138.188 Y122.404 E373.969
G1 X138.82 Y121.841 E373.997
G1 X139.356 Y121.279 E374.023
G1 X139.949 Y120.563 E374.054
G1 X140.379 Y120.09 E374.075
G1 X141.953 Y118.515 E374.149
G1 X143.675 Y120.237 E374.23
G1 X135.875 Y128.036 E374.597
G1 X117.217 Y109.378 E375.475
G1 Y107.756 E375.529
G1 X118.487 E375.571
G1 Y93.386 E376.049
G1 X101.577 E376.611
G1 Y107.756 E377.089
G1 X102.847 E377.132
G1 Y109.377 E377.186
G1 X84.078 Y127.924 E378.063
G1 X76.325 Y120.078 E378.43
G1 X78.048 Y118.376 E378.511
G1 X79.654 Y120.001 E378.587
G1 X80.093 Y120.49 E378.608
G1 X80.544 Y121.049 E378.632
G1 X81.087 Y121.65 E378.659
G1 X81.678 Y122.198 E378.686
G1 X82.233 Y122.655 E378.71
G1 X82.707 Y123.091 E378.731
G1 X84.604 Y125.011 E378.821
;rapid-leaky
G1 F236
G0 X88.091 Y122.493
;bead-sparse_infill
G1 X88.767 Y122.328 F3600 E378.844
G1 X90.654 Y120.463 E378.933
G1 X91.463 Y119.121 E378.985
G1 X91.5 Y119.083 E378.986
G1 X93.282 Y117.662 E379.062
G1 X93.607 Y117.545 E379.074
G1 X96.436 Y114.097 E379.222
G1 X96.682 Y114.506 E379.238
G1 X100.162 Y107.132 E379.509
G1 X100.521 Y107.419 E379.524
G1 X100.892 Y107.552 E379.538
G1 X100.757 Y99.991 E379.789
G1 X100.892 Y99.883 E379.795
G1 Y93.073 E380.021
G1 X100.757 Y93.025 E380.026
G1 X104.412 Y92.701 E380.148
G1 X104.494 Y92.566 E380.153
G1 X114.532 E380.487
G1 X114.702 Y92.701 E380.494
G1 X118.891 E380.634
G1 X118.973 Y92.566 E380.639
G1 X119.307 Y95.564 E380.739
G1 X119.172 Y95.597 E380.744
G1 X119.63 Y105.954 E381.089
G1 X119.172 Y106.715 E381.118
G1 X120.935 Y109.952 E381.241
G1 X120.43 Y109.77 E381.259
G1 X118.941 Y110.133 E381.31
G1 X131.345 Y122.537 E381.893
G1 X131.885 Y122.406 E381.912
G1 X133.42 Y124.612 E382.001
G1 X133.96 Y124.48 E382.02
G1 F1800 E372.02
;rapid-dry
G1 F236
G0 X136.584 Y124.853
G1 F1800 E382.02
;bead-sparse_infill
G1 X136.719 Y124.902 F3600 E382.024
G1 X137.454 Y125.488 E382.056
G1 X142.338 Y120.605 E382.285
G1 X142.149 Y120.454 E382.293
G1 X141.711 Y119.726 E382.322
G1 F1800 E372.322
;Layer : 10 of 50
;rapid-leaky
G1 F236
G0 X141.953 Y119.031 Z2.1
G1 F1800 E382.322
;bead-perimeter_inner
G1 X143.159 Y120.237 F1560 E382.378
G1 X135.875 Y127.52 E382.721
G1 X117.582 Y109.227 E383.582
G1 Y108.121 E383.618
G1 X118.852 E383.661
G1 Y93.021 E384.163
G1 X101.212 E384.749
G1 Y108.121 E385.252
G1 X102.482 E385.294
G1 Y109.225 E385.331
G1 X84.081 Y127.408 E386.191
G1 X76.841 Y120.081 E386.534
G1 X78.045 Y118.892 E386.59
G1 X79.201 Y120.061 E386.645
G1 X79.543 Y120.45 E386.662
G1 X80.214 Y121.363 E386.7
G1 X80.477 Y121.685 E386.713
G1 X80.751 Y121.98 E386.727
G1 X81.043 Y122.258 E386.74
G1 X81.361 Y122.524 E386.754
G1 X82.268 Y123.207 E386.792
G1 X82.657 Y123.559 E386.809
G1 X84.603 Y125.528 E386.901
G1 X95.442 Y114.689 E387.411
G1 X96.2 Y113.881 E387.448
G1 X96.909 Y113.017 E387.485
G1 X97.559 Y112.109 E387.522
G1 X98.15 Y111.16 E387.559
G1 X98.676 Y110.174 E387.597
G1 X99.137 Y109.156 E387.634
G1 X99.531 Y108.111 E387.671
G1 X99.855 Y107.041 E387.708
G1 X100.109 Y105.953 E387.745
G1 X100.291 Y104.851 E387.782
G1 X100.314 Y104.621 E387.79
G1 X100.4 Y103.739 E387.82
G1 X100.437 Y102.631 E387.856
G1 Y92.246 E388.202
G1 X119.627 E388.84
G1 Y102.631 E389.186
G1 X119.663 Y103.739 E389.222
G1 X119.773 Y104.851 E389.26
G1 X119.955 Y105.953 E389.297
G1 X120.208 Y107.041 E389.334
G1 X120.533 Y108.111 E389.371
G1 X120.927 Y109.156 E389.408
G1 X121.387 Y110.174 E389.445
G1 X121.914 Y111.16 E389.483
G1 X122.504 Y112.109 E389.52
G1 X123.156 Y113.017 E389.557
G1 X123.864 Y113.881 E389.594
G1 X124.622 Y114.689 E389.631
G1 X135.458 Y125.526 E390.141
G1 X137.37 Y123.615 E390.231
G1 X137.754 Y123.272 E390.248
G1 X138.831 Y122.461 E390.293
G1 X139.135 Y122.193 E390.306
G1 X139.419 Y121.909 E390.319
G1 X139.687 Y121.605 E390.333
G1 X140.498 Y120.528 E390.378
G1 X140.848 Y120.137 E390.395
G1 X141.953 Y119.031 E390.447
;rapid-leaky
G1 F236
G0 Y118.515
;bead-perimeter_outer
G1 X143.675 Y120.237 F1080 E390.528
G1 X135.875 Y128.036 E390.895
G1 X117.217 Y109.378 E391.773
G1 Y107.756 E391.827
G1 X118.487 E391.869
G1 Y93.386 E392.347
G1 X101.577 E392.909
G1 Y107.756 E393.387
G1 X102.847 E393.429
G1 Y109.377 E393.483
G1 X84.078 Y127.924 E394.361
G1 X76.325 Y120.078 E394.728
G1 X78.048 Y118.376 E394.808
G1 X79.469 Y119.812 E394.876
G1 X79.827 Y120.22 E394.894
G1 X80.504 Y121.141 E394.932
G1 X80.752 Y121.445 E394.945
G1 X81.011 Y121.724 E394.957
G1 X81.286 Y121.985 E394.97
G1 X81.586 Y122.237 E394.983
G1 X82.5 Y122.925 E395.021
G1 X82.91 Y123.296 E395.039
G1 X84.604 Y125.011 E395.12
G1 X95.18 Y114.435 E395.617
G1 X95.925 Y113.64 E395.653
G1 X96.619 Y112.795 E395.69
G1 X97.255 Y111.906 E395.726
G1 X97.833 Y110.977 E395.762
G1 X98.348 Y110.012 E395.799
G1 X98.8 Y109.017 E395.835
G1 X99.185 Y107.993 E395.872
G1 X99.502 Y106.947 E395.908
G1 X99.751 Y105.882 E395.944
G1 X99.929 Y104.803 E395.981
G1 X99.951 Y104.586 E395.988
G1 X100.036 Y103.715 E396.017
G1 X100.072 Y102.625 E396.053
G1 Y91.881 E396.411
G1 X119.992 E397.073
G1 Y102.625 E397.431
G1 X120.027 Y103.715 E397.467
G1 X120.135 Y104.803 E397.503
G1 X120.313 Y105.882 E397.539
G1 X120.561 Y106.947 E397.576
G1 X120.879 Y107.993 E397.612
G1 X121.264 Y109.017 E397.649
G1 X121.715 Y110.012 E397.685
G1 X122.231 Y110.977 E397.721
G1 X122.808 Y111.906 E397.758
G1 X123.445 Y112.795 E397.794
G1 X124.139 Y113.64 E397.83
G1 X124.884 Y114.435 E397.867
G1 X135.458 Y125.01 E398.364
G1 X137.119 Y123.349 E398.442
G1 X137.522 Y122.99 E398.46
G1 X138.598 Y122.18 E398.505
G1 X138.885 Y121.927 E398.518
G1 X139.153 Y121.659 E398.53
G1 X139.406 Y121.372 E398.543
G1 X140.216 Y120.296 E398.588
G1 X140.582 Y119.886 E398.606
G1 X141.953 Y118.515 E398.671
;rapid-leaky
G1 F236
G0 X141.635 Y119.802
;bead-sparse_infill
G1 X142.149 Y120.531 F3600 E398.7
G1 X142.303 Y120.641 E398.707
;rapid-leaky
G1 F236
G0 X140.494 Y121.065
;bead-solid_infill
G1 X140.521 Y121.092 F2400 E398.708
G1 X140.359 Y121.496 E398.722
G1 X140.251 Y121.388 E398.727
G1 X140.008 Y121.711 E398.741
G1 X140.186 Y121.889 E398.749
G1 X140.137 Y122.015 E398.754
G1 X139.985 Y122.254 E398.763
G1 X139.749 Y122.018 E398.774
G1 X139.653 Y122.128 E398.779
G1 X139.473 Y122.307 E398.787
G1 X139.725 Y122.559 E398.799
G1 X139.604 Y122.68 E398.805
G1 X139.406 Y122.806 E398.813
G1 X139.18 Y122.58 E398.823
G1 X139.033 Y122.709 E398.83
G1 X138.868 Y122.834 E398.837
G1 X139.028 Y122.993 E398.844
G1 X138.922 Y123.052 E398.848
G1 X138.636 Y123.167 E398.859
G1 X138.545 Y123.077 E398.863
G1 X138.223 Y123.32 E398.876
G1 X138.232 Y123.329 E398.877
;rapid-leaky
G1 F236
G0 X136.516 Y124.921
;bead-sparse_infill
G1 X136.719 Y124.977 F3600 E398.884
G1 X137.447 Y125.496 E398.913
;rapid-leaky
G1 F236
G0 X134.232 Y124.752
;bead-sparse_infill
G1 X133.752 Y124.945 F3600 E398.931
G1 X131.653 Y122.174 E399.046
G1 X131.29 Y122.32 E399.059
G1 X131.066 Y122.258 E399.067
G1 X119.273 Y110.465 E399.622
G1 X120.43 Y110.001 E399.663
G1 X121.032 Y110.166 E399.684
G1 X119.172 Y106.332 E399.826
G1 X119.594 Y105.734 E399.85
G1 X119.172 Y96.027 E400.173
G1 X119.307 Y95.973 E400.178
;rapid-leaky
G1 F236
G0 X118.669 Y92.566
;bead-sparse_infill
G1 X118.62 Y92.635 F3600 E400.181
G1 X118.455 Y92.701 E400.187
G1 X114.772 E400.309
G1 X114.583 Y92.566 E400.317
G1 X104.189 E400.663
G1 X104.141 Y92.635 E400.665
G1 X103.976 Y92.701 E400.671
G1 X100.892 Y92.966 E400.774
G1 X100.757 Y92.929 E400.779
G1 X100.892 Y99.839 E401.009
G1 X100.757 Y99.935 E401.014
G1 X100.171 Y107.094 E401.253
G1 X100.521 Y107.343 E401.268
G1 X100.892 Y107.445 E401.28
G1 X96.589 Y113.911 E401.539
G1 X96.875 Y114.316 E401.555
G1 X93.462 Y117.688 E401.715
G1 X93.282 Y117.738 E401.721
G1 X91.761 Y118.823 E401.783
G1 X91.273 Y119.31 E401.806
G1 X90.011 Y121.098 E401.879
G1 X89.406 Y121.696 E401.907
G1 X88.54 Y122.043 E401.938
G1 F1800 E391.938
;rapid-dry
G1 F236
G0 X81.506 Y123.172
G1 F1800 E401.938
;bead-solid_infill
G1 X80.84 Y122.505 F2400 E401.969
G1 X80.829 Y122.496 E401.97
G1 X80.81 Y122.478 E401.971
G1 X80.523 Y122.205 E401.984
G1 X80.304 Y121.97 E401.995
G1 X79.594 Y121.26 E402.028
G1 F1800 E392.028
;Layer : 11 of 50
;rapid-leaky
G1 F236
G0 X76.841 Y120.081 Z2.3
G1 F1800 E402.028
;bead-perimeter_inner
G1 X78.045 Y118.892 F1560 E402.084
G1 X79.03 Y119.889 E402.131
G1 X79.331 Y120.235 E402.146
G1 X79.628 Y120.655 E402.163
G1 X80.137 Y121.458 E402.195
G1 X80.38 Y121.788 E402.209
G1 X80.646 Y122.085 E402.222
G1 X80.94 Y122.353 E402.235
G1 X81.265 Y122.6 E402.249
G1 X82.062 Y123.118 E402.28
G1 X82.479 Y123.42 E402.297
G1 X82.815 Y123.719 E402.312
G1 X84.603 Y125.528 E402.397
G1 X95.442 Y114.689 E402.907
G1 X96.2 Y113.881 E402.944
G1 X96.909 Y113.017 E402.981
G1 X97.559 Y112.109 E403.018
G1 X98.15 Y111.16 E403.055
G1 X98.676 Y110.174 E403.092
G1 X99.137 Y109.156 E403.129
G1 X99.531 Y108.111 E403.167
G1 X99.855 Y107.041 E403.204
G1 X100.109 Y105.953 E403.241
G1 X100.291 Y104.851 E403.278
G1 X100.316 Y104.599 E403.287
G1 X100.4 Y103.739 E403.315
G1 X100.437 Y102.631 E403.352
G1 Y92.246 E403.698
G1 X119.627 E404.336
G1 Y102.631 E404.681
G1 X119.663 Y103.739 E404.718
G1 X119.773 Y104.851 E404.755
G1 X119.955 Y105.953 E404.792
G1 X120.208 Y107.041 E404.83
G1 X120.533 Y108.111 E404.867
G1 X120.927 Y109.156 E404.904
G1 X121.387 Y110.174 E404.941
G1 X121.914 Y111.16 E404.978
G1 X122.504 Y112.109 E405.015
G1 X123.156 Y113.017 E405.053
G1 X123.864 Y113.881 E405.09
G1 X124.622 Y114.689 E405.127
G1 X135.458 Y125.526 E405.636
G1 X137.199 Y123.786 E405.718
G1 X137.535 Y123.49 E405.733
G1 X137.965 Y123.182 E405.751
G1 X138.262 Y123.001 E405.762
G1 X138.93 Y122.55 E405.789
G1 X139.24 Y122.294 E405.802
G1 X139.52 Y122.014 E405.816
G1 X139.776 Y121.704 E405.829
G1 X140.227 Y121.037 E405.856
G1 X140.408 Y120.739 E405.867
G1 X140.716 Y120.309 E405.885
G1 X141.006 Y119.979 E405.9
G1 X141.953 Y119.031 E405.944
G1 X143.159 Y120.237 E406.001
G1 X135.875 Y127.52 E406.343
G1 X117.582 Y109.227 E407.204
G1 Y108.121 E407.241
G1 X118.852 E407.283
G1 Y93.021 E407.785
G1 X101.212 E408.372
G1 Y108.121 E408.874
G1 X102.482 E408.916
G1 Y109.225 E408.953
G1 X84.081 Y127.408 E409.813
G1 X76.841 Y120.081 E410.156
;rapid-leaky
G1 F236
G0 X76.325 Y120.078
;bead-perimeter_outer
G1 X78.048 Y118.376 F1080 E410.237
G1 X79.298 Y119.641 E410.296
G1 X79.618 Y120.01 E410.312
G1 X79.937 Y120.46 E410.33
G1 X80.441 Y121.255 E410.362
G1 X80.664 Y121.557 E410.374
G1 X80.906 Y121.828 E410.386
G1 X81.174 Y122.073 E410.398
G1 X81.472 Y122.299 E410.411
G1 X82.261 Y122.813 E410.442
G1 X82.708 Y123.135 E410.46
G1 X83.066 Y123.454 E410.476
G1 X84.604 Y125.011 E410.549
G1 X95.18 Y114.435 E411.047
G1 X95.925 Y113.64 E411.083
G1 X96.619 Y112.795 E411.119
G1 X97.255 Y111.906 E411.155
G1 X97.833 Y110.977 E411.192
G1 X98.348 Y110.012 E411.228
G1 X98.8 Y109.017 E411.265
G1 X99.185 Y107.993 E411.301
G1 X99.502 Y106.947 E411.337
G1 X99.751 Y105.882 E411.374
G1 X99.929 Y104.803 E411.41
G1 X99.953 Y104.564 E411.418
G1 X100.036 Y103.715 E411.446
G1 X100.072 Y102.625 E411.483
G1 Y91.881 E411.84
G1 X119.992 E412.503
G1 Y102.625 E412.86
G1 X120.027 Y103.715 E412.896
G1 X120.135 Y104.803 E412.933
G1 X120.313 Y105.882 E412.969
G1 X120.561 Y106.947 E413.005
G1 X120.879 Y107.993 E413.042
G1 X121.264 Y109.017 E413.078
G1 X121.715 Y110.012 E413.114
G1 X122.231 Y110.977 E413.151
G1 X122.808 Y111.906 E413.187
G1 X123.445 Y112.795 E413.224
G1 X124.139 Y113.64 E413.26
G1 X124.884 Y114.435 E413.296
G1 X135.458 Y125.01 E413.794
G1 X136.949 Y123.52 E413.864
G1 X137.308 Y123.204 E413.88
G1 X137.763 Y122.877 E413.898
G1 X138.065 Y122.693 E413.91
G1 X138.711 Y122.257 E413.936
G1 X138.995 Y122.023 E413.948
G1 X139.249 Y121.769 E413.96
G1 X139.483 Y121.485 E413.972
G1 X139.919 Y120.84 E413.998
G1 X140.103 Y120.537 E414.01
G1 X140.43 Y120.082 E414.029
G1 X140.74 Y119.729 E414.044
G1 X141.953 Y118.515 E414.101
G1 X143.675 Y120.237 E414.182
G1 X135.875 Y128.036 E414.549
G1 X117.217 Y109.378 E415.427
G1 Y107.756 E415.481
G1 X118.487 E415.523
G1 Y93.386 E416.001
G1 X101.577 E416.563
G1 Y107.756 E417.041
G1 X102.847 E417.084
G1 Y109.377 E417.138
G1 X84.078 Y127.924 E418.015
G1 X76.325 Y120.078 E418.382
;rapid-leaky
G1 F236
G0 X79.356 Y121.04
;bead-solid_infill
G1 X79.44 Y120.956 F2400 E418.386
G1 X79.659 Y121.303 E418.4
G1 X79.434 Y121.528 E418.41
G1 X79.446 Y121.62 E418.413
G1 X79.459 Y121.664 E418.415
G1 X79.463 Y121.962 E418.425
G1 X79.483 Y122.044 E418.428
G1 X79.879 Y121.648 E418.446
G1 X80.12 Y121.974 E418.46
G1 X79.638 Y122.456 E418.482
G1 X79.919 Y122.74 E418.496
G1 X80.385 Y122.274 E418.518
G1 X80.418 Y122.31 E418.519
G1 X80.677 Y122.547 E418.531
G1 X80.2 Y123.025 E418.553
G1 X80.455 Y123.283 E418.565
G1 X80.523 Y123.268 E418.568
G1 X80.994 Y122.796 E418.59
G1 X81.081 Y122.862 E418.594
G1 X81.331 Y123.025 E418.603
G1 X81.074 Y123.282 E418.616
G1 X81.098 Y123.289
G1 X81.564 Y123.358 E418.632
G1 X81.674 Y123.248 E418.637
G1 F1800 E408.637
;rapid-dry
G1 F236
G0 X89.073 Y121.51
G1 F1800 E418.637
;bead-sparse_infill
G1 X89.662 Y121.22 F3600 E418.659
G1 X90.833 Y119.751 E418.722
G1 X91.917 Y118.667 E418.773
G1 X93.282 Y117.801 E418.826
G1 X93.364 Y117.785 E418.829
G1 X96.719 Y113.752 E419.004
G1 X96.901 Y113.98 E419.013
G1 X97.11 Y114.083 E419.021
G1 X100.179 Y107.062 E419.276
G1 X100.521 Y107.28 E419.289
G1 X100.892 Y107.352 E419.302
G1 X100.757 Y99.891 E419.55
G1 X100.892 Y99.805 E419.555
G1 Y92.873 E419.786
G1 X100.757 Y92.846 E419.791
G1 X103.25 Y92.701 E419.874
G1 X103.524 Y92.566 E419.884
G1 X114.631 E420.253
G1 X114.844 Y92.701 E420.262
G1 X117.729 E420.358
G1 X118.003 Y92.566 E420.368
G1 F1800 E410.368
;rapid-dry
G1 F236
G0 X119.307 Y96.283
G1 F1800 E420.368
;bead-sparse_infill
G1 X119.172 Y96.349 F3600 E420.373
G1 X119.565 Y105.556 E420.679
G1 X119.172 Y106.049 E420.7
G1 X121.114 Y110.342 E420.857
G1 X120.43 Y110.208 E420.88
G1 X119.483 Y110.675 E420.915
G1 X130.83 Y122.023 E421.449
G1 X131.29 Y122.112 E421.465
G1 X131.492 Y122.012 E421.472
G1 X134.412 Y124.933 E421.609
G1 X133.962 Y125.154 E421.626
;rapid-leaky
G1 F236
G0 X136.449 Y124.988
;bead-sparse_infill
G1 X136.719 Y125.041 F3600 E421.635
G1 X137.443 Y125.5 E421.664
;rapid-leaky
G1 F236
G0 X138.651 Y123.405
;bead-solid_infill
G1 X140.63 Y121.426 F2400 E421.757
G1 X140.626 Y121.471 E421.758
G1 X140.578 Y121.695 E421.766
G1 X140.584 Y121.786 E421.769
G1 X140.551 Y122.07 E421.778
G1 X139.296 Y123.325 E421.837
;rapid-leaky
G1 F236
G0 X142.261 Y120.682
;bead-sparse_infill
G1 X142.149 Y120.611 F3600 E421.842
G1 X141.562 Y119.875 E421.873
G1 F1800 E411.873
;Layer : 12 of 50
;rapid-leaky
G1 F236
G0 X141.153 Y119.831 Z2.5
G1 F1800 E421.873
;bead-perimeter_inner
G1 X141.953 Y119.031 F1560 E421.911
G1 X143.159 Y120.237 E421.967
G1 X135.875 Y127.52 E422.31
G1 X117.582 Y109.227 E423.171
G1 Y108.121 E423.207
G1 X118.852 E423.25
G1 Y93.021 E423.752
G1 X101.212 E424.339
G1 Y108.121 E424.841
G1 X102.482 E424.883
G1 Y109.225 E424.92
G1 X84.081 Y127.408 E425.78
G1 X76.841 Y120.081 E426.123
G1 X78.045 Y118.892 E426.179
G1 X78.894 Y119.751 E426.219
G1 X79.153 Y120.054 E426.232
G1 X79.401 Y120.422 E426.247
G1 X79.839 Y121.257 E426.279
G1 X80.035 Y121.594 E426.292
G1 X80.243 Y121.92 E426.304
G1 X80.503 Y122.225 E426.318
G1 X80.805 Y122.49 E426.331
G1 X81.128 Y122.7 E426.344
G1 X81.463 Y122.902 E426.357
G1 X81.839 Y123.091 E426.371
G1 X82.293 Y123.349 E426.388
G1 X82.658 Y123.601 E426.403
G1 X82.962 Y123.867 E426.416
G1 X84.602 Y125.529 E426.494
G1 X95.442 Y114.689 E427.004
G1 X96.2 Y113.881 E427.041
G1 X96.909 Y113.017 E427.078
G1 X97.559 Y112.109 E427.115
G1 X98.15 Y111.16 E427.152
G1 X98.676 Y110.174 E427.189
G1 X99.137 Y109.156 E427.227
G1 X99.531 Y108.111 E427.264
G1 X99.855 Y107.041 E427.301
G1 X100.109 Y105.953 E427.338
G1 X100.291 Y104.851 E427.375
G1 X100.4 Y103.739 E427.412
G1 X100.437 Y102.631 E427.449
G1 Y92.246 E427.795
G1 X119.627 E428.433
G1 Y102.631 E428.778
G1 X119.663 Y103.739 E428.815
G1 X119.773 Y104.851 E428.852
G1 X119.955 Y105.953 E428.89
G1 X120.208 Y107.041 E428.927
G1 X120.533 Y108.111 E428.964
G1 X120.927 Y109.156 E429.001
G1 X121.387 Y110.174 E429.038
G1 X121.914 Y111.16 E429.075
G1 X122.504 Y112.109 E429.113
G1 X123.156 Y113.017 E429.15
G1 X123.864 Y113.881 E429.187
G1 X124.622 Y114.689 E429.224
G1 X135.458 Y125.526 E429.733
G1 X137.06 Y123.924 E429.809
G1 X137.363 Y123.661 E429.822
G1 X137.725 Y123.415 E429.837
G1 X138.191 Y123.153 E429.855
G1 X138.375 Y123.069 E429.861
G1 X139.054 Y122.678 E429.887
G1 X139.377 Y122.436 E429.901
G1 X139.496 Y122.319 E429.906
G1 X139.662 Y122.152 E429.914
G1 X139.904 Y121.828 E429.928
G1 X140.295 Y121.149 E429.954
G1 X140.379 Y120.965 E429.96
G1 X140.641 Y120.499 E429.978
G1 X140.887 Y120.137 E429.993
G1 X141.153 Y119.831 E430.006
;rapid-leaky
G1 F236
G0 X141.49 Y119.947
;bead-sparse_infill
G1 X142.149 Y120.695 F3600 E430.039
G1 X142.213 Y120.73 E430.042
;rapid-leaky
G1 F236
G0 X140.88 Y120.886
;bead-solid_infill
G1 X140.823 Y120.829 F2400 E430.044
G1 X140.682 Y121.078 E430.054
G1 X140.664 Y121.11 E430.055
G1 X140.625 Y121.197 E430.058
G1 X140.992 Y121.563 E430.076
G1 X141.027 Y121.635 E430.078
G1 X141.167 Y121.776 E430.085
G1 X140.903 Y122.04 E430.097
G1 X140.426 Y121.563 E430.12
G1 X140.219 Y121.922 E430.134
G1 X140.62 Y122.323 E430.152
G1 X140.337 Y122.606 E430.166
G1 X139.985 Y122.254 E430.182
G1 X139.905 Y122.361 E430.187
G1 X139.722 Y122.546 E430.195
G1 X139.717 Y122.551 E430.196
G1 X140.054 Y122.889 E430.212
G1 X139.772 Y123.171 E430.225
G1 X139.411 Y122.811 E430.242
G1 X139.231 Y122.945 E430.249
G1 X139.072 Y123.037 E430.255
G1 X139.489 Y123.454 E430.275
G1 X139.206 Y123.737 E430.288
G1 X138.713 Y123.244 E430.311
G1 X138.522 Y123.354 E430.319
G1 X138.34 Y123.437 E430.325
G1 X138.583 Y123.679 E430.337
G1 X138.497 Y123.662 E430.34
G1 X137.989 Y123.652 E430.357
G1 X137.978 Y123.64
;rapid-leaky
G1 F236
G0 X137.535 Y123.103
;bead-perimeter_outer
G1 X138.02 Y122.829 F1080 E430.376
G1 X138.211 Y122.743 E430.383
G1 X138.856 Y122.37 E430.408
G1 X139.139 Y122.159 E430.419
G1 X139.238 Y122.061 E430.424
G1 X139.385 Y121.913 E430.431
G1 X139.596 Y121.63 E430.443
G1 X139.969 Y120.985 E430.467
G1 X140.055 Y120.794 E430.474
G1 X140.329 Y120.309 E430.493
