;1001
;Printer name: Creality Ender 3 V2
;Print time: 1h:19m:28s
;Extruder 1 material used: 2394mm
;Extruder 1 material name: PVA 1.75mm
;Extruder 1 filament diameter: 1.75mm
;Extruder 1 nozzle diameter: 0.4mm
;Extruder 1 offset x: 0mm
;Extruder 1 offset y: 0mm
;Extruder 1 offset z: 0mm
;Extruder 1 max temp: 220
;Bed temp: 60
;Layer count: 179
;Width: 220mm
;Depth: 220mm
;Height: 250mm
;Center x: 110mm
;Center y: 110mm
;Center z: 0mm
;Count of bodies: 1
;Fusion version: 2.0.10148
;--------------------------------
;Selected Profile: PVA 1.75mm, 0.4mm Nozzle
;Selected Printer: Creality, Ender 3 V2
;--------------------------------
T0
M140 S60
M190 S60
M104 S220 T0
M105
M109 S220 T0
G1 F236
G21
G90
M82
;Reset multiplier
M220 S100
M221 S100
;Enable auto bed leveling
M420 S1 Z2
G28
G1 Z10
G92 E0
G0 X10 Y10 Z10
G92 E0
;--------------------------------
;Layer : 1 of 179
M107
;rapid-leaky
G0 X20 Y20.8 Z0.3
G1 F1800 E10
;bead-prime
G1 X200 F270 E45.921
G1 F1800 E35.921
;rapid-dry
G1 F236
G0 X154.697 Y94.838
G1 F1800 E45.921
;bead-skirt/brim
G1 Y97.121 F780 E46.035
G1 X154.839 Y97.087 E46.042
G1 Y112.303 E46.801
G1 X154.697 Y112.258 E46.809
G1 Y113.861 E46.889
G1 X146.31 Y109.93 E47.351
G1 Y109.351 E47.38
G1 X144.587 Y108.28 E47.481
G1 X143.011 Y109.189 E47.572
G1 X132.201 Y102.939 E48.195
G1 X143.011 Y96.689 E48.818
G1 X146.674 Y98.802 E49.029
G1 X154.697 Y94.838 E49.475
;rapid-leaky
G1 F236
G0 X154.297 Y95.481
;bead-skirt/brim
G1 Y97.631 F780 E49.582
G1 X154.439 Y97.596 E49.59
G1 Y111.756 E50.296
G1 X154.297 Y111.711 E50.304
G1 Y113.232 E50.379
G1 X146.71 Y109.675 E50.798
G1 Y109.128 E50.825
G1 X144.595 Y107.813 E50.949
G1 X143.011 Y108.727 E51.04
G1 X133 Y102.939 E51.617
G1 X143.011 Y97.151 E52.194
G1 X146.71 Y99.285 E52.407
G1 Y99.231 E52.41
G1 X154.297 Y95.481 E52.832
;rapid-leaky
G1 F236
G0 X153.897 Y96.125
;bead-skirt/brim
G1 Y98.14 F780 E52.933
G1 X154.039 Y98.105 E52.94
G1 Y111.21 E53.594
G1 X153.897 Y111.165 E53.601
G1 Y112.603 E53.673
G1 X147.11 Y109.421 E54.047
G1 Y108.906 E54.073
G1 X144.695 Y107.405 E54.214
G1 Y107.294 E54.22
G1 X143.011 Y108.265 E54.317
G1 X133.799 Y102.939 E54.848
G1 X143.011 Y97.613 E55.379
G1 X147.05 Y99.942 E55.611
G1 X147.11 Y99.901 E55.615
G1 Y99.479 E55.636
G1 X153.897 Y96.125 E56.014
;rapid-leaky
G1 F236
G0 X153.497 Y96.769
;bead-skirt/brim
G1 Y98.649 F780 E56.107
G1 X153.639 Y98.615 E56.115
G1 Y110.663 E56.716
G1 X153.497 Y110.618 E56.723
G1 Y111.974 E56.791
G1 X147.51 Y109.167 E57.121
G1 Y108.684 E57.145
G1 X145.095 Y107.182 E57.287
G1 Y106.774 E57.307
G1 X144.979 Y106.668 E57.315
G1 X143.012 Y107.803 E57.428
G1 X134.598 Y102.939 E57.913
G1 X143.012 Y98.075 E58.398
G1 X147.069 Y100.415 E58.632
G1 X147.51 Y100.111 E58.658
G1 Y99.728 E58.678
G1 X153.497 Y96.769 E59.011
;rapid-leaky
G1 F236
G0 X153.097 Y97.413
;bead-skirt/brim
G1 Y99.159 F780 E59.098
G1 X153.239 Y99.124 E59.105
G1 Y110.117 E59.654
G1 X153.097 Y110.072 E59.661
G1 Y111.344 E59.724
G1 X147.91 Y108.913 E60.01
G1 Y108.462 E60.033
G1 X145.495 Y106.96 E60.175
G1 Y106.598 E60.193
G1 X145.033 Y106.175 E60.224
G1 X143.012 Y107.341 E60.34
G1 X135.397 Y102.939 E60.779
G1 X143.012 Y98.536 E61.218
G1 X146.704 Y100.666 E61.431
G1 Y101.153 E61.455
G1 X147.91 Y100.321 E61.528
G1 Y99.976 E61.545
G1 X153.097 Y97.413 E61.834
;rapid-leaky
G1 F236
G0 X152.697 Y98.057
;bead-skirt/brim
G1 Y99.668 F780 E61.914
G1 X152.839 Y99.633 E61.922
G1 Y109.57 E62.417
G1 X152.697 Y109.525 E62.425
G1 Y110.715 E62.484
G1 X148.31 Y108.659 E62.726
G1 Y107.904 E62.763
G1 X148.072 Y108.091 E62.779
G1 X145.895 Y106.738 E62.907
G1 Y106.422 E62.922
G1 X145.165 Y105.754 E62.972
G1 X145.304 Y105.557 E62.984
G1 X143.012 Y106.88 E63.116
G1 X136.196 Y102.939 E63.508
G1 X143.012 Y98.998 E63.901
G1 X146.304 Y100.897 E64.091
G1 Y101.915 E64.142
G1 X147.97 Y100.765 E64.243
G1 X148.31 Y101.022 E64.264
G1 Y100.225 E64.304
G1 X152.697 Y98.057 E64.548
;rapid-leaky
G1 F236
G0 X152.297 Y98.701
;bead-skirt/brim
G1 Y100.177 F780 E64.621
G1 X152.439 Y100.143 E64.629
G1 Y109.024 E65.072
G1 X152.297 Y108.978 E65.079
G1 Y110.086 E65.134
G1 X148.71 Y108.404 E65.332
G1 X148.711 Y107.082 E65.398
G1 X148.045 Y107.604 E65.44
G1 X146.295 Y106.515 E65.543
G1 Y106.245 E65.556
G1 X145.695 Y105.697 E65.597
G1 X146.4 Y104.698 E65.658
G1 X146.483 Y104.478 E65.67
G1 X145.904 Y103.16 E65.742
G1 Y104.75 E65.821
G1 X143.012 Y106.418 E65.987
G1 X136.996 Y102.939 E66.334
G1 X143.012 Y99.46 E66.681
G1 X145.904 Y101.128 E66.847
G1 Y102.868 E66.934
G1 X146.295 Y102.601 E66.958
G1 Y102.408 E66.967
G1 X147.959 Y101.259 E67.068
G1 X148.71 Y101.824 E67.115
G1 Y100.473 E67.183
G1 X152.297 Y98.701 E67.382
;rapid-leaky
G1 F236
G0 X151.897 Y99.344
;bead-skirt/brim
G1 Y100.687 F780 E67.449
G1 X152.039 Y100.652 E67.457
G1 Y108.477 E67.847
G1 X151.897 Y108.432 E67.854
G1 Y109.456 E67.905
G1 X149.11 Y108.15 E68.059
G1 X149.111 Y106.566 E68.138
G1 X148.72 E68.158
G1 X148.019 Y107.116 E68.202
G1 X146.695 Y106.293 E68.28
G1 Y106.069 E68.291
G1 X146.225 Y105.639 E68.323
G1 X146.756 Y104.887 E68.369
G1 X146.915 Y104.467 E68.391
G1 X146.305 Y103.078 E68.467
G1 X146.695 Y102.812 E68.49
G1 Y102.617 E68.5
G1 X147.949 Y101.752 E68.576
G1 X148.723 Y102.335 E68.624
G1 X149.11 E68.644
G1 Y100.722 E68.724
G1 X151.897 Y99.344 E68.879
;rapid-leaky
G1 F236
G0 X151.497 Y99.988
;bead-skirt/brim
G1 Y101.196 F780 E68.939
G1 X151.639 Y101.162 E68.947
G1 Y107.93 E69.284
G1 X151.497 Y107.885 E69.292
G1 Y108.827 E69.339
G1 X149.51 Y107.896 E69.448
G1 X149.511 Y106.166 E69.535
G1 X148.582 E69.581
G1 X147.992 Y106.628 E69.618
G1 X147.095 Y106.071 E69.671
G1 Y105.893 E69.68
G1 X146.755 Y105.582 E69.703
G1 X147.112 Y105.076 E69.734
G1 X147.347 Y104.455 E69.767
G1 X146.805 Y103.221 E69.834
G1 X147.095 Y103.023 E69.852
G1 Y102.827 E69.862
G1 X147.939 Y102.245 E69.913
G1 X148.589 Y102.735 E69.953
G1 X149.51 E69.999
G1 Y100.97 E70.087
G1 X151.497 Y99.988 E70.198
;rapid-leaky
G1 F236
G0 X151.097 Y100.632
;bead-skirt/brim
G1 Y101.706 F780 E70.251
G1 X151.239 Y101.671 E70.259
G1 Y107.384 E70.544
G1 X151.097 Y107.339 E70.551
G1 Y108.198 E70.594
G1 X149.91 Y107.642 E70.659
G1 X149.911 Y105.766 E70.753
G1 X148.444 E70.826
G1 X147.966 Y106.141 E70.856
G1 X147.495 Y105.848 E70.884
G1 Y105.717 E70.891
G1 X147.285 Y105.525 E70.905
G1 X147.468 Y105.265 E70.921
G1 X147.779 Y104.444 E70.965
G1 X147.304 Y103.364 E71.023
G1 X147.495 Y103.234 E71.035
G1 Y103.037 E71.045
G1 X147.929 Y102.738 E71.071
G1 X148.455 Y103.135 E71.104
G1 X149.91 E71.176
G1 Y101.219 E71.272
G1 X151.097 Y100.632 E71.338
;rapid-leaky
G1 F236
G0 X145.504 Y101.36
;bead-skirt/brim
G1 Y104.519 F780 E71.496
G1 X143.012 Y105.956 E71.639
G1 X137.795 Y102.939 E71.94
G1 X143.013 Y99.922 E72.241
G1 X145.504 Y101.36 E72.384
;rapid-leaky
G1 F236
G0 X145.104 Y101.591
;bead-skirt/brim
G1 Y104.287 F780 E72.519
G1 X143.013 Y105.494 E72.639
G1 X138.594 Y102.939 E72.894
G1 X143.013 Y100.384 E73.148
G1 X145.104 Y101.591 E73.269
;rapid-leaky
G1 F236
G0 X144.704 Y101.822
;bead-skirt/brim
G1 Y104.056 F780 E73.38
G1 X143.013 Y105.032 E73.478
G1 X139.393 Y102.939 E73.686
G1 X143.013 Y100.846 E73.895
G1 X144.704 Y101.822 E73.992
;rapid-leaky
G1 F236
G0 X122.086 Y117.921
;bead-skirt/brim
G1 X118.71 Y123.768 F780 E74.329
G1 X118.59 Y127.227 E74.502
G1 X116.691 Y127.264 E74.597
G1 X114.607 Y130.874 E74.805
G1 X99.749 E75.546
G1 X100.975 Y128.176 E75.694
G1 X100.559 Y127.97 E75.717
G1 X100.634 Y127.805 E75.726
G1 X100.22 Y127.6 E75.749
G1 X100.304 Y127.414 E75.759
G1 X100.125 Y127.325 E75.769
G1 X100.184 Y127.176 E75.777
G1 X99.793 Y126.982 E75.799
G1 X99.797 Y126.97
G1 X97.993 E75.889
G1 X99.173 Y124.557 E76.023
G1 X98.766 Y124.332 E76.047
G1 X98.863 Y124.133 E76.058
G1 X98.455 Y123.918 E76.081
G1 X98.578 Y123.665 E76.095
G1 X98.169 Y123.441 E76.118
G1 X97.785 Y123.26 E76.139
G1 X98.101 Y122.406 E76.185
G1 X97.427 Y122.046 E76.223
G1 X97.544 Y121.79 E76.237
G1 X97.045 Y121.529 E76.265
G1 X97.176 Y121.257 E76.28
G1 X96.852 Y121.084 E76.298
G1 X96.966 Y120.836 E76.312
G1 X96.553 Y120.617 E76.335
G1 X96.68 Y120.339 E76.351
G1 X96.274 Y120.123 E76.373
G1 X96.387 Y119.876 E76.387
G1 X95.978 Y119.66 E76.41
G1 X96.109 Y119.374 E76.426
G1 X95.708 Y119.16 E76.448
G1 X95.822 Y118.911 E76.462
G1 X95.423 Y118.7 E76.485
G1 X95.552 Y118.417 E76.5
G1 X95.136 Y118.196 E76.524
G1 X95.255 Y117.936 E76.538
G1 X94.855 Y117.722 E76.561
G1 X94.969 Y117.473 E76.574
G1 X94.563 Y117.257 E76.597
G1 X94.691 Y116.977 E76.613
G1 X94.282 Y116.759 E76.636
G1 X94.397 Y116.509 E76.649
G1 X93.99 Y116.293 E76.672
G1 X94.115 Y116.02 E76.687
G1 X93.714 Y115.806 E76.71
G1 X93.84 Y115.53 E76.725
G1 X93.393 Y115.299 E76.75
G1 X93.49 Y115.092 E76.762
G1 X93.119 Y114.902 E76.782
G1 X93.271 Y114.57 E76.801
G1 X92.831 Y114.342 E76.825
G1 X92.961 Y114.062 E76.841
G1 X92.554 Y113.851 E76.864
G1 X92.673 Y113.594 E76.878
G1 X92.266 Y113.384 E76.901
G1 X92.397 Y113.103 E76.916
G1 X91.985 Y112.89 E76.939
G1 X92.103 Y112.636 E76.953
G1 X91.705 Y112.431 E76.976
G1 X91.825 Y112.171 E76.99
G1 X91.427 Y111.967 E77.012
G1 X91.531 Y111.739 E77.025
G1 X91.118 Y111.528 E77.048
G1 X91.274 Y111.189 E77.066
G1 X90.864 Y110.979 E77.089
G1 X92.097 Y108.292 E77.237
G1 X91.877 Y108.173 E77.249
G1 X93.241 Y103.703 E77.482
G1 X94.425 Y101.07 E77.627
G1 X96.663 Y100.217 E77.746
G1 X96.867 Y100.124 E77.757
G1 X97.047 Y99.996 E77.768
G1 X98.88 Y98.498 E77.886
G1 X101.735 Y98.751 E78.029
G1 X106.323 Y99.804 E78.264
G1 X106.318 Y100.044 E78.276
G1 X109.252 Y100.321 E78.423
G1 X109.232 Y100.776 E78.446
G1 X109.52 Y100.803 E78.46
G1 X109.5 Y101.277 E78.484
G1 X109.818 Y101.308 E78.5
G1 X109.799 Y101.754 E78.522
G1 X110.075 Y101.78 E78.536
G1 X110.056 Y102.228 E78.558
G1 X110.334 Y102.253 E78.572
G1 X110.315 Y102.715 E78.595
G1 X110.605 Y102.742 E78.61
G1 X110.587 Y103.204 E78.633
G1 X110.889 Y103.231 E78.648
G1 X110.871 Y103.681 E78.671
G1 X111.149 Y103.706 E78.684
G1 X111.131 Y104.168 E78.708
G1 X111.419 Y104.193 E78.722
G1 X111.401 Y104.651 E78.745
G1 X111.691 Y104.676 E78.759
G1 X111.673 Y105.139 E78.782
G1 X111.974 Y105.165 E78.798
G1 X111.956 Y105.623 E78.82
G1 X112.235 Y105.647 E78.834
G1 X112.217 Y106.104 E78.857
G1 X112.506 Y106.129 E78.872
G1 X112.488 Y106.593 E78.895
G1 X112.787 Y106.619 E78.91
G1 X112.769 Y107.073 E78.932
G1 X113.046 Y107.096 E78.946
G1 X113.029 Y107.56 E78.97
G1 X113.316 Y107.584 E78.984
G1 X113.299 Y108.048 E79.007
G1 X113.602 Y108.073 E79.022
G1 X113.585 Y108.529 E79.045
G1 X113.862 Y108.552 E79.059
G1 X113.845 Y109.017 E79.082
G1 X114.132 Y109.04 E79.096
G1 X114.115 Y109.503 E79.12
G1 X114.402 Y109.526 E79.134
G1 X114.387 Y109.959 E79.155
G1 X114.692 Y109.982 E79.171
G1 X114.675 Y110.474 E79.195
G1 X114.949 Y110.496 E79.209
G1 X114.932 Y110.956 E79.232
G1 X115.218 Y110.979 E79.246
G1 X115.202 Y111.444 E79.27
G1 X115.509 Y111.469 E79.285
G1 X115.492 Y111.93 E79.308
G1 X115.757 Y111.951 E79.321
G1 X115.741 Y112.412 E79.344
G1 X116.025 Y112.434 E79.358
G1 X116.011 Y112.891 E79.381
G1 X116.293 Y112.912 E79.395
G1 X116.279 Y113.389 E79.419
G1 X116.586 Y113.413 E79.435
G1 X116.571 Y113.868 E79.457
G1 X116.843 Y113.889 E79.471
G1 X116.828 Y114.36 E79.494
G1 X119.519 Y114.566 E79.629
G1 X118.505 Y116.321 E79.73
G1 X118.492 Y116.673 E79.748
G1 X118.712 Y116.693 E79.759
G1 X118.696 Y117.149 E79.781
G1 X118.939 Y117.17 E79.794
G1 X118.923 Y117.637 E79.817
G1 X122.086 Y117.921 E79.975
;rapid-leaky
G1 F236
G0 X121.427 Y118.264
;bead-skirt/brim
G1 X118.314 Y123.654 F780 E80.286
G1 X118.203 Y126.835 E80.445
G1 X116.458 Y126.869 E80.532
G1 X114.376 Y130.474 E80.74
G1 X100.37 E81.438
G1 X101.499 Y127.989 E81.574
G1 X101.083 Y127.783 E81.598
G1 X101.158 Y127.618 E81.607
G1 X100.744 Y127.413 E81.63
G1 X100.828 Y127.228 E81.64
G1 X100.631 Y127.13 E81.651
G1 X100.69 Y126.98 E81.659
G1 X100.298 Y126.786 E81.681
G1 X100.383 Y126.57 E81.692
G1 X98.634 E81.779
G1 X99.7 Y124.391 E81.9
G1 X99.293 Y124.166 E81.924
G1 X99.393 Y123.96 E81.935
G1 X98.984 Y123.745 E81.958
G1 X99.107 Y123.492 E81.972
G1 X98.695 Y123.275 E81.995
G1 X98.706 Y123.252 E81.997
G1 X98.287 Y123.055 E82.02
G1 X98.598 Y122.218 E82.064
G1 X97.947 Y121.87 E82.101
G1 X98.065 Y121.612 E82.115
G1 X97.573 Y121.354 E82.143
G1 X97.703 Y121.084 E82.158
G1 X97.373 Y120.908 E82.177
G1 X97.486 Y120.659 E82.19
G1 X97.074 Y120.441 E82.214
G1 X97.201 Y120.163 E82.229
G1 X96.795 Y119.947 E82.252
G1 X96.908 Y119.699 E82.265
G1 X96.5 Y119.483 E82.288
G1 X96.63 Y119.198 E82.304
G1 X96.228 Y118.984 E82.327
G1 X96.342 Y118.735 E82.34
G1 X95.943 Y118.523 E82.363
G1 X96.072 Y118.24 E82.379
G1 X95.657 Y118.02 E82.402
G1 X95.776 Y117.76 E82.416
G1 X95.376 Y117.546 E82.439
G1 X95.49 Y117.296 E82.453
G1 X95.083 Y117.08 E82.476
G1 X95.211 Y116.8 E82.491
G1 X94.803 Y116.583 E82.514
G1 X94.917 Y116.333 E82.528
G1 X94.511 Y116.117 E82.551
G1 X94.636 Y115.844 E82.566
G1 X94.234 Y115.63 E82.588
G1 X94.362 Y115.35 E82.604
G1 X93.918 Y115.12 E82.629
G1 X94.015 Y114.913 E82.64
G1 X93.642 Y114.721 E82.661
G1 X93.793 Y114.389 E82.679
G1 X93.355 Y114.163 E82.704
G1 X93.486 Y113.883 E82.719
G1 X93.078 Y113.672 E82.742
G1 X93.198 Y113.414 E82.756
G1 X92.791 Y113.204 E82.779
G1 X92.921 Y112.924 E82.795
G1 X92.509 Y112.711 E82.818
G1 X92.627 Y112.456 E82.832
G1 X92.229 Y112.251 E82.854
G1 X92.349 Y111.991 E82.868
G1 X91.949 Y111.786 E82.891
G1 X92.054 Y111.556 E82.903
G1 X91.642 Y111.346 E82.926
G1 X91.797 Y111.009 E82.945
G1 X91.388 Y110.798 E82.968
G1 X92.617 Y108.118 E83.115
G1 X92.355 Y107.977 E83.13
G1 X93.616 Y103.844 E83.345
G1 X94.722 Y101.385 E83.48
G1 X96.818 Y100.586 E83.592
G1 X97.068 Y100.472 E83.606
G1 X97.29 Y100.314 E83.619
G1 X99.007 Y98.911 E83.73
G1 X101.672 Y99.147 E83.863
G1 X105.916 Y100.121 E84.08
G1 X105.909 Y100.407 E84.095
G1 X108.836 Y100.684 E84.241
G1 X108.816 Y101.139 E84.264
G1 X109.104 Y101.166 E84.279
G1 X109.085 Y101.639 E84.302
G1 X109.402 Y101.67 E84.318
G1 X109.383 Y102.117 E84.34
G1 X109.659 Y102.143 E84.354
G1 X109.64 Y102.592 E84.377
G1 X109.919 Y102.617 E84.391
G1 X109.9 Y103.079 E84.414
G1 X110.19 Y103.106 E84.428
G1 X110.172 Y103.568 E84.451
G1 X110.474 Y103.595 E84.466
G1 X110.456 Y104.046 E84.489
G1 X110.734 Y104.071 E84.503
G1 X110.716 Y104.533 E84.526
G1 X111.004 Y104.558 E84.54
G1 X110.986 Y105.016 E84.563
G1 X111.276 Y105.042 E84.578
G1 X111.258 Y105.504 E84.601
G1 X111.56 Y105.531 E84.616
G1 X111.541 Y105.989 E84.639
G1 X111.82 Y106.013 E84.653
G1 X111.802 Y106.47 E84.676
G1 X112.092 Y106.495 E84.69
G1 X112.074 Y106.959 E84.713
G1 X112.372 Y106.985 E84.728
G1 X112.355 Y107.439 E84.751
G1 X112.632 Y107.463 E84.765
G1 X112.615 Y107.927 E84.788
G1 X112.903 Y107.951 E84.802
G1 X112.886 Y108.415 E84.826
G1 X113.188 Y108.44 E84.841
G1 X113.171 Y108.896 E84.864
G1 X113.449 Y108.919 E84.877
G1 X113.432 Y109.384 E84.901
G1 X113.719 Y109.407 E84.915
G1 X113.702 Y109.871 E84.938
G1 X113.989 Y109.894 E84.953
G1 X113.973 Y110.329 E84.974
G1 X114.279 Y110.352 E84.99
G1 X114.262 Y110.842 E85.014
G1 X114.535 Y110.864 E85.028
G1 X114.518 Y111.324 E85.051
G1 X114.805 Y111.347 E85.065
G1 X114.789 Y111.813 E85.088
G1 X115.095 Y111.837 E85.104
G1 X115.078 Y112.299 E85.127
G1 X115.344 Y112.32 E85.14
G1 X115.329 Y112.782 E85.163
G1 X115.613 Y112.804 E85.177
G1 X115.598 Y113.261 E85.2
G1 X115.882 Y113.282 E85.214
G1 X115.867 Y113.758 E85.238
G1 X116.174 Y113.782 E85.253
G1 X116.158 Y114.238 E85.276
G1 X116.431 Y114.259 E85.29
G1 X116.416 Y114.729 E85.313
G1 X118.854 Y114.916 E85.435
G1 X117.895 Y116.578 E85.531
G1 X118.094 Y116.597 E85.541
G1 X118.078 Y117.037 E85.563
G1 X118.299 Y117.057 E85.574
G1 X118.283 Y117.513 E85.597
G1 X118.526 Y117.535 E85.609
G1 X118.51 Y118.002 E85.632
G1 X121.427 Y118.264 E85.778
;rapid-leaky
G1 F236
G0 X120.767 Y118.606
;bead-skirt/brim
G1 X117.917 Y123.541 F780 E86.063
G1 X117.816 Y126.442 E86.208
G1 X116.224 Y126.473 E86.287
G1 X114.145 Y130.074 E86.494
G1 X100.991 E87.151
G1 X102.023 Y127.803 E87.275
G1 X101.607 Y127.597 E87.298
G1 X101.682 Y127.432 E87.307
G1 X101.268 Y127.226 E87.33
G1 X101.352 Y127.042 E87.34
G1 X101.137 Y126.935 E87.352
G1 X101.195 Y126.784 E87.361
G1 X100.804 Y126.59 E87.382
G1 X100.968 Y126.17 E87.405
G1 X99.275 E87.489
G1 X100.226 Y124.225 E87.597
G1 X99.819 Y124 E87.621
G1 X99.923 Y123.787 E87.632
G1 X99.513 Y123.571 E87.655
G1 X99.636 Y123.319 E87.669
G1 X99.224 Y123.101 E87.693
G1 X99.244 Y123.062 E87.695
G1 X98.79 Y122.849 E87.72
G1 X99.094 Y122.029 E87.763
G1 X98.467 Y121.694 E87.799
G1 X98.585 Y121.433 E87.813
G1 X98.101 Y121.179 E87.841
G1 X98.231 Y120.912 E87.855
G1 X97.893 Y120.732 E87.874
G1 X98.006 Y120.483 E87.888
G1 X97.595 Y120.264 E87.911
G1 X97.722 Y119.987 E87.927
G1 X97.315 Y119.771 E87.95
G1 X97.429 Y119.522 E87.963
G1 X97.021 Y119.306 E87.986
G1 X97.151 Y119.022 E88.002
G1 X96.749 Y118.808 E88.025
G1 X96.863 Y118.558 E88.038
G1 X96.463 Y118.346 E88.061
G1 X96.591 Y118.064 E88.076
G1 X96.178 Y117.844 E88.1
G1 X96.297 Y117.584 E88.114
G1 X95.896 Y117.37 E88.137
G1 X96.01 Y117.12 E88.15
G1 X95.604 Y116.904 E88.173
G1 X95.732 Y116.624 E88.189
G1 X95.323 Y116.407 E88.212
G1 X95.438 Y116.156 E88.225
G1 X95.032 Y115.941 E88.248
G1 X95.156 Y115.668 E88.263
G1 X94.754 Y115.454 E88.286
G1 X94.884 Y115.17 E88.302
G1 X94.443 Y114.942 E88.326
G1 X94.541 Y114.733 E88.338
G1 X94.164 Y114.539 E88.359
G1 X94.315 Y114.209 E88.377
G1 X93.88 Y113.984 E88.402
G1 X94.01 Y113.704 E88.417
G1 X93.602 Y113.493 E88.44
G1 X93.722 Y113.235 E88.454
G1 X93.315 Y113.024 E88.477
G1 X93.445 Y112.744 E88.492
G1 X93.033 Y112.532 E88.516
G1 X93.152 Y112.276 E88.53
G1 X92.752 Y112.071 E88.552
G1 X92.872 Y111.81 E88.566
G1 X92.472 Y111.604 E88.589
G1 X92.578 Y111.374 E88.601
G1 X92.166 Y111.164 E88.624
G1 X92.32 Y110.828 E88.643
G1 X91.911 Y110.617 E88.666
G1 X93.137 Y107.944 E88.813
G1 X92.833 Y107.78 E88.83
G1 X93.991 Y103.985 E89.028
G1 X95.019 Y101.7 E89.153
G1 X96.972 Y100.955 E89.257
G1 X97.268 Y100.82 E89.273
G1 X97.533 Y100.633 E89.29
G1 X99.134 Y99.324 E89.393
G1 X101.609 Y99.543 E89.517
G1 X105.509 Y100.438 E89.716
G1 X105.501 Y100.77 E89.733
G1 X108.42 Y101.046 E89.879
G1 X108.401 Y101.501 E89.902
G1 X108.689 Y101.528 E89.916
G1 X108.669 Y102.001 E89.94
G1 X108.986 Y102.031 E89.956
G1 X108.967 Y102.48 E89.978
G1 X109.244 Y102.505 E89.992
G1 X109.225 Y102.956 E90.014
G1 X109.504 Y102.981 E90.028
G1 X109.485 Y103.443 E90.052
G1 X109.775 Y103.47 E90.066
G1 X109.757 Y103.931 E90.089
G1 X110.059 Y103.959 E90.104
G1 X110.04 Y104.411 E90.127
G1 X110.319 Y104.436 E90.141
G1 X110.301 Y104.898 E90.164
G1 X110.59 Y104.923 E90.178
G1 X110.571 Y105.381 E90.201
G1 X110.862 Y105.407 E90.216
G1 X110.843 Y105.869 E90.239
G1 X111.145 Y105.896 E90.254
G1 X111.127 Y106.355 E90.277
G1 X111.406 Y106.379 E90.291
G1 X111.388 Y106.837 E90.314
G1 X111.677 Y106.861 E90.328
G1 X111.659 Y107.325 E90.351
G1 X111.958 Y107.351 E90.366
G1 X111.941 Y107.806 E90.389
G1 X112.219 Y107.829 E90.403
G1 X112.201 Y108.294 E90.426
G1 X112.489 Y108.318 E90.441
G1 X112.472 Y108.781 E90.464
G1 X112.774 Y108.807 E90.479
G1 X112.756 Y109.264 E90.502
G1 X113.035 Y109.287 E90.516
G1 X113.018 Y109.751 E90.539
G1 X113.305 Y109.775 E90.553
G1 X113.288 Y110.238 E90.576
G1 X113.575 Y110.262 E90.591
G1 X113.56 Y110.699 E90.612
G1 X113.866 Y110.722 E90.628
G1 X113.85 Y111.21 E90.652
G1 X114.121 Y111.232 E90.666
G1 X114.105 Y111.693 E90.689
G1 X114.392 Y111.716 E90.703
G1 X114.376 Y112.181 E90.726
G1 X114.681 Y112.206 E90.742
G1 X114.664 Y112.668 E90.765
G1 X114.932 Y112.689 E90.778
G1 X114.916 Y113.151 E90.801
G1 X115.201 Y113.173 E90.815
G1 X115.186 Y113.631 E90.838
G1 X115.47 Y113.652 E90.853
G1 X115.456 Y114.128 E90.876
G1 X115.761 Y114.151 E90.892
G1 X115.745 Y114.608 E90.914
G1 X116.019 Y114.628 E90.928
G1 X116.003 Y115.099 E90.951
G1 X118.19 Y115.267 E91.061
G1 X117.237 Y116.917 E91.156
G1 X117.681 Y116.959 E91.178
G1 X117.664 Y117.401 E91.2
G1 X117.886 Y117.421 E91.211
G1 X117.87 Y117.878 E91.234
G1 X118.113 Y117.9 E91.246
G1 X118.097 Y118.367 E91.27
G1 X120.767 Y118.606 E91.403
;rapid-leaky
G1 F236
G0 X120.107 Y118.949
;bead-skirt/brim
G1 X117.521 Y123.427 F780 E91.661
G1 X117.43 Y126.05 E91.792
G1 X115.991 Y126.078 E91.864
G1 X113.914 Y129.674 E92.071
G1 X101.612 E92.685
G1 X102.547 Y127.616 E92.798
G1 X102.132 Y127.41 E92.821
G1 X102.207 Y127.245 E92.83
G1 X101.792 Y127.04 E92.853
G1 X101.876 Y126.855 E92.863
G1 X101.642 Y126.739 E92.876
G1 X101.701 Y126.589 E92.884
G1 X101.31 Y126.395 E92.906
G1 X101.553 Y125.77 E92.94
G1 X99.916 E93.021
G1 X100.753 Y124.059 E93.116
G1 X100.345 Y123.834 E93.139
G1 X100.452 Y123.614 E93.152
G1 X100.043 Y123.398 E93.175
G1 X100.166 Y123.145 E93.189
G1 X99.754 Y122.928 E93.212
G1 X99.781 Y122.872 E93.215
G1 X99.293 Y122.643 E93.242
G1 X99.591 Y121.841 E93.285
G1 X98.986 Y121.518 E93.319
G1 X99.106 Y121.255 E93.333
G1 X98.63 Y121.005 E93.36
G1 X98.758 Y120.739 E93.375
G1 X98.413 Y120.556 E93.394
G1 X98.527 Y120.306 E93.408
G1 X98.116 Y120.088 E93.431
G1 X98.242 Y119.812 E93.446
G1 X97.836 Y119.595 E93.469
G1 X97.95 Y119.346 E93.483
G1 X97.542 Y119.129 E93.506
G1 X97.672 Y118.846 E93.522
G1 X97.269 Y118.632 E93.544
G1 X97.384 Y118.382 E93.558
G1 X96.983 Y118.169 E93.581
G1 X97.111 Y117.888 E93.596
G1 X96.698 Y117.668 E93.62
G1 X96.817 Y117.408 E93.634
G1 X96.416 Y117.194 E93.657
G1 X96.53 Y116.944 E93.67
G1 X96.124 Y116.728 E93.693
G1 X96.252 Y116.448 E93.709
G1 X95.844 Y116.231 E93.732
G1 X95.959 Y115.98 E93.745
G1 X95.552 Y115.764 E93.768
G1 X95.677 Y115.493 E93.783
G1 X95.274 Y115.278 E93.806
G1 X95.406 Y114.99 E93.822
G1 X94.968 Y114.763 E93.846
G1 X95.067 Y114.553 E93.858
G1 X94.687 Y114.358 E93.879
G1 X94.837 Y114.028 E93.897
G1 X94.405 Y113.805 E93.922
G1 X94.535 Y113.525 E93.937
G1 X94.126 Y113.314 E93.96
G1 X94.247 Y113.055 E93.974
G1 X93.839 Y112.845 E93.997
G1 X93.969 Y112.565 E94.012
G1 X93.558 Y112.352 E94.036
G1 X93.676 Y112.097 E94.05
G1 X93.276 Y111.89 E94.072
G1 X93.396 Y111.63 E94.086
G1 X92.995 Y111.423 E94.109
G1 X93.101 Y111.192 E94.122
G1 X92.689 Y110.982 E94.145
G1 X92.843 Y110.647 E94.163
G1 X92.434 Y110.437 E94.186
G1 X93.657 Y107.769 E94.332
G1 X93.312 Y107.583 E94.352
G1 X94.366 Y104.126 E94.532
G1 X95.316 Y102.015 E94.648
G1 X97.127 Y101.325 E94.745
G1 X97.469 Y101.169 E94.763
G1 X97.775 Y100.951 E94.782
G1 X99.261 Y99.737 E94.878
G1 X101.547 Y99.939 E94.992
G1 X105.101 Y100.755 E95.174
G1 X105.093 Y101.133 E95.193
G1 X108.004 Y101.409 E95.339
G1 X107.985 Y101.864 E95.362
G1 X108.273 Y101.891 E95.376
G1 X108.254 Y102.362 E95.4
G1 X108.57 Y102.393 E95.416
G1 X108.551 Y102.842 E95.438
G1 X108.828 Y102.868 E95.452
G1 X108.809 Y103.32 E95.474
G1 X109.089 Y103.345 E95.488
G1 X109.07 Y103.807 E95.512
G1 X109.36 Y103.834 E95.526
G1 X109.342 Y104.295 E95.549
G1 X109.644 Y104.323 E95.564
G1 X109.625 Y104.776 E95.587
G1 X109.905 Y104.8 E95.601
G1 X109.886 Y105.263 E95.624
G1 X110.175 Y105.288 E95.638
G1 X110.157 Y105.747 E95.661
G1 X110.447 Y105.772 E95.676
G1 X110.429 Y106.235 E95.699
G1 X110.73 Y106.261 E95.714
G1 X110.712 Y106.72 E95.737
G1 X110.991 Y106.744 E95.751
G1 X110.973 Y107.203 E95.774
G1 X111.263 Y107.227 E95.788
G1 X111.245 Y107.691 E95.812
G1 X111.544 Y107.717 E95.826
G1 X111.527 Y108.173 E95.849
G1 X111.805 Y108.196 E95.863
G1 X111.788 Y108.661 E95.886
G1 X112.075 Y108.685 E95.901
G1 X112.058 Y109.148 E95.924
G1 X112.36 Y109.173 E95.939
G1 X112.342 Y109.631 E95.962
G1 X112.621 Y109.654 E95.976
G1 X112.604 Y110.119 E95.999
G1 X112.891 Y110.142 E96.013
G1 X112.875 Y110.606 E96.036
G1 X113.162 Y110.629 E96.051
G1 X113.146 Y111.069 E96.073
G1 X113.453 Y111.092 E96.088
G1 X113.437 Y111.578 E96.112
G1 X113.708 Y111.6 E96.126
G1 X113.691 Y112.061 E96.149
G1 X113.979 Y112.084 E96.163
G1 X113.962 Y112.55 E96.187
G1 X114.267 Y112.574 E96.202
G1 X114.25 Y113.036 E96.225
G1 X114.519 Y113.057 E96.239
G1 X114.503 Y113.52 E96.262
G1 X114.789 Y113.542 E96.276
G1 X114.774 Y114.001 E96.299
G1 X115.059 Y114.022 E96.313
G1 X115.044 Y114.497 E96.337
G1 X115.348 Y114.52 E96.352
G1 X115.332 Y114.977 E96.375
G1 X115.606 Y114.998 E96.388
G1 X115.591 Y115.468 E96.412
G1 X117.526 Y115.617 E96.509
G1 X116.58 Y117.256 E96.603
G1 X117.267 Y117.322 E96.638
G1 X117.25 Y117.765 E96.66
G1 X117.473 Y117.785 E96.671
G1 X117.457 Y118.243 E96.694
G1 X117.7 Y118.264 E96.706
G1 X117.684 Y118.731 E96.729
G1 X120.107 Y118.949 E96.851
;rapid-leaky
G1 F236
G0 X119.448 Y119.291
;bead-skirt/brim
G1 X117.125 Y123.314 F780 E97.082
G1 X117.043 Y125.657 E97.199
G1 X115.757 Y125.682 E97.263
G1 X113.683 Y129.274 E97.47
G1 X102.234 E98.042
G1 X103.072 Y127.43 E98.143
G1 X102.656 Y127.223 E98.166
G1 X102.731 Y127.058 E98.175
G1 X102.316 Y126.853 E98.198
G1 X102.4 Y126.669 E98.208
G1 X102.148 Y126.544 E98.222
G1 X102.207 Y126.393 E98.23
G1 X101.815 Y126.199 E98.252
G1 X102.138 Y125.37 E98.296
G1 X100.557 E98.375
G1 X101.279 Y123.893 E98.457
G1 X100.871 Y123.668 E98.481
G1 X100.982 Y123.44 E98.493
G1 X100.572 Y123.225 E98.516
G1 X100.695 Y122.972 E98.53
G1 X100.283 Y122.755 E98.554
G1 X100.318 Y122.683 E98.558
G1 X99.796 Y122.438 E98.586
G1 X100.087 Y121.652 E98.628
G1 X99.506 Y121.342 E98.661
G1 X99.627 Y121.077 E98.675
G1 X99.158 Y120.83 E98.702
G1 X99.285 Y120.567 E98.717
G1 X98.933 Y120.379 E98.736
G1 X99.047 Y120.129 E98.75
G1 X98.637 Y119.911 E98.773
G1 X98.763 Y119.636 E98.788
G1 X98.357 Y119.419 E98.811
G1 X98.472 Y119.169 E98.825
G1 X98.063 Y118.953 E98.848
G1 X98.193 Y118.67 E98.864
G1 X97.79 Y118.456 E98.886
G1 X97.904 Y118.206 E98.9
G1 X97.503 Y117.992 E98.923
G1 X97.631 Y117.711 E98.938
G1 X97.219 Y117.492 E98.962
G1 X97.338 Y117.232 E98.976
G1 X96.936 Y117.018 E98.999
G1 X97.05 Y116.767 E99.012
G1 X96.644 Y116.551 E99.035
G1 X96.772 Y116.272 E99.051
G1 X96.365 Y116.055 E99.074
G1 X96.479 Y115.804 E99.087
G1 X96.073 Y115.588 E99.11
G1 X96.197 Y115.317 E99.125
G1 X95.795 Y115.102 E99.148
G1 X95.928 Y114.81 E99.164
G1 X95.493 Y114.585 E99.188
G1 X95.592 Y114.373 E99.2
G1 X95.209 Y114.177 E99.222
G1 X95.359 Y113.848 E99.24
G1 X94.929 Y113.625 E99.264
G1 X95.059 Y113.346 E99.279
G1 X94.651 Y113.135 E99.302
G1 X94.771 Y112.875 E99.316
G1 X94.364 Y112.665 E99.339
G1 X94.493 Y112.386 E99.355
G1 X94.082 Y112.173 E99.378
G1 X94.201 Y111.917 E99.392
G1 X93.799 Y111.71 E99.414
G1 X93.92 Y111.449 E99.429
G1 X93.518 Y111.242 E99.451
G1 X93.624 Y111.009 E99.464
G1 X93.213 Y110.8 E99.487
G1 X93.366 Y110.466 E99.505
G1 X92.957 Y110.256 E99.528
G1 X94.064 Y107.842 E99.661
G1 X94.146 Y107.579 E99.675
G1 X93.79 Y107.387 E99.695
G1 X94.742 Y104.267 E99.857
G1 X95.613 Y102.33 E99.963
G1 X97.281 Y101.694 E100.053
G1 X97.67 Y101.517 E100.074
G1 X98.018 Y101.269 E100.095
G1 X99.388 Y100.149 E100.183
G1 X101.484 Y100.335 E100.288
G1 X104.694 Y101.072 E100.453
G1 X104.685 Y101.479 E100.473
G1 X104.82 Y101.509 E100.48
G1 X107.588 Y101.771 E100.619
G1 X107.569 Y102.227 E100.641
G1 X107.858 Y102.254 E100.656
G1 X107.839 Y102.724 E100.679
G1 X108.154 Y102.754 E100.695
G1 X108.135 Y103.205 E100.718
G1 X108.412 Y103.231 E100.732
G1 X108.393 Y103.684 E100.754
G1 X108.674 Y103.709 E100.768
G1 X108.655 Y104.171 E100.791
G1 X108.945 Y104.198 E100.806
G1 X108.927 Y104.659 E100.829
G1 X109.228 Y104.687 E100.844
G1 X109.209 Y105.141 E100.867
G1 X109.49 Y105.165 E100.881
G1 X109.471 Y105.627 E100.904
G1 X109.76 Y105.653 E100.918
G1 X109.742 Y106.112 E100.941
G1 X110.032 Y106.137 E100.956
G1 X110.014 Y106.6 E100.979
G1 X110.315 Y106.626 E100.994
G1 X110.297 Y107.086 E101.017
G1 X110.576 Y107.11 E101.031
G1 X110.558 Y107.569 E101.054
G1 X110.849 Y107.593 E101.068
G1 X110.831 Y108.057 E101.091
G1 X111.13 Y108.083 E101.106
G1 X111.112 Y108.54 E101.129
G1 X111.391 Y108.563 E101.143
G1 X111.374 Y109.027 E101.166
G1 X111.662 Y109.051 E101.181
G1 X111.645 Y109.515 E101.204
G1 X111.946 Y109.54 E101.219
G1 X111.928 Y109.999 E101.242
G1 X112.207 Y110.021 E101.256
G1 X112.19 Y110.486 E101.279
G1 X112.478 Y110.51 E101.293
G1 X112.461 Y110.974 E101.317
G1 X112.749 Y110.997 E101.331
G1 X112.733 Y111.439 E101.353
G1 X113.041 Y111.462 E101.368
G1 X113.024 Y111.946 E101.393
G1 X113.294 Y111.968 E101.406
G1 X113.278 Y112.43 E101.429
G1 X113.565 Y112.453 E101.444
G1 X113.549 Y112.918 E101.467
G1 X113.853 Y112.942 E101.482
G1 X113.836 Y113.405 E101.505
G1 X114.106 Y113.426 E101.519
G1 X114.091 Y113.889 E101.542
G1 X114.376 Y113.911 E101.556
G1 X114.361 Y114.37 E101.579
G1 X114.647 Y114.392 E101.593
G1 X114.633 Y114.866 E101.617
G1 X114.935 Y114.889 E101.632
G1 X114.919 Y115.347 E101.655
G1 X115.194 Y115.368 E101.669
G1 X115.179 Y115.838 E101.692
G1 X116.862 Y115.967 E101.776
G1 X115.922 Y117.595 E101.87
G1 X116.853 Y117.684 E101.917
G1 X116.836 Y118.129 E101.939
G1 X117.06 Y118.149 E101.95
G1 X117.044 Y118.607 E101.973
G1 X117.287 Y118.629 E101.985
G1 X117.271 Y119.096 E102.009
G1 X119.448 Y119.291 E102.118
;rapid-leaky
G1 F236
G0 X118.788 Y119.633
;bead-skirt/brim
G1 X116.728 Y123.2 F780 E102.323
G1 X116.657 Y125.265 E102.426
G1 X115.523 Y125.287 E102.483
G1 X113.452 Y128.874 E102.689
G1 X102.855 E103.218
G1 X103.596 Y127.243 E103.307
G1 X103.18 Y127.037 E103.331
G1 X103.255 Y126.872 E103.34
G1 X102.84 Y126.666 E103.363
G1 X102.924 Y126.483 E103.373
G1 X102.653 Y126.348 E103.388
G1 X102.712 Y126.197 E103.396
G1 X102.321 Y126.003 E103.418
G1 X102.724 Y124.97 E103.473
G1 X101.198 E103.549
G1 X101.805 Y123.727 E103.618
G1 X101.397 Y123.501 E103.641
G1 X101.512 Y123.267 E103.654
G1 X101.101 Y123.051 E103.678
G1 X101.224 Y122.799 E103.692
G1 X100.812 Y122.582 E103.715
G1 X100.855 Y122.493 E103.72
G1 X100.299 Y122.232 E103.75
G1 X100.584 Y121.464 E103.791
G1 X100.026 Y121.166 E103.823
G1 X100.148 Y120.898 E103.837
G1 X99.686 Y120.656 E103.864
G1 X99.812 Y120.394 E103.878
G1 X99.453 Y120.203 E103.898
G1 X99.568 Y119.953 E103.912
G1 X99.157 Y119.735 E103.935
G1 X99.284 Y119.46 E103.95
G1 X98.877 Y119.243 E103.973
G1 X98.993 Y118.992 E103.987
G1 X98.585 Y118.776 E104.01
G1 X98.714 Y118.495 E104.026
G1 X98.31 Y118.28 E104.048
G1 X98.425 Y118.029 E104.062
G1 X98.023 Y117.816 E104.085
G1 X98.151 Y117.535 E104.1
G1 X97.74 Y117.316 E104.123
G1 X97.859 Y117.057 E104.138
G1 X97.456 Y116.842 E104.16
G1 X97.571 Y116.591 E104.174
G1 X97.165 Y116.375 E104.197
G1 X97.293 Y116.095 E104.212
G1 X96.885 Y115.879 E104.236
G1 X97 Y115.627 E104.249
G1 X96.594 Y115.411 E104.272
G1 X96.718 Y115.141 E104.287
G1 X96.315 Y114.926 E104.31
G1 X96.45 Y114.63 E104.326
G1 X96.018 Y114.407 E104.35
G1 X96.118 Y114.193 E104.362
G1 X95.732 Y113.995 E104.384
G1 X95.881 Y113.667 E104.402
G1 X95.454 Y113.446 E104.426
G1 X95.584 Y113.167 E104.441
G1 X95.175 Y112.956 E104.464
G1 X95.296 Y112.696 E104.478
G1 X94.888 Y112.486 E104.501
G1 X95.017 Y112.207 E104.517
G1 X94.606 Y111.994 E104.54
G1 X94.726 Y111.737 E104.554
G1 X94.323 Y111.53 E104.576
G1 X94.443 Y111.268 E104.591
G1 X94.04 Y111.061 E104.613
G1 X94.147 Y110.827 E104.626
G1 X93.736 Y110.618 E104.649
G1 X93.889 Y110.286 E104.667
G1 X93.48 Y110.075 E104.69
G1 X94.563 Y107.714 E104.82
G1 X94.529 Y107.696 E104.822
G1 X94.626 Y107.383 E104.838
G1 X94.268 Y107.19 E104.859
G1 X95.117 Y104.408 E105.004
G1 X95.91 Y102.645 E105.1
G1 X97.436 Y102.063 E105.182
G1 X97.865 Y101.867 E105.205
G1 X98.261 Y101.587 E105.229
G1 X99.515 Y100.562 E105.31
G1 X101.421 Y100.731 E105.406
G1 X104.286 Y101.389 E105.552
G1 X104.277 Y101.797 E105.573
G1 X104.583 Y101.866 E105.588
G1 X104.582 Y101.888 E105.589
G1 X107.172 Y102.133 E105.719
G1 X107.153 Y102.59 E105.742
G1 X107.443 Y102.617 E105.757
G1 X107.423 Y103.086 E105.78
G1 X107.738 Y103.116 E105.796
G1 X107.719 Y103.568 E105.818
G1 X107.997 Y103.594 E105.832
G1 X107.978 Y104.047 E105.855
G1 X108.259 Y104.073 E105.869
G1 X108.24 Y104.535 E105.892
G1 X108.53 Y104.561 E105.907
G1 X108.512 Y105.023 E105.93
G1 X108.813 Y105.05 E105.945
G1 X108.794 Y105.505 E105.967
G1 X109.075 Y105.53 E105.982
G1 X109.056 Y105.992 E106.005
G1 X109.345 Y106.018 E106.019
G1 X109.327 Y106.477 E106.042
G1 X109.618 Y106.502 E106.057
G1 X109.6 Y106.965 E106.08
G1 X109.9 Y106.991 E106.095
G1 X109.882 Y107.452 E106.118
G1 X110.162 Y107.476 E106.132
G1 X110.144 Y107.935 E106.155
G1 X110.434 Y107.96 E106.169
G1 X110.416 Y108.424 E106.192
G1 X110.715 Y108.449 E106.207
G1 X110.698 Y108.907 E106.23
G1 X110.977 Y108.93 E106.244
G1 X110.96 Y109.394 E106.267
G1 X111.248 Y109.418 E106.282
G1 X111.231 Y109.882 E106.305
G1 X111.532 Y109.907 E106.32
G1 X111.514 Y110.366 E106.343
G1 X111.794 Y110.389 E106.357
G1 X111.777 Y110.853 E106.38
G1 X112.064 Y110.877 E106.394
G1 X112.047 Y111.341 E106.418
G1 X112.335 Y111.365 E106.432
G1 X112.319 Y111.808 E106.454
G1 X112.628 Y111.832 E106.47
G1 X112.611 Y112.315 E106.494
G1 X112.881 Y112.336 E106.507
G1 X112.864 Y112.798 E106.53
G1 X113.152 Y112.821 E106.545
G1 X113.136 Y113.287 E106.568
G1 X113.439 Y113.311 E106.583
G1 X113.422 Y113.774 E106.606
G1 X113.694 Y113.795 E106.62
G1 X113.678 Y114.258 E106.643
G1 X113.964 Y114.28 E106.657
G1 X113.949 Y114.74 E106.68
G1 X114.236 Y114.762 E106.694
G1 X114.221 Y115.235 E106.718
G1 X114.522 Y115.258 E106.733
G1 X114.506 Y115.717 E106.756
G1 X114.782 Y115.738 E106.77
G1 X114.767 Y116.207 E106.793
G1 X116.198 Y116.317 E106.865
G1 X115.265 Y117.933 E106.958
G1 X116.439 Y118.046 E107.017
G1 X116.422 Y118.493 E107.039
G1 X116.647 Y118.514 E107.05
G1 X116.631 Y118.972 E107.073
G1 X116.874 Y118.994 E107.085
G1 X116.858 Y119.46 E107.109
G1 X118.788 Y119.633 E107.205
;rapid-leaky
G1 F236
G0 X118.128 Y119.976
;bead-skirt/brim
G1 X116.332 Y123.086 F780 E107.385
G1 X116.27 Y124.872 E107.474
G1 X115.29 Y124.891 E107.523
G1 X113.221 Y128.474 E107.729
G1 X103.476 E108.215
G1 X104.12 Y127.057 E108.293
G1 X103.704 Y126.85 E108.316
G1 X103.779 Y126.685 E108.325
G1 X103.364 Y126.479 E108.348
G1 X103.447 Y126.296 E108.358
G1 X103.159 Y126.153 E108.374
G1 X103.218 Y126.002 E108.382
G1 X102.826 Y125.808 E108.404
G1 X103.309 Y124.57 E108.471
G1 X101.839 E108.544
G1 X102.332 Y123.561 E108.6
G1 X101.923 Y123.335 E108.623
G1 X102.041 Y123.094 E108.637
G1 X101.631 Y122.878 E108.66
G1 X101.753 Y122.626 E108.674
G1 X101.341 Y122.408 E108.697
G1 X101.392 Y122.304 E108.703
G1 X100.802 Y122.026 E108.735
G1 X101.08 Y121.276 E108.775
G1 X100.545 Y120.99 E108.806
G1 X100.669 Y120.72 E108.82
G1 X100.214 Y120.481 E108.846
G1 X100.339 Y120.222 E108.86
G1 X99.973 Y120.027 E108.881
G1 X100.088 Y119.776 E108.895
G1 X99.678 Y119.558 E108.918
G1 X99.804 Y119.284 E108.933
G1 X99.398 Y119.067 E108.956
G1 X99.514 Y118.815 E108.97
G1 X99.106 Y118.599 E108.993
G1 X99.234 Y118.319 E109.008
G1 X98.831 Y118.104 E109.031
G1 X98.946 Y117.853 E109.045
G1 X98.543 Y117.639 E109.068
G1 X98.671 Y117.358 E109.083
G1 X98.26 Y117.14 E109.106
G1 X98.379 Y116.881 E109.12
G1 X97.976 Y116.666 E109.143
G1 X98.091 Y116.415 E109.157
G1 X97.685 Y116.199 E109.18
G1 X97.813 Y115.919 E109.195
G1 X97.406 Y115.702 E109.218
G1 X97.521 Y115.451 E109.232
G1 X97.115 Y115.235 E109.255
G1 X97.238 Y114.965 E109.27
G1 X96.835 Y114.75 E109.293
G1 X96.972 Y114.45 E109.309
G1 X96.543 Y114.228 E109.333
G1 X96.644 Y114.014 E109.345
G1 X96.254 Y113.814 E109.367
G1 X96.403 Y113.487 E109.385
G1 X95.978 Y113.267 E109.409
G1 X96.108 Y112.988 E109.424
G1 X95.699 Y112.777 E109.447
G1 X95.82 Y112.516 E109.461
G1 X95.412 Y112.306 E109.484
G1 X95.542 Y112.027 E109.499
G1 X95.131 Y111.815 E109.523
G1 X95.25 Y111.558 E109.537
G1 X94.846 Y111.35 E109.559
G1 X94.967 Y111.088 E109.574
G1 X94.563 Y110.88 E109.596
G1 X94.671 Y110.645 E109.609
G1 X94.26 Y110.435 E109.632
G1 X94.412 Y110.105 E109.65
G1 X94.003 Y109.894 E109.673
G1 X95.084 Y107.537 E109.803
G1 X95.009 Y107.497 E109.807
G1 X95.106 Y107.187 E109.823
G1 X94.746 Y106.993 E109.844
G1 X95.492 Y104.549 E109.971
G1 X96.207 Y102.959 E110.058
G1 X97.59 Y102.432 E110.132
G1 X98.092 Y102.198 E110.16
G1 X98.503 Y101.906 E110.185
G1 X99.642 Y100.975 E110.258
G1 X101.359 Y101.127 E110.344
G1 X103.879 Y101.706 E110.473
G1 X103.87 Y102.116 E110.494
G1 X104.174 Y102.184 E110.509
G1 X104.172 Y102.251 E110.512
G1 X106.756 Y102.496 E110.642
G1 X106.737 Y102.953 E110.665
G1 X107.027 Y102.98 E110.679
G1 X107.008 Y103.447 E110.703
G1 X107.323 Y103.478 E110.718
G1 X107.303 Y103.931 E110.741
G1 X107.581 Y103.957 E110.755
G1 X107.562 Y104.411 E110.778
G1 X107.844 Y104.437 E110.792
G1 X107.825 Y104.899 E110.815
G1 X108.115 Y104.925 E110.829
G1 X108.097 Y105.387 E110.853
G1 X108.398 Y105.414 E110.868
G1 X108.379 Y105.87 E110.89
G1 X108.66 Y105.895 E110.904
G1 X108.642 Y106.357 E110.928
G1 X108.931 Y106.383 E110.942
G1 X108.912 Y106.842 E110.965
G1 X109.203 Y106.868 E110.979
G1 X109.185 Y107.33 E111.003
G1 X109.486 Y107.357 E111.018
G1 X109.467 Y107.817 E111.041
G1 X109.747 Y107.841 E111.055
G1 X109.729 Y108.301 E111.078
G1 X110.02 Y108.326 E111.092
G1 X110.002 Y108.79 E111.115
G1 X110.301 Y108.815 E111.13
G1 X110.284 Y109.274 E111.153
G1 X110.563 Y109.297 E111.167
G1 X110.546 Y109.761 E111.19
G1 X110.834 Y109.785 E111.205
G1 X110.817 Y110.249 E111.228
G1 X111.117 Y110.274 E111.243
G1 X111.1 Y110.733 E111.266
G1 X111.38 Y110.756 E111.28
G1 X111.363 Y111.221 E111.303
G1 X111.651 Y111.244 E111.317
G1 X111.634 Y111.709 E111.341
G1 X111.922 Y111.732 E111.355
G1 X111.906 Y112.178 E111.377
G1 X112.215 Y112.202 E111.393
G1 X112.199 Y112.683 E111.417
G1 X112.467 Y112.704 E111.43
G1 X112.45 Y113.167 E111.453
G1 X112.739 Y113.19 E111.468
G1 X112.723 Y113.655 E111.491
G1 X113.025 Y113.679 E111.506
G1 X113.008 Y114.143 E111.529
G1 X113.281 Y114.164 E111.543
G1 X113.265 Y114.627 E111.566
G1 X113.552 Y114.649 E111.58
G1 X113.537 Y115.11 E111.603
G1 X113.824 Y115.132 E111.618
G1 X113.81 Y115.604 E111.641
G1 X114.109 Y115.627 E111.656
G1 X114.093 Y116.087 E111.679
G1 X114.37 Y116.108 E111.693
G1 X114.355 Y116.577 E111.717
G1 X115.534 Y116.667 E111.776
G1 X114.607 Y118.272 E111.868
G1 X116.025 Y118.408 E111.939
G1 X116.008 Y118.857 E111.961
G1 X116.234 Y118.878 E111.973
G1 X116.217 Y119.337 E111.996
G1 X116.461 Y119.358 E112.008
G1 X116.445 Y119.825 E112.031
G1 X118.128 Y119.976 E112.115
;rapid-leaky
G1 F236
G0 X117.469 Y120.318
;bead-skirt/brim
G1 X115.936 Y122.973 F780 E112.268
G1 X115.883 Y124.479 E112.344
G1 X115.056 Y124.495 E112.385
G1 X112.99 Y128.074 E112.591
G1 X104.097 E113.035
G1 X104.644 Y126.87 E113.101
G1 X104.228 Y126.664 E113.124
G1 X104.303 Y126.498 E113.133
G1 X103.888 Y126.293 E113.156
G1 X103.971 Y126.11 E113.166
G1 X103.664 Y125.958 E113.183
G1 X103.724 Y125.806 E113.191
G1 X103.332 Y125.612 E113.213
G1 X103.894 Y124.17 E113.29
G1 X102.479 E113.361
G1 X102.858 Y123.395 E113.404
G1 X102.45 Y123.169 E113.427
G1 X102.571 Y122.921 E113.441
G1 X102.16 Y122.704 E113.464
G1 X102.283 Y122.452 E113.478
G1 X101.87 Y122.235 E113.501
G1 X101.929 Y122.114 E113.508
G1 X101.305 Y121.821 E113.542
G1 X101.577 Y121.087 E113.582
G1 X101.065 Y120.814 E113.61
G1 X101.189 Y120.541 E113.625
G1 X100.742 Y120.307 E113.651
G1 X100.866 Y120.049 E113.665
G1 X100.493 Y119.851 E113.686
G1 X100.608 Y119.599 E113.7
G1 X100.199 Y119.382 E113.723
G1 X100.325 Y119.108 E113.738
G1 X99.919 Y118.892 E113.761
G1 X100.035 Y118.638 E113.775
G1 X99.627 Y118.422 E113.798
G1 X99.755 Y118.143 E113.813
G1 X99.351 Y117.928 E113.836
G1 X99.467 Y117.676 E113.85
G1 X99.063 Y117.462 E113.873
G1 X99.191 Y117.182 E113.888
G1 X98.781 Y116.964 E113.911
G1 X98.9 Y116.705 E113.925
G1 X98.496 Y116.49 E113.948
G1 X98.611 Y116.238 E113.962
G1 X98.205 Y116.022 E113.985
G1 X98.333 Y115.743 E114
G1 X97.926 Y115.526 E114.023
G1 X98.041 Y115.274 E114.037
G1 X97.635 Y115.059 E114.06
G1 X97.759 Y114.789 E114.075
G1 X97.355 Y114.574 E114.098
G1 X97.494 Y114.27 E114.114
G1 X97.068 Y114.05 E114.138
G1 X97.169 Y113.834 E114.15
G1 X96.776 Y113.632 E114.172
G1 X96.925 Y113.306 E114.19
G1 X96.503 Y113.088 E114.214
G1 X96.633 Y112.809 E114.229
G1 X96.224 Y112.598 E114.252
G1 X96.345 Y112.337 E114.266
G1 X95.937 Y112.126 E114.289
G1 X96.066 Y111.848 E114.304
G1 X95.655 Y111.636 E114.328
G1 X95.775 Y111.378 E114.342
G1 X95.37 Y111.169 E114.364
G1 X95.491 Y110.907 E114.379
G1 X95.086 Y110.699 E114.402
G1 X95.194 Y110.462 E114.415
G1 X94.784 Y110.253 E114.438
G1 X94.935 Y109.924 E114.456
G1 X94.526 Y109.714 E114.479
G1 X95.606 Y107.36 E114.608
G1 X95.49 Y107.299 E114.614
G1 X95.586 Y106.991 E114.63
G1 X95.225 Y106.797 E114.651
G1 X95.867 Y104.69 E114.761
G1 X96.504 Y103.274 E114.838
G1 X97.745 Y102.802 E114.904
G1 X98.308 Y102.535 E114.935
G1 X98.746 Y102.224 E114.962
G1 X99.769 Y101.388 E115.028
G1 X101.296 Y101.523 E115.105
G1 X103.472 Y102.022 E115.216
G1 X103.462 Y102.435 E115.237
G1 X103.765 Y102.503 E115.252
G1 X103.762 Y102.614 E115.258
G1 X106.341 Y102.858 E115.387
G1 X106.321 Y103.315 E115.41
G1 X106.612 Y103.343 E115.424
G1 X106.593 Y103.809 E115.448
G1 X106.907 Y103.839 E115.463
G1 X106.887 Y104.294 E115.486
G1 X107.165 Y104.32 E115.5
G1 X107.146 Y104.775 E115.523
G1 X107.428 Y104.801 E115.537
G1 X107.41 Y105.263 E115.56
G1 X107.7 Y105.289 E115.574
G1 X107.682 Y105.751 E115.598
G1 X107.982 Y105.778 E115.613
G1 X107.963 Y106.235 E115.635
G1 X108.245 Y106.26 E115.649
G1 X108.227 Y106.722 E115.673
G1 X108.516 Y106.748 E115.687
G1 X108.498 Y107.208 E115.71
G1 X108.789 Y107.233 E115.725
G1 X108.771 Y107.696 E115.748
G1 X109.071 Y107.722 E115.763
G1 X109.053 Y108.183 E115.786
G1 X109.333 Y108.207 E115.8
G1 X109.315 Y108.667 E115.823
G1 X109.606 Y108.692 E115.837
G1 X109.588 Y109.156 E115.86
G1 X109.887 Y109.181 E115.875
G1 X109.869 Y109.64 E115.898
G1 X110.149 Y109.664 E115.912
G1 X110.132 Y110.128 E115.936
G1 X110.42 Y110.152 E115.95
G1 X110.403 Y110.616 E115.973
G1 X110.703 Y110.641 E115.988
G1 X110.686 Y111.101 E116.011
G1 X110.966 Y111.124 E116.025
G1 X110.949 Y111.588 E116.048
G1 X111.237 Y111.612 E116.063
G1 X111.22 Y112.076 E116.086
G1 X111.508 Y112.1 E116.1
G1 X111.492 Y112.548 E116.123
G1 X111.802 Y112.572 E116.138
G1 X111.786 Y113.051 E116.162
G1 X112.054 Y113.072 E116.176
G1 X112.037 Y113.535 E116.199
G1 X112.326 Y113.558 E116.213
G1 X112.309 Y114.023 E116.236
G1 X112.611 Y114.047 E116.251
G1 X112.593 Y114.511 E116.275
G1 X112.868 Y114.533 E116.288
G1 X112.853 Y114.996 E116.311
G1 X113.14 Y115.019 E116.326
G1 X113.125 Y115.48 E116.349
G1 X113.413 Y115.502 E116.363
G1 X113.398 Y115.973 E116.387
G1 X113.696 Y115.996 E116.402
G1 X113.68 Y116.457 E116.425
G1 X113.958 Y116.478 E116.439
G1 X113.943 Y116.947 E116.462
G1 X114.87 Y117.018 E116.508
G1 X113.95 Y118.611 E116.6
G1 X115.611 Y118.77 E116.683
G1 X115.594 Y119.221 E116.706
G1 X115.821 Y119.242 E116.717
G1 X115.804 Y119.701 E116.74
G1 X116.049 Y119.723 E116.752
G1 X116.032 Y120.19 E116.776
G1 X117.469 Y120.318 E116.848
;rapid-leaky
G1 F236
G0 X116.809 Y120.661
;bead-skirt/brim
G1 X115.539 Y122.859 F780 E116.974
G1 X115.497 Y124.087 E117.036
G1 X114.823 Y124.1 E117.069
G1 X112.759 Y127.674 E117.275
G1 X104.718 E117.676
G1 X105.168 Y126.684 E117.731
G1 X104.752 Y126.477 E117.754
G1 X104.827 Y126.312 E117.763
G1 X104.412 Y126.106 E117.786
G1 X104.495 Y125.924 E117.796
G1 X104.17 Y125.762 E117.814
G1 X104.229 Y125.61 E117.822
G1 X103.838 Y125.416 E117.844
G1 X104.479 Y123.77 E117.932
G1 X103.12 E118
G1 X103.385 Y123.229 E118.03
G1 X102.976 Y123.003 E118.053
G1 X103.1 Y122.747 E118.067
G1 X102.689 Y122.531 E118.091
G1 X102.812 Y122.279 E118.105
G1 X102.399 Y122.062 E118.128
G1 X102.466 Y121.925 E118.136
G1 X101.808 Y121.615 E118.172
G1 X102.074 Y120.899 E118.21
G1 X101.585 Y120.638 E118.238
G1 X101.71 Y120.363 E118.253
G1 X101.27 Y120.132 E118.277
G1 X101.393 Y119.877 E118.292
G1 X101.014 Y119.675 E118.313
G1 X101.129 Y119.422 E118.327
G1 X100.72 Y119.206 E118.35
G1 X100.846 Y118.932 E118.365
G1 X100.44 Y118.716 E118.388
G1 X100.556 Y118.462 E118.402
G1 X100.148 Y118.246 E118.425
G1 X100.276 Y117.967 E118.44
G1 X99.872 Y117.752 E118.463
G1 X99.987 Y117.5 E118.477
G1 X99.583 Y117.285 E118.5
G1 X99.711 Y117.006 E118.515
G1 X99.302 Y116.788 E118.538
G1 X99.42 Y116.529 E118.552
G1 X99.016 Y116.314 E118.575
G1 X99.131 Y116.062 E118.589
G1 X98.726 Y115.846 E118.612
G1 X98.854 Y115.567 E118.627
G1 X98.447 Y115.35 E118.65
G1 X98.562 Y115.098 E118.664
G1 X98.156 Y114.882 E118.687
G1 X98.279 Y114.614 E118.702
G1 X97.875 Y114.398 E118.725
G1 X98.016 Y114.09 E118.741
G1 X97.594 Y113.871 E118.765
G1 X97.695 Y113.654 E118.777
G1 X97.299 Y113.451 E118.799
G1 X97.447 Y113.126 E118.817
G1 X97.027 Y112.909 E118.841
G1 X97.157 Y112.63 E118.856
G1 X96.748 Y112.418 E118.879
G1 X96.869 Y112.157 E118.893
G1 X96.461 Y111.947 E118.916
G1 X96.59 Y111.669 E118.932
G1 X96.179 Y111.456 E118.955
G1 X96.299 Y111.198 E118.969
G1 X95.894 Y110.989 E118.992
G1 X96.015 Y110.727 E119.006
G1 X95.608 Y110.518 E119.029
G1 X95.717 Y110.28 E119.042
G1 X95.307 Y110.071 E119.065
G1 X95.458 Y109.743 E119.083
G1 X95.049 Y109.533 E119.106
G1 X96.127 Y107.182 E119.235
G1 X95.971 Y107.1 E119.244
G1 X96.066 Y106.795 E119.26
G1 X95.703 Y106.6 E119.28
G1 X96.242 Y104.831 E119.372
G1 X96.801 Y103.589 E119.44
G1 X97.899 Y103.171 E119.499
G1 X98.524 Y102.872 E119.534
G1 X98.989 Y102.542 E119.562
G1 X99.896 Y101.801 E119.62
G1 X101.233 Y101.919 E119.687
G1 X103.064 Y102.339 E119.781
G1 X103.055 Y102.754 E119.802
G1 X103.356 Y102.821 E119.817
G1 X103.351 Y102.977 E119.825
G1 X105.925 Y103.221 E119.954
G1 X105.905 Y103.678 E119.977
G1 X106.197 Y103.706 E119.991
G1 X106.178 Y104.171 E120.015
G1 X106.491 Y104.201 E120.03
G1 X106.471 Y104.656 E120.053
G1 X106.75 Y104.682 E120.067
G1 X106.73 Y105.139 E120.09
G1 X107.013 Y105.165 E120.104
G1 X106.995 Y105.627 E120.127
G1 X107.285 Y105.653 E120.142
G1 X107.267 Y106.115 E120.165
G1 X107.567 Y106.142 E120.18
G1 X107.548 Y106.6 E120.203
G1 X107.83 Y106.625 E120.217
G1 X107.812 Y107.087 E120.24
G1 X108.101 Y107.112 E120.254
G1 X108.083 Y107.573 E120.277
G1 X108.374 Y107.598 E120.292
G1 X108.356 Y108.061 E120.315
G1 X108.656 Y108.087 E120.33
G1 X108.638 Y108.549 E120.353
G1 X108.918 Y108.573 E120.367
G1 X108.9 Y109.033 E120.39
G1 X109.191 Y109.058 E120.405
G1 X109.173 Y109.522 E120.428
G1 X109.473 Y109.547 E120.443
G1 X109.455 Y110.007 E120.466
G1 X109.736 Y110.031 E120.48
G1 X109.718 Y110.495 E120.503
G1 X110.007 Y110.519 E120.517
G1 X109.99 Y110.983 E120.541
G1 X110.289 Y111.008 E120.556
G1 X110.272 Y111.468 E120.579
G1 X110.553 Y111.491 E120.593
G1 X110.536 Y111.956 E120.616
G1 X110.823 Y111.979 E120.63
G1 X110.807 Y112.444 E120.653
G1 X111.095 Y112.467 E120.668
G1 X111.079 Y112.918 E120.69
G1 X111.389 Y112.942 E120.706
G1 X111.373 Y113.419 E120.73
G1 X111.64 Y113.441 E120.743
G1 X111.623 Y113.904 E120.766
G1 X111.912 Y113.927 E120.781
G1 X111.896 Y114.392 E120.804
G1 X112.197 Y114.416 E120.819
G1 X112.179 Y114.88 E120.842
G1 X112.456 Y114.902 E120.856
G1 X112.44 Y115.365 E120.879
G1 X112.727 Y115.388 E120.893
G1 X112.712 Y115.85 E120.917
G1 X113.001 Y115.872 E120.931
G1 X112.987 Y116.342 E120.954
G1 X113.283 Y116.365 E120.969
G1 X113.267 Y116.827 E120.992
G1 X113.546 Y116.848 E121.006
G1 X113.531 Y117.316 E121.03
G1 X114.206 Y117.368 E121.063
G1 X113.292 Y118.95 E121.155
G1 X115.197 Y119.132 E121.25
G1 X115.18 Y119.585 E121.273
G1 X115.408 Y119.606 E121.284
G1 X115.391 Y120.066 E121.307
G1 X115.636 Y120.088 E121.319
G1 X115.619 Y120.554 E121.342
G1 X116.809 Y120.661 E121.402
;rapid-leaky
G1 F236
G0 X116.149 Y121.003
;bead-skirt/brim
G1 X115.143 Y122.745 F780 E121.502
G1 X115.11 Y123.694 E121.55
G1 X114.589 Y123.704 E121.576
G1 X112.528 Y127.274 E121.781
G1 X105.339 E122.14
G1 X105.692 Y126.497 E122.183
G1 X105.276 Y126.291 E122.206
G1 X105.351 Y126.125 E122.215
G1 X104.936 Y125.919 E122.238
G1 X105.019 Y125.737 E122.248
G1 X104.676 Y125.567 E122.267
G1 X104.735 Y125.415 E122.275
G1 X104.343 Y125.221 E122.297
G1 X105.065 Y123.37 E122.396
G1 X103.761 E122.461
G1 X103.911 Y123.063 E122.478
G1 X103.502 Y122.837 E122.502
G1 X103.63 Y122.574 E122.516
G1 X103.219 Y122.358 E122.539
G1 X103.341 Y122.106 E122.553
G1 X102.929 Y121.888 E122.577
G1 X103.003 Y121.735 E122.585
G1 X102.311 Y121.41 E122.623
G1 X102.57 Y120.71 E122.66
G1 X102.105 Y120.462 E122.687
G1 X102.231 Y120.184 E122.702
G1 X101.798 Y119.957 E122.726
G1 X101.92 Y119.704 E122.74
G1 X101.534 Y119.498 E122.762
G1 X101.649 Y119.246 E122.776
G1 X101.241 Y119.029 E122.799
G1 X101.366 Y118.756 E122.814
G1 X100.96 Y118.54 E122.837
G1 X101.077 Y118.285 E122.851
G1 X100.669 Y118.069 E122.874
G1 X100.797 Y117.791 E122.889
G1 X100.392 Y117.576 E122.912
G1 X100.508 Y117.323 E122.926
G1 X100.103 Y117.109 E122.949
G1 X100.231 Y116.829 E122.964
G1 X99.823 Y116.612 E122.987
G1 X99.941 Y116.354 E123.001
G1 X99.536 Y116.138 E123.024
G1 X99.652 Y115.885 E123.038
G1 X99.246 Y115.67 E123.061
G1 X99.374 Y115.39 E123.076
G1 X98.967 Y115.174 E123.099
G1 X99.083 Y114.921 E123.113
G1 X98.677 Y114.706 E123.136
G1 X98.8 Y114.438 E123.151
G1 X98.395 Y114.222 E123.174
G1 X98.538 Y113.91 E123.191
G1 X98.119 Y113.693 E123.214
G1 X98.221 Y113.474 E123.227
G1 X97.821 Y113.269 E123.249
G1 X97.969 Y112.945 E123.267
G1 X97.552 Y112.73 E123.29
G1 X97.682 Y112.451 E123.305
G1 X97.272 Y112.239 E123.328
G1 X97.394 Y111.978 E123.343
G1 X96.985 Y111.767 E123.366
G1 X97.114 Y111.49 E123.381
G1 X96.703 Y111.277 E123.404
G1 X96.824 Y111.018 E123.418
G1 X96.417 Y110.809 E123.441
G1 X96.538 Y110.546 E123.456
G1 X96.131 Y110.337 E123.478
G1 X96.24 Y110.098 E123.492
G1 X95.831 Y109.889 E123.514
G1 X95.981 Y109.562 E123.532
G1 X95.572 Y109.352 E123.555
G1 X96.648 Y107.005 E123.684
G1 X96.452 Y106.902 E123.695
G1 X96.546 Y106.6 E123.711
G1 X96.181 Y106.403 E123.732
G1 X96.618 Y104.972 E123.806
G1 X97.098 Y103.904 E123.865
G1 X98.054 Y103.54 E123.916
G1 X98.598 Y103.291 E123.946
G1 X98.741 Y103.209 E123.954
G1 X99.231 Y102.86 E123.984
G1 X100.023 Y102.213 E124.035
G1 X101.171 Y102.315 E124.092
G1 X102.657 Y102.656 E124.168
G1 X102.648 Y103.072 E124.189
G1 X102.947 Y103.139 E124.205
G1 X102.941 Y103.34 E124.215
G1 X105.509 Y103.583 E124.343
G1 X105.489 Y104.041 E124.366
G1 X105.781 Y104.069 E124.381
G1 X105.762 Y104.532 E124.404
G1 X106.075 Y104.563 E124.42
G1 X106.055 Y105.019 E124.442
G1 X106.334 Y105.045 E124.456
G1 X106.315 Y105.503 E124.479
G1 X106.598 Y105.529 E124.493
G1 X106.58 Y105.991 E124.516
G1 X106.87 Y106.017 E124.531
G1 X106.851 Y106.479 E124.554
G1 X107.152 Y106.506 E124.569
G1 X107.133 Y106.964 E124.592
G1 X107.415 Y106.99 E124.606
G1 X107.397 Y107.452 E124.629
G1 X107.686 Y107.477 E124.644
G1 X107.668 Y107.938 E124.667
G1 X107.96 Y107.963 E124.681
G1 X107.942 Y108.426 E124.704
G1 X108.241 Y108.452 E124.719
G1 X108.223 Y108.914 E124.742
G1 X108.503 Y108.939 E124.757
G1 X108.485 Y109.399 E124.78
G1 X108.777 Y109.424 E124.794
G1 X108.759 Y109.888 E124.817
G1 X109.058 Y109.913 E124.832
G1 X109.041 Y110.374 E124.855
G1 X109.322 Y110.397 E124.869
G1 X109.305 Y110.861 E124.892
G1 X109.593 Y110.886 E124.907
G1 X109.576 Y111.349 E124.93
G1 X109.875 Y111.374 E124.945
G1 X109.858 Y111.836 E124.968
G1 X110.139 Y111.859 E124.982
G1 X110.122 Y112.323 E125.005
G1 X110.41 Y112.347 E125.02
G1 X110.393 Y112.812 E125.043
G1 X110.681 Y112.835 E125.057
G1 X110.665 Y113.288 E125.08
G1 X110.976 Y113.312 E125.096
G1 X110.96 Y113.787 E125.119
G1 X111.226 Y113.809 E125.133
G1 X111.21 Y114.272 E125.156
G1 X111.499 Y114.295 E125.17
G1 X111.483 Y114.76 E125.194
G1 X111.783 Y114.784 E125.209
G1 X111.765 Y115.249 E125.232
G1 X112.043 Y115.271 E125.246
G1 X112.027 Y115.734 E125.269
G1 X112.315 Y115.757 E125.283
G1 X112.3 Y116.22 E125.306
G1 X112.59 Y116.242 E125.321
G1 X112.575 Y116.711 E125.344
G1 X112.87 Y116.734 E125.359
G1 X112.854 Y117.196 E125.382
G1 X113.134 Y117.218 E125.396
G1 X113.119 Y117.686 E125.419
G1 X113.542 Y117.718 E125.441
G1 X112.635 Y119.289 E125.531
G1 X114.783 Y119.495 E125.639
G1 X114.766 Y119.949 E125.661
G1 X114.995 Y119.97 E125.673
G1 X114.978 Y120.431 E125.696
G1 X115.223 Y120.453 E125.708
G1 X115.207 Y120.919 E125.731
G1 X116.149 Y121.003 E125.779
;rapid-leaky
G1 F236
G0 X81.615 Y137.954
;bead-skirt/brim
G1 X81.622 Y144.972 F780 E126.129
G1 X80.957 Y145.357 E126.167
G1 X85.538 Y148.01 E126.431
G1 X80.334 Y149.855 E126.707
G1 X79.737 Y157.114 E127.07
G1 X77.62 Y155.888 E127.192
G1 X77.575 Y156.024 E127.199
G1 X71.511 Y152.515 E127.549
G1 X65.495 Y149.029 E127.896
G1 X65.592 Y148.922 E127.903
G1 X64.14 Y148.081 E127.987
G1 X69.391 Y143.783 E128.325
G1 X65.393 Y141.467 E128.556
G1 X68.869 Y139.453 E128.756
G1 X68.665 Y138.239 E128.817
G1 X69.815 Y138.905 E128.884
G1 X76.52 Y135.02 E129.27
G1 X81.615 Y137.954 E129.564
;rapid-leaky
G1 F236
G0 X81.216 Y138.185
;bead-skirt/brim
G1 X81.221 Y144.742 F780 E129.891
G1 X80.158 Y145.356 E129.952
G1 X84.589 Y147.922 E130.207
G1 X79.957 Y149.565 E130.453
G1 X79.39 Y156.451 E130.797
G1 X77.396 Y155.296 E130.912
G1 X77.351 Y155.432 E130.919
G1 X71.712 Y152.168 E131.245
G1 X66.125 Y148.932 E131.567
G1 X66.222 Y148.825 E131.574
G1 X64.841 Y148.025 E131.653
G1 X70.003 Y143.799 E131.986
G1 X69.98 Y143.662 E131.993
G1 X66.191 Y141.467 E132.212
G1 X69.309 Y139.66 E132.391
G1 X69.2 Y139.011 E132.424
G1 X69.815 Y139.367 E132.46
G1 X76.521 Y135.482 E132.846
G1 X81.216 Y138.185 E133.117
;rapid-leaky
G1 F236
G0 X80.816 Y138.416
;bead-skirt/brim
G1 X80.821 Y144.511 F780 E133.421
G1 X79.359 Y145.356 E133.505
G1 X83.639 Y147.835 E133.752
G1 X79.58 Y149.274 E133.967
G1 X79.044 Y155.788 E134.293
G1 X77.172 Y154.704 E134.401
G1 X77.126 Y154.84 E134.408
G1 X71.912 Y151.822 E134.708
G1 X66.755 Y148.834 E135.006
G1 X66.852 Y148.728 E135.013
G1 X65.541 Y147.968 E135.089
G1 X70.435 Y143.962 E135.404
G1 X70.343 Y143.41 E135.432
G1 X66.989 Y141.467 E135.625
G1 X69.749 Y139.868 E135.785
G1 X69.735 Y139.783 E135.789
G1 X69.815 Y139.829 E135.793
G1 X76.521 Y135.944 E136.18
G1 X80.816 Y138.416 E136.427
;rapid-leaky
G1 F236
G0 X80.416 Y138.648
;bead-skirt/brim
G1 X80.421 Y144.28 F780 E136.708
G1 X78.685 Y145.283 E136.808
G1 X78.691 Y145.431 E136.816
G1 X82.69 Y147.747 E137.046
G1 X79.202 Y148.984 E137.231
G1 X78.697 Y155.125 E137.538
G1 X76.947 Y154.112 E137.639
G1 X76.902 Y154.248 E137.646
G1 X72.113 Y151.476 E137.922
G1 X67.385 Y148.737 E138.195
G1 X67.482 Y148.63 E138.202
G1 X66.242 Y147.912 E138.274
G1 X70.868 Y144.124 E138.572
G1 X70.706 Y143.158 E138.621
G1 X67.787 Y141.467 E138.789
G1 X76.522 Y136.406 E139.293
G1 X80.416 Y138.648 E139.517
;rapid-leaky
G1 F236
G0 X80.016 Y138.879
;bead-skirt/brim
G1 X80.021 Y144.049 F780 E139.775
G1 X77.901 Y145.274 E139.897
G1 X78.294 Y145.501 E139.92
G1 X78.301 Y145.667 E139.928
G1 X81.74 Y147.659 E140.126
G1 X78.771 Y148.712 E140.283
G1 X78.821 Y148.741 E140.286
G1 X78.35 Y154.462 E140.573
G1 X76.723 Y153.52 E140.667
G1 X76.678 Y153.656 E140.674
G1 X72.313 Y151.13 E140.925
G1 X68.015 Y148.639 E141.173
G1 X68.112 Y148.533 E141.18
G1 X66.942 Y147.855 E141.248
G1 X71.23 Y144.345 E141.524
G1 X71.32 Y144.397 E141.529
G1 X71.07 Y142.906 E141.605
G1 X68.585 Y141.467 E141.748
G1 X76.522 Y136.868 E142.206
G1 X80.016 Y138.879 E142.407
;rapid-leaky
G1 F236
G0 X79.616 Y139.111
;bead-skirt/brim
G1 X79.621 Y143.819 F780 E142.642
G1 X77.102 Y145.273 E142.787
G1 X77.903 Y145.737 E142.833
G1 X77.91 Y145.903 E142.841
G1 X80.791 Y147.572 E143.007
G1 X77.821 Y148.625 E143.165
G1 X78.401 Y148.961 E143.198
G1 X78.003 Y153.799 E143.44
G1 X76.499 Y152.928 E143.527
G1 X76.453 Y153.064 E143.534
G1 X72.513 Y150.784 E143.761
G1 X68.644 Y148.542 E143.984
G1 X68.742 Y148.435 E143.992
G1 X67.643 Y147.799 E144.055
G1 X71.269 Y144.83 E144.289
G1 X71.854 Y145.169 E144.322
G1 X71.433 Y142.654 E144.45
G1 X69.383 Y141.467 E144.568
G1 X76.523 Y137.33 E144.98
G1 X79.616 Y139.111 E145.158
;rapid-leaky
G1 F236
G0 X79.217 Y139.342
;bead-skirt/brim
G1 X79.22 Y143.588 F780 E145.369
G1 X76.528 Y145.143 E145.525
G1 X70.181 Y141.467 E145.891
G1 X76.524 Y137.792 E146.256
G1 X79.217 Y139.342 E146.411
;rapid-leaky
G1 F236
G0 X78.817 Y139.573
;bead-skirt/brim
G1 X78.82 Y143.357 F780 E146.6
G1 X76.528 Y144.681 E146.732
G1 X70.979 Y141.467 E147.052
G1 X76.524 Y138.253 E147.372
G1 X78.817 Y139.573 E147.504
;rapid-leaky
G1 F236
G0 X78.417 Y139.805
;bead-skirt/brim
G1 X78.42 Y143.126 F780 E147.67
G1 X76.529 Y144.219 E147.779
G1 X71.777 Y141.467 E148.052
G1 X76.525 Y138.715 E148.326
G1 X78.417 Y139.805 E148.435
;rapid-leaky
G1 F236
G0 X78.017 Y140.036
;bead-skirt/brim
G1 X78.02 Y142.896 F780 E148.578
G1 X76.529 Y143.757 E148.664
G1 X72.575 Y141.467 E148.892
G1 X76.526 Y139.177 E149.12
G1 X78.017 Y140.036 E149.205
;rapid-leaky
G1 F236
G0 X75.545 Y144.834
;bead-skirt/brim
G1 X75.693 Y145.173 F780 E149.224
G1 X75.753 Y145.241 E149.228
G1 X76.438 Y145.351 E149.263
G1 X77.512 Y145.973 E149.325
G1 X77.519 Y146.139 E149.333
G1 X79.841 Y147.484 E149.467
G1 X76.872 Y148.537 E149.624
G1 X77.982 Y149.18 E149.688
G1 X77.656 Y153.136 E149.886
G1 X76.274 Y152.335 E149.966
G1 X76.229 Y152.472 E149.973
G1 X72.714 Y150.438 E150.176
G1 X69.274 Y148.445 E150.374
G1 X69.371 Y148.338 E150.381
G1 X68.343 Y147.742 E150.441
G1 X71.308 Y145.315 E150.632
G1 X72.389 Y145.941 E150.694
G1 X71.875 Y142.871 E150.849
G1 X74.161 Y144.195 E150.981
G1 X74.315 Y144.121 E150.99
G1 X75.545 Y144.834 E151.061
;rapid-leaky
G1 F236
G0 X75.231 Y145.114
;bead-skirt/brim
G1 X75.351 Y145.39 F780 E151.076
G1 X75.548 Y145.614 E151.091
G1 X76.302 Y145.734 E151.129
G1 X77.121 Y146.209 E151.176
G1 X77.128 Y146.375 E151.184
G1 X78.892 Y147.396 E151.286
G1 X76.32 Y148.308 E151.422
G1 Y148.68 E151.441
G1 X77.563 Y149.399 E151.512
G1 X77.31 Y152.473 E151.666
G1 X76.05 Y151.743 E151.739
G1 X76.004 Y151.88 E151.746
G1 X72.914 Y150.091 E151.924
G1 X69.904 Y148.347 E152.097
G1 X70.001 Y148.241 E152.105
G1 X69.044 Y147.686 E152.16
G1 X71.348 Y145.8 E152.308
G1 X72.459 Y146.443 E152.372
G1 X72.879 E152.393
G1 X72.41 Y143.643 E152.535
G1 X74.142 Y144.646 E152.635
G1 X74.297 Y144.573 E152.643
G1 X75.231 Y145.114 E152.697
;rapid-leaky
G1 F236
G0 X74.916 Y145.395
;bead-skirt/brim
G1 X75.009 Y145.608 F780 E152.709
G1 X75.343 Y145.986 E152.734
G1 X76.166 Y146.118 E152.776
G1 X76.73 Y146.445 E152.808
G1 X76.737 Y146.611 E152.817
G1 X77.942 Y147.309 E152.886
G1 X75.92 Y148.026 E152.993
G1 Y148.911 E153.037
G1 X77.143 Y149.619 E153.108
G1 X76.963 Y151.81 E153.217
G1 X75.826 Y151.151 E153.283
G1 X75.78 Y151.288 E153.29
G1 X73.115 Y149.745 E153.444
G1 X70.534 Y148.25 E153.593
G1 X70.631 Y148.143 E153.6
G1 X69.744 Y147.629 E153.651
G1 X71.387 Y146.285 E153.757
G1 X72.351 Y146.843 E153.812
G1 X73.352 E153.862
G1 X72.945 Y144.415 E153.985
G1 X74.124 Y145.098 E154.053
G1 X74.278 Y145.025 E154.062
G1 X74.916 Y145.395 E154.098
;rapid-leaky
G1 F236
G0 X74.602 Y145.675
;bead-skirt/brim
G1 X74.668 Y145.825 F780 E154.107
G1 X75.138 Y146.358 E154.142
G1 X76.029 Y146.501 E154.187
G1 X76.34 Y146.68 E154.205
G1 X76.346 Y146.846 E154.213
G1 X76.993 Y147.221 E154.251
G1 X75.52 Y147.743 E154.329
G1 Y149.141 E154.398
G1 X76.724 Y149.838 E154.468
G1 X76.616 Y151.147 E154.533
G1 X75.601 Y150.559 E154.592
G1 X75.556 Y150.696 E154.599
G1 X73.315 Y149.399 E154.728
G1 X71.164 Y148.153 E154.852
G1 X71.261 Y148.046 E154.859
G1 X70.445 Y147.573 E154.906
G1 X71.426 Y146.77 E154.97
G1 X72.244 Y147.243 E155.017
G1 X73.824 E155.096
G1 X73.48 Y145.187 E155.2
G1 X74.106 Y145.549 E155.236
G1 X74.26 Y145.476 E155.244
G1 X74.602 Y145.675 E155.264
;rapid-leaky
G1 F236
G0 X76.499 Y96.013
;bead-skirt/brim
G1 X65.625 Y89.638 F780 E155.893
G1 X69.319 Y87.501 E156.106
G1 X63.727 Y83.405 E156.452
G1 X65.17 Y82.57 E156.535
G1 X65.065 Y82.467 E156.542
G1 X78.167 Y74.881 E157.297
G1 X78.203 Y75.023 E157.305
G1 X79.432 Y74.312 E157.376
G1 X80.682 Y83.279 E157.827
G1 X80.063 Y83.637 E157.863
G1 X80.128 Y85.412 E157.951
G1 X81.618 Y86.271 E158.037
G1 Y93.08 E158.377
G1 X76.499 Y96.013 E158.671
;rapid-leaky
G1 F236
G0 X76.501 Y95.551
;bead-skirt/brim
G1 X66.42 Y89.64 F780 E159.254
G1 X70.049 Y87.541 E159.464
G1 X64.458 Y83.444 E159.809
G1 X65.826 Y82.652 E159.888
G1 X65.721 Y82.549 E159.896
G1 X77.911 Y75.492 E160.598
G1 X77.948 Y75.634 E160.606
G1 X79.118 Y74.956 E160.673
G1 X80.248 Y83.067 E161.082
G1 X79.654 Y83.411 E161.116
G1 X79.736 Y85.648 E161.228
G1 X81.218 Y86.502 E161.313
G1 Y92.848 E161.63
G1 X76.501 Y95.551 E161.901
;rapid-leaky
G1 F236
G0 X76.503 Y95.088
;bead-skirt/brim
G1 X67.214 Y89.643 F780 E162.438
G1 X70.78 Y87.58 E162.644
G1 X65.188 Y83.484 E162.989
G1 X66.481 Y82.735 E163.064
G1 X66.376 Y82.632 E163.071
G1 X77.655 Y76.102 E163.721
G1 X77.692 Y76.244 E163.729
G1 X78.804 Y75.6 E163.793
G1 X79.815 Y82.856 E164.158
G1 X79.246 Y83.185 E164.191
G1 X79.345 Y85.884 E164.326
G1 X80.818 Y86.733 E164.411
G1 Y92.616 E164.704
G1 X76.503 Y95.088 E164.952
;rapid-leaky
G1 F236
G0 X76.505 Y94.626
;bead-skirt/brim
G1 X68.009 Y89.645 F780 E165.444
G1 X72.038 Y87.314 E165.676
G1 X71.679 Y87.105 E165.697
G1 X71.192 Y87.386 E165.725
G1 X65.919 Y83.523 E166.051
G1 X67.137 Y82.818 E166.121
G1 X67.032 Y82.715 E166.128
G1 X77.4 Y76.712 E166.726
G1 X77.436 Y76.854 E166.733
G1 X78.49 Y76.244 E166.794
G1 X79.382 Y82.644 E167.117
G1 X78.837 Y82.959 E167.148
G1 X78.937 Y85.674 E167.284
G1 X78.583 Y85.879 E167.304
G1 X78.58 Y85.905 E167.305
G1 X80.418 Y86.964 E167.411
G1 Y92.385 E167.681
G1 X76.505 Y94.626 E167.906
;rapid-leaky
G1 F236
G0 X76.508 Y94.164
;bead-skirt/brim
G1 X68.804 Y89.647 F780 E168.352
G1 X72.835 Y87.316 E168.584
G1 X71.68 Y86.642 E168.651
G1 X71.218 Y86.909 E168.678
G1 X66.649 Y83.562 E168.96
G1 X67.792 Y82.901 E169.026
G1 X67.687 Y82.798 E169.033
G1 X77.144 Y77.322 E169.579
G1 X77.181 Y77.464 E169.586
G1 X78.176 Y76.888 E169.643
G1 X78.948 Y82.433 E169.923
G1 X78.429 Y82.734 E169.952
G1 X78.528 Y85.448 E170.088
G1 X78.211 Y85.632 E170.106
G1 X78.189 Y85.808 E170.115
G1 X77.901 Y85.975 E170.132
G1 X80.018 Y87.195 E170.254
G1 Y92.153 E170.501
G1 X76.508 Y94.164 E170.703
;rapid-leaky
G1 F236
G0 X76.51 Y93.701
;bead-skirt/brim
G1 X69.599 Y89.65 F780 E171.103
G1 X73.631 Y87.318 E171.335
G1 X71.881 Y86.297 E171.436
G1 X71.912 Y86.046 E171.449
G1 X71.244 Y86.432 E171.487
G1 X67.38 Y83.602 E171.726
G1 X68.447 Y82.983 E171.788
G1 X68.342 Y82.88 E171.795
G1 X76.888 Y77.933 E172.288
G1 X76.925 Y78.075 E172.295
G1 X77.862 Y77.532 E172.349
G1 X78.515 Y82.222 E172.585
G1 X77.864 Y82.599 E172.623
G1 X78.026 Y82.663 E172.631
G1 X78.12 Y85.223 E172.759
G1 X77.839 Y85.385 E172.775
G1 X77.817 Y85.562 E172.784
G1 X77.101 Y85.976 E172.825
G1 X79.618 Y87.427 E172.97
G1 Y91.921 E173.195
G1 X76.51 Y93.701 E173.373
;rapid-leaky
G1 F236
G0 X76.512 Y93.239
;bead-skirt/brim
G1 X70.394 Y89.652 F780 E173.727
G1 X76.525 Y86.106 E174.081
G1 X79.218 Y87.658 E174.236
G1 Y91.689 E174.437
G1 X76.512 Y93.239 E174.592
;rapid-leaky
G1 F236
G0 X76.515 Y92.777
;bead-skirt/brim
G1 X71.189 Y89.654 F780 E174.9
G1 X76.525 Y86.567 E175.208
G1 X78.818 Y87.889 E175.34
G1 Y91.457 E175.518
G1 X76.515 Y92.777 E175.65
;rapid-leaky
G1 F236
G0 X76.517 Y92.314
;bead-skirt/brim
G1 X71.984 Y89.657 F780 E175.913
G1 X76.526 Y87.029 E176.174
G1 X78.418 Y88.12 E176.283
G1 Y91.225 E176.438
G1 X76.517 Y92.314 E176.548
;rapid-leaky
G1 F236
G0 X76.519 Y91.852
;bead-skirt/brim
G1 X72.778 Y89.659 F780 E176.764
G1 X76.526 Y87.491 E176.98
G1 X78.018 Y88.351 E177.066
G1 Y90.994 E177.198
G1 X76.519 Y91.852 E177.284
;rapid-leaky
G1 F236
G0 X74.477 Y87.034
;bead-skirt/brim
G1 X74.305 Y86.97 F780 E177.293
G1 X74.066 Y87.108 E177.307
G1 X72.31 Y86.084 E177.408
G1 X72.405 Y85.298 E177.448
G1 X71.269 Y85.955 E177.513
G1 X68.11 Y83.641 E177.708
G1 X69.103 Y83.066 E177.766
G1 X68.998 Y82.963 E177.773
G1 X76.632 Y78.543 E178.213
G1 X76.669 Y78.685 E178.221
G1 X77.548 Y78.176 E178.271
G1 X78.082 Y82.01 E178.464
G1 X76.951 Y82.665 E178.529
G1 X77.636 Y82.938 E178.566
G1 X77.711 Y84.997 E178.669
G1 X77.467 Y85.139 E178.683
G1 X77.445 Y85.315 E178.692
G1 X76.356 Y85.945 E178.755
G1 X75.792 Y85.961 E178.783
G1 X75.673 Y86.341 E178.803
G1 X74.477 Y87.034 E178.872
;rapid-leaky
G1 F236
G0 X74.44 Y86.593
;bead-skirt/brim
G1 X74.267 Y86.529 F780 E178.881
G1 X74.067 Y86.646 E178.892
G1 X72.739 Y85.871 E178.969
G1 X72.867 Y84.802 E179.023
G1 X72.462 E179.043
G1 X71.295 Y85.478 E179.11
G1 X68.84 Y83.68 E179.262
G1 X69.758 Y83.149 E179.315
G1 X69.653 Y83.046 E179.322
G1 X76.377 Y79.153 E179.71
G1 X76.413 Y79.295 E179.717
G1 X77.234 Y78.82 E179.765
G1 X77.648 Y81.799 E179.915
G1 X76.41 Y82.516 E179.986
G1 Y82.879 E180.004
G1 X77.245 Y83.213 E180.049
G1 X77.302 Y84.771 E180.127
G1 X77.094 Y84.892 E180.139
G1 X77.072 Y85.068 E180.148
G1 X76.243 Y85.548 E180.196
G1 X75.496 Y85.569 E180.233
G1 X75.338 Y86.073 E180.259
G1 X74.44 Y86.593 E180.311
;rapid-leaky
G1 F236
G0 X74.403 Y86.153
;bead-skirt/brim
G1 X74.23 Y86.088 F780 E180.32
G1 X74.067 Y86.183 E180.33
G1 X73.167 Y85.658 E180.382
G1 X73.318 Y84.402 E180.445
G1 X72.355 E180.493
G1 X71.321 Y85.001 E180.552
G1 X69.571 Y83.719 E180.66
G1 X70.413 Y83.231 E180.709
G1 X70.309 Y83.129 E180.716
G1 X76.121 Y79.763 E181.051
G1 X76.158 Y79.906 E181.059
G1 X76.919 Y79.464 E181.103
G1 X77.215 Y81.587 E181.21
G1 X76.01 Y82.285 E181.279
G1 Y83.15 E181.322
G1 X76.855 Y83.488 E181.368
G1 X76.894 Y84.546 E181.421
G1 X76.722 Y84.645 E181.43
G1 X76.7 Y84.821 E181.439
G1 X76.13 Y85.151 E181.472
G1 X75.2 Y85.177 E181.519
G1 X75.003 Y85.805 E181.551
G1 X74.403 Y86.153 E181.586
;rapid-leaky
G1 F236
G0 X74.365 Y85.712
;bead-skirt/brim
G1 X74.192 Y85.648 F780 E181.595
G1 X74.068 Y85.72 E181.602
G1 X73.596 Y85.445 E181.63
G1 X73.77 Y84.002 E181.702
G1 X72.247 E181.778
G1 X71.346 Y84.524 E181.83
G1 X70.301 Y83.759 E181.895
G1 X71.069 Y83.314 E181.939
G1 X70.964 Y83.211 E181.946
G1 X75.865 Y80.374 E182.229
G1 X75.902 Y80.516 E182.236
G1 X76.605 Y80.109 E182.277
G1 X76.782 Y81.376 E182.34
G1 X75.61 Y82.054 E182.408
G1 Y83.421 E182.476
G1 X76.465 Y83.763 E182.522
G1 X76.485 Y84.32 E182.55
G1 X76.35 Y84.399 E182.558
G1 X76.328 Y84.575 E182.567
G1 X76.018 Y84.754 E182.585
G1 X74.903 Y84.785 E182.64
G1 X74.668 Y85.537 E182.679
G1 X74.365 Y85.712 E182.697
;rapid-leaky
G1 F236
G0 X87.785 Y81.938
;bead-skirt/brim
G1 X88.545 Y77.823 F780 E182.906
G1 X87.287 Y77.096 E182.978
G1 X88.65 Y76.307 E183.057
G1 X83.229 Y72.114 E183.399
G1 X84.661 Y71.285 E183.481
G1 X84.558 Y71.18 E183.489
G1 X97.356 Y63.77 E184.226
G1 X97.391 Y63.912 E184.234
G1 X98.803 Y63.095 E184.315
G1 X99.57 Y69.99 E184.661
G1 X103.374 Y67.789 E184.88
G1 X103.396 Y71.686 E185.075
G1 X104.669 Y72.162 E185.143
G1 X103.403 Y72.894 E185.215
G1 X103.448 Y80.529 E185.596
G1 X98.346 Y83.492 E185.891
G1 X91.72 Y79.66 E186.273
G1 X87.785 Y81.938 E186.499
;rapid-leaky
G1 F236
G0 X88.336 Y81.157
;bead-skirt/brim
G1 X88.99 Y77.618 F780 E186.679
G1 X88.086 Y77.096 E186.731
G1 X89.206 Y76.448 E186.796
G1 X89.241 Y76.258 E186.805
G1 X83.945 Y72.162 E187.139
G1 X85.306 Y71.374 E187.218
G1 X85.203 Y71.268 E187.225
G1 X97.096 Y64.383 E187.911
G1 X97.131 Y64.525 E187.918
G1 X98.473 Y63.748 E187.995
G1 X99.23 Y70.555 E188.337
G1 X99.328 Y70.592 E188.342
G1 X102.978 Y68.48 E188.553
G1 X102.998 Y71.964 E188.726
G1 X103.736 Y72.24 E188.766
G1 X103.002 Y72.665 E188.808
G1 X103.047 Y80.3 E189.189
G1 X98.346 Y83.03 E189.46
G1 X91.72 Y79.197 E189.842
G1 X88.336 Y81.157 E190.037
;rapid-leaky
G1 F236
G0 X88.887 Y80.375
;bead-skirt/brim
G1 X89.434 Y77.414 F780 E190.187
G1 X88.885 Y77.096 E190.219
G1 X89.566 Y76.702 E190.258
G1 X89.678 Y76.091 E190.289
G1 X84.661 Y72.21 E190.606
G1 X85.951 Y71.462 E190.68
G1 X85.849 Y71.357 E190.687
G1 X96.836 Y64.995 E191.321
G1 X96.871 Y65.137 E191.328
G1 X98.143 Y64.401 E191.401
G1 X98.86 Y70.843 E191.725
G1 X99.365 Y71.032 E191.752
G1 X102.582 Y69.171 E191.937
G1 X102.6 Y72.242 E192.09
G1 X102.803 Y72.318 E192.101
G1 X102.601 Y72.435 E192.113
G1 X102.646 Y80.07 E192.494
G1 X98.345 Y82.567 E192.742
G1 X91.72 Y78.735 E193.124
G1 X88.887 Y80.375 E193.287
;rapid-leaky
G1 F236
G0 X89.438 Y79.594
;bead-skirt/brim
G1 X89.879 Y77.209 F780 E193.408
G1 X89.684 Y77.096 E193.419
G1 X89.925 Y76.956 E193.433
G1 X90.116 Y75.924 E193.486
G1 X85.376 Y72.258 E193.785
G1 X86.597 Y71.551 E193.855
G1 X86.494 Y71.446 E193.862
G1 X96.576 Y65.608 E194.443
G1 X96.612 Y65.75 E194.451
G1 X97.813 Y65.054 E194.52
G1 X98.489 Y71.132 E194.825
G1 X99.402 Y71.473 E194.874
G1 X102.186 Y69.862 E195.034
G1 X102.244 Y79.841 E195.532
G1 X98.345 Y82.105 E195.757
G1 X91.719 Y78.273 E196.139
G1 X89.438 Y79.594 E196.27
;rapid-leaky
G1 F236
G0 X89.989 Y78.813
;bead-skirt/brim
G1 X90.563 Y75.708 F780 E196.428
G1 X90.522 Y75.732 E196.43
G1 X86.092 Y72.305 E196.71
G1 X87.242 Y71.639 E196.776
G1 X87.139 Y71.534 E196.783
G1 X96.317 Y66.221 E197.312
G1 X96.352 Y66.363 E197.32
G1 X97.483 Y65.708 E197.385
G1 X98.11 Y71.338 E197.667
G1 X98.027 Y71.386 E197.672
G1 X99.438 Y71.914 E197.747
G1 X101.79 Y70.554 E197.883
G1 X101.843 Y79.611 E198.335
G1 X98.345 Y81.643 E198.537
G1 X91.719 Y77.811 E198.919
G1 X89.989 Y78.813 E199.018
;rapid-leaky
G1 F236
G0 X90.54 Y78.031
;bead-skirt/brim
G1 X91.114 Y74.927 F780 E199.176
G1 X90.554 Y75.251 E199.208
G1 X86.807 Y72.353 E199.444
G1 X87.887 Y71.728 E199.507
G1 X87.785 Y71.623 E199.514
G1 X96.057 Y66.833 E199.991
G1 X96.092 Y66.976 E199.998
G1 X97.154 Y66.361 E200.059
G1 X97.683 Y71.123 E200.298
G1 X97.094 Y71.464 E200.332
G1 X99.475 Y72.355 E200.459
G1 X101.394 Y71.245 E200.57
G1 X101.441 Y79.382 E200.976
G1 X98.344 Y81.18 E201.154
G1 X91.719 Y77.349 E201.536
G1 X90.54 Y78.031 E201.604
;rapid-leaky
G1 F236
G0 X91.091 Y77.25
;bead-skirt/brim
G1 X91.665 Y74.146 F780 E201.762
G1 X90.586 Y74.77 E201.824
G1 X87.523 Y72.401 E202.017
G1 X88.532 Y71.816 E202.075
G1 X88.43 Y71.711 E202.083
G1 X95.797 Y67.446 E202.507
G1 X95.832 Y67.588 E202.515
G1 X96.824 Y67.014 E202.572
G1 X97.257 Y70.907 E202.767
G1 X96.16 Y71.542 E202.83
G1 X99.07 Y72.63 E202.985
G1 X96.755 Y73.971 E203.119
G1 X96.678 Y74.435 E203.142
G1 X100.998 Y71.936 E203.391
G1 X101.04 Y79.152 E203.751
G1 X98.344 Y80.718 E203.907
G1 X92.08 Y77.096 E204.268
G1 X96.113 Y74.762 E204.5
G1 X95.389 Y74.737 E204.536
G1 X95.056 Y74.809 E204.553
G1 X94.91 Y75.203 E204.574
G1 X93.64 Y75.938 E204.648
G1 X93.476 Y75.869 E204.656
G1 X91.091 Y77.25 E204.794
;rapid-leaky
G1 F236
G0 X91.642 Y76.469
;bead-skirt/brim
G1 X92.148 Y73.733 F780 E204.933
G1 X91.782 Y73.616 E204.952
G1 X90.618 Y74.29 E205.019
G1 X88.238 Y72.449 E205.169
G1 X89.177 Y71.905 E205.223
G1 X89.075 Y71.8 E205.231
G1 X95.537 Y68.058 E205.603
G1 X95.573 Y68.201 E205.61
G1 X96.494 Y67.667 E205.664
G1 X96.83 Y70.692 E205.815
G1 X95.614 Y71.397 E205.885
G1 Y71.765 E205.904
G1 X98.137 Y72.708 E206.038
G1 X96.391 Y73.719 E206.139
G1 X96.284 Y74.368 E206.172
G1 X95.354 Y74.335 E206.218
G1 X94.828 Y74.449 E206.245
G1 X94.721 Y74.561 E206.253
G1 X94.585 Y74.929 E206.272
G1 X93.611 Y75.492 E206.328
G1 X93.447 Y75.424 E206.337
G1 X91.642 Y76.469 E206.441
;rapid-leaky
G1 F236
G0 X92.879 Y77.096
;bead-skirt/brim
G1 X100.602 Y72.627 F780 E206.886
G1 X100.639 Y78.923 E207.201
G1 X98.343 Y80.256 E207.333
G1 X92.879 Y77.096 E207.648
;rapid-leaky
G1 F236
G0 X93.678 Y77.095
;bead-skirt/brim
G1 X100.206 Y73.319 F780 E208.024
G1 X100.237 Y78.693 E208.292
G1 X98.343 Y79.793 E208.402
G1 X93.678 Y77.095 E208.67
;rapid-leaky
G1 F236
G0 X94.477
;bead-skirt/brim
G1 X99.81 Y74.01 F780 E208.978
G1 X99.836 Y78.464 E209.2
G1 X98.343 Y79.331 E209.286
G1 X94.477 Y77.095 E209.509
;rapid-leaky
G1 F236
G0 X92.193 Y75.687
;bead-skirt/brim
G1 X92.605 Y73.459 F780 E209.622
G1 X91.735 Y73.181 E209.668
G1 X90.651 Y73.809 E209.73
G1 X88.954 Y72.496 E209.837
G1 X89.823 Y71.993 E209.887
G1 X89.72 Y71.889 E209.895
G1 X95.278 Y68.671 E210.215
G1 X95.313 Y68.814 E210.222
G1 X96.164 Y68.321 E210.271
G1 X96.404 Y70.477 E210.38
G1 X95.214 Y71.166 E210.448
G1 Y72.042 E210.492
G1 X97.204 Y72.786 E210.598
G1 X96.027 Y73.468 E210.666
G1 X95.946 Y73.956 E210.69
G1 X95.318 Y73.933 E210.722
G1 X94.623 Y74.084 E210.757
G1 X94.375 Y74.345 E210.775
G1 X94.26 Y74.655 E210.792
G1 X93.583 Y75.047 E210.831
G1 X93.419 Y74.978 E210.84
G1 X92.193 Y75.687 E210.91
;rapid-leaky
G1 F236
G0 X92.745 Y74.906
;bead-skirt/brim
G1 X93.062 Y73.186 F780 E210.998
G1 X91.688 Y72.746 E211.07
G1 X90.683 Y73.328 E211.127
G1 X89.67 Y72.544 E211.191
G1 X90.468 Y72.082 E211.237
G1 X90.366 Y71.977 E211.245
G1 X95.018 Y69.284 E211.513
G1 X95.053 Y69.426 E211.52
G1 X95.834 Y68.974 E211.565
G1 X95.978 Y70.262 E211.63
G1 X94.814 Y70.935 E211.697
G1 Y72.32 E211.766
G1 X96.27 Y72.865 E211.844
G1 X95.663 Y73.216 E211.879
G1 X95.609 Y73.544 E211.895
G1 X95.282 Y73.532 E211.912
G1 X94.418 Y73.719 E211.956
G1 X94.028 Y74.129 E211.984
G1 X93.935 Y74.381 E211.997
G1 X93.554 Y74.601 E212.019
G1 X93.39 Y74.532 E212.028
G1 X92.745 Y74.906 E212.065
G1 F1800 E202.065
;rapid-dry
G1 F236
G0 X93.327 Y74.337
G1 F1800 E212.065
;bead-support-structure
G1 X93.517 Y73.652 F2100 E212.101
G1 X93.609 Y73.403 E212.114
G1 X93.955 Y72.838 E212.147
G1 X94.633 Y72.863 E212.181
G1 X95.498 Y73.08 E212.225
G1 F1800 E202.225
G1 F236
G0 X94.722 Y72.885
G0 X95.498 Y73.08
;rapid-dry
G1 F236
G0 X93.063 Y71.093
G1 F1800 E212.225
;bead-support-structure
G1 X93.165 Y71.503 F2100 E212.246
G1 X92.873 Y71.203 E212.267
G1 F1800 E202.267
G1 F236
G0 X93.165 Y71.503
G0 X93.072 Y71.132
G0 X93.165 Y71.503
G0 X92.873 Y71.203
;rapid-dry
G1 F236
G0 X73.92 Y82.178
G1 F1800 E212.267
;bead-support-structure
G1 X74.15 Y83.066 F2100 E212.313
G1 X73.495 Y82.424 E212.359
G1 F1800 E202.359
G1 F236
G0 X74.066 Y82.984
G0 X73.495 Y82.424
;rapid-dry
G1 F236
G0 X74.046 Y85.474
G1 F1800 E212.359
;bead-support-structure
G1 X74.246 Y84.728 F2100 E212.397
G1 X74.32 Y84.51 E212.409
G1 X74.646 Y83.92 E212.442
G1 X75.278 Y83.932 E212.474
G1 X75.644 Y84.005 E212.493
G1 X76.279 Y84.192 E212.526
G1 F1800 E202.526
G1 F236
G0 X75.644 Y84.005
G0 X75.509 Y83.978
G0 X75.644 Y84.005
G0 X76.279 Y84.192
;rapid-dry
G1 F236
G0 X98.447 Y108.092
G1 F1800 E212.526
;bead-support-structure
G1 X98.634 Y108.301 F2100 E212.54
G1 X99.623 Y108.092 E212.59
G1 X100.04 Y107.969 E212.612
G1 X101.06 Y107.555 E212.667
G1 F1800 E202.667
G1 F236
G0 X100.318 Y107.856
G0 X101.06 Y107.555
;rapid-dry
G1 F236
G0 X99.338 Y108.207
G1 F1800 E212.667
;bead-support-structure
G1 X100.386 Y107.84 F2100 E212.722
G1 X100.758 Y107.674 E212.742
G1 X101.114 Y107.484 E212.762
G1 X101.455 Y107.272 E212.783
G1 X101.786 Y107.032 E212.803
G1 X102.643 Y106.292 E212.859
G1 F1800 E202.859
G1 F236
G0 X102.037 Y106.815
G0 X102.643 Y106.292
;rapid-dry
G1 F236
G0 X102.986 Y105.475
G1 F1800 E212.859
;bead-support-structure
G1 X103.071 Y105.733 F2100 E212.873
G1 X102.387 Y106.496 E212.924
G1 X102.082 Y106.787 E212.945
G1 X101.776 Y107.039 E212.965
G1 X101.211 Y107.448 E213
G1 X111.683 Y116.402 E213.687
G1 X111.803 Y116.427 E213.693
G1 X111.95 Y116.886 E213.717
G1 X112.077 Y116.912 E213.724
G1 X111.747 Y119.633 E213.86
G1 X112.184 Y119.665 E213.882
G1 X111.417 Y120.204 E213.929
G1 X111.894 Y120.166 E213.953
G1 X110.7 Y121.445 E214.04
G1 X111.235 Y121.304 E214.068
G1 X110.468 Y122.228 E214.128
G1 X110.259 Y122.568 E214.148
G1 X110.024 Y122.793 E214.164
G1 X110.197 Y126.629 E214.356
G1 X112.156 E214.453
G1 X113.14 Y124.92 E214.552
G1 F1800 E204.552
G1 F236
G0 X112.741 Y125.613
G0 X113.14 Y124.92
;rapid-dry
G1 F236
G0 X150.652 Y104.748
G1 F1800 E214.552
;bead-support-structure
G1 X149.707 Y104.448 F2100 E214.601
G1 X150.652 Y104.133 E214.651
G1 F1800 E204.651
G1 F236
G0 X149.893 Y104.386
G0 X150.652 Y104.133
;rapid-dry
G1 F236
G0 X147.712 Y105.747
G1 F1800 E214.651
;bead-support-structure
G1 X148.019 Y105.463 F2100 E214.672
G1 X148.373 Y105.102 E214.697
G1 X148.843 Y104.436 E214.738
G1 X148.321 Y103.739 E214.781
G1 X147.71 Y103.133 E214.824
G1 F1800 E204.824
G1 F236
G0 X148.278 Y103.697
G0 X147.71 Y103.133
;rapid-dry
G1 F236
G0 X102.533 Y104.162
G1 F1800 E214.824
;bead-support-structure
G1 X102.835 Y104.251 F2100 E214.84
G1 X97.291 Y106.451 E215.137
G1 X97.277 Y106.513 E215.14
G1 X97.365 Y108.091 E215.219
G1 X97.28 Y108.277 E215.229
G1 X97.499 E215.24
G1 X97.096 Y109.873 E215.323
G1 X96.966 Y110.243 E215.342
G1 X106.829 Y122.958 E216.145
G1 X106.683 Y123.146 E216.157
G1 X106.699 Y123.169 E216.158
G1 X107.325 E216.189
G1 X107.372 Y123.11 E216.193
G1 X107.433 Y123.169 E216.197
G1 X105.455 Y125.457 E216.348
G1 X105.645 Y124.857 E216.38
G1 X105.89 Y123.169 E216.465
G1 X106.083 Y122.77 E216.487
G1 F1800 E206.487
G1 F236
G0 X105.89 Y123.169
G0 X105.839 Y123.522
G0 X105.89 Y123.169
G0 X106.083 Y122.77
;rapid-dry
G1 F236
G0 X76.21 Y147
G1 F1800 E216.487
;bead-support-structure
G1 X75.379 Y147.201 F2100 E216.53
G1 X75.103 Y147.221 E216.543
G1 X74.665 Y147.169 E216.565
G1 X74.368 Y146.75 E216.591
G1 X74.275 Y146.538 E216.603
G1 X74.146 Y146.119 E216.625
G1 X74.053 Y145.751 E216.643
G1 F1800 E206.643
G1 F236
G0 X74.146 Y146.119
G0 X74.27 Y146.521
G0 X74.146 Y146.119
G0 X74.053 Y145.751
;rapid-dry
G1 F236
G0 X74.042 Y148.459
G1 F1800 E216.643
;bead-support-structure
G1 X73.636 Y148.907 F2100 E216.674
G1 F1800 E206.674
G1 F236
G0 X74.042 Y148.459
G0 X73.636 Y148.907
;Layer : 2 of 179
M106 S255
;rapid-dry
G1 F236
G0 Z0.5
G1 F1800 E216.674
;bead-support-structure
G1 X74.042 Y148.459 F606 E216.689
G1 F1800 E206.689
G1 F236
G0 X73.636 Y148.907
G0 X74.042 Y148.459
;rapid-dry
G1 F236
G0 X76.21 Y147
G1 F1800 E216.689
;bead-support-structure
G1 X75.379 Y147.201 F606 E216.71
G1 X75.103 Y147.221 E216.717
G1 X74.665 Y147.169 E216.728
G1 X74.368 Y146.75 E216.741
G1 X74.275 Y146.538 E216.746
G1 X74.146 Y146.119 E216.757
G1 X74.053 Y145.751 E216.767
G1 F1800 E206.767
G1 F236
G0 X74.146 Y146.119
G0 X74.27 Y146.521
G0 X74.146 Y146.119
G0 X74.053 Y145.751
;rapid-dry
G1 F236
G0 X74.046 Y85.474
G1 F1800 E216.767
;bead-support-structure
G1 X74.246 Y84.728 F606 E216.786
G1 X74.32 Y84.51 E216.792
G1 X74.646 Y83.92 E216.809
G1 X75.278 Y83.932 E216.824
G1 X75.644 Y84.005 E216.834
G1 X76.279 Y84.192 E216.85
G1 F1800 E206.85
G1 F236
G0 X75.644 Y84.005
G0 X75.509 Y83.978
G0 X75.644 Y84.005
G0 X76.279 Y84.192
;rapid-dry
G1 F236
G0 X73.495 Y82.424
G1 F1800 E216.85
;bead-support-structure
G1 X74.15 Y83.066 F606 E216.873
G1 X73.92 Y82.178 E216.896
G1 F1800 E206.896
G1 F236
G0 X74.12 Y82.952
G0 X73.92 Y82.178
;rapid-dry
G1 F236
G0 X92.873 Y71.203
G1 F1800 E216.896
;bead-support-structure
G1 X93.165 Y71.503 F606 E216.906
G1 X93.063 Y71.093 E216.917
G1 F1800 E206.917
G1 F236
G0 X93.165 Y71.503
G0 X92.901 Y71.232
G0 X93.165 Y71.503
G0 X93.063 Y71.093
;rapid-dry
G1 F236
G0 X95.498 Y73.08
G1 F1800 E216.917
;bead-support-structure
G1 X94.633 Y72.863 F606 E216.939
G1 X93.955 Y72.838 E216.956
G1 X93.609 Y73.403 E216.973
G1 X93.517 Y73.652 E216.979
G1 X93.327 Y74.337 E216.997
G1 F1800 E206.997
G1 F236
G0 X93.517 Y73.652
G0 X93.548 Y73.568
G0 X93.517 Y73.652
G0 X93.327 Y74.337
;rapid-dry
G1 F236
G0 X102.533 Y104.162
G1 F1800 E216.997
;bead-support-structure
G1 X102.835 Y104.251 F606 E217.005
G1 X97.291 Y106.451 E217.154
G1 X97.277 Y106.513 E217.155
G1 X97.365 Y108.091 E217.195
G1 X97.28 Y108.277 E217.2
G1 X97.499 E217.205
G1 X97.096 Y109.873 E217.246
G1 X96.966 Y110.243 E217.256
G1 X106.829 Y122.958 E217.658
G1 X106.683 Y123.146 E217.663
G1 X106.699 Y123.169 E217.664
G1 X107.325 E217.68
G1 X107.372 Y123.11 E217.682
G1 X107.433 Y123.169 E217.684
G1 X105.455 Y125.457 E217.759
G1 X105.645 Y124.857 E217.775
G1 X105.89 Y123.169 E217.818
G1 X106.083 Y122.77 E217.829
G1 F1800 E207.829
G1 F236
G0 X105.89 Y123.169
G0 X105.839 Y123.522
G0 X105.89 Y123.169
G0 X106.083 Y122.77
;rapid-dry
G1 F236
G0 X113.14 Y124.92
G1 F1800 E217.829
;bead-support-structure
G1 X112.156 Y126.629 F606 E217.878
G1 X110.197 E217.927
G1 X110.024 Y122.793 E218.022
G1 X110.259 Y122.568 E218.031
G1 X110.468 Y122.228 E218.04
G1 X111.235 Y121.304 E218.07
G1 X110.7 Y121.445 E218.084
G1 X111.894 Y120.166 E218.128
G1 X111.417 Y120.204 E218.14
G1 X112.184 Y119.665 E218.163
G1 X111.747 Y119.633 E218.174
G1 X112.077 Y116.912 E218.243
G1 X111.95 Y116.886 E218.246
G1 X111.803 Y116.427 E218.258
G1 X111.683 Y116.402 E218.261
G1 X101.211 Y107.448 E218.605
G1 X101.776 Y107.039 E218.622
G1 X102.082 Y106.787 E218.632
G1 X102.387 Y106.496 E218.642
G1 X103.071 Y105.733 E218.668
G1 X102.986 Y105.475 E218.675
G1 F1800 E208.675
G1 F236
G0 X103.071 Y105.733
G0 X102.718 Y106.127
G0 X103.071 Y105.733
G0 X102.986 Y105.475
;rapid-dry
G1 F236
G0 X102.643 Y106.292
G1 F1800 E218.675
;bead-support-structure
G1 X101.786 Y107.032 F606 E218.703
G1 X101.455 Y107.272 E218.713
G1 X101.114 Y107.484 E218.723
G1 X100.758 Y107.674 E218.733
G1 X100.386 Y107.84 E218.743
G1 X99.338 Y108.207 E218.771
G1 F1800 E208.771
G1 F236
G0 X100.093 Y107.942
G0 X99.338 Y108.207
;rapid-dry
G1 F236
G0 X98.447 Y108.092
G1 F1800 E218.771
;bead-support-structure
G1 X98.634 Y108.301 F606 E218.778
G1 X99.623 Y108.092 E218.803
G1 X100.04 Y107.969 E218.814
G1 X101.06 Y107.555 E218.842
G1 F1800 E208.842
G1 F236
G0 X100.318 Y107.856
G0 X101.06 Y107.555
;rapid-dry
G1 F236
G0 X142.77 Y102.939 Z0.7
G1 F1800 E218.842
;bead-perimeter_outer
G1 X143.014 Y102.798 F300 E218.851
G1 Y103.08 E218.86
G1 X142.77 Y102.939 E218.87
G1 F1800 E208.87
;rapid-dry
G1 F236
G0 X147.71 Y103.133 Z0.5
G1 F1800 E218.87
;bead-support-structure
G1 X148.321 Y103.739 F606 E218.891
G1 X148.843 Y104.436 E218.913
G1 X148.373 Y105.102 E218.933
G1 X148.019 Y105.463 E218.946
G1 X147.712 Y105.747 E218.956
G1 F1800 E208.956
G1 F236
G0 X148.019 Y105.463
G0 X148.286 Y105.19
G0 X148.019 Y105.463
G0 X147.712 Y105.747
;rapid-dry
G1 F236
G0 X150.652 Y104.748
G1 F1800 E218.956
;bead-support-structure
G1 X149.707 Y104.448 F606 E218.981
G1 X150.652 Y104.133 E219.006
G1 F1800 E209.006
G1 F236
G0 X149.893 Y104.386
G0 X150.652 Y104.133
;Layer : 3 of 179
;rapid-dry
G1 F236
G0 Z0.7
G1 F1800 E219.006
;bead-support-structure
G1 X149.707 Y104.448 F711 E219.031
G1 X150.652 Y104.748 E219.055
G1 F1800 E209.055
G1 F236
G0 X149.89 Y104.506
G0 X150.652 Y104.748
;rapid-dry
G1 F236
G0 X147.712 Y105.747
G1 F1800 E219.055
;bead-support-structure
G1 X148.019 Y105.463 F711 E219.066
G1 X148.373 Y105.102 E219.078
G1 X148.843 Y104.436 E219.099
G1 X148.321 Y103.739 E219.121
G1 X147.71 Y103.133 E219.142
G1 F1800 E209.142
G1 F236
G0 X148.278 Y103.697
G0 X147.71 Y103.133
;rapid-dry
G1 F236
G0 X143.156 Y103.326
G1 F1800 E219.142
;bead-perimeter_outer
G1 X142.488 Y102.939 F300 E219.168
G1 X143.156 Y102.552 E219.193
G1 Y103.326 E219.219
G1 F1800 E209.219
;rapid-dry
G1 F236
G0 X113.14 Y124.92
G1 F1800 E219.219
;bead-support-structure
G1 X112.156 Y126.629 F711 E219.268
G1 X110.197 E219.317
G1 X110.024 Y122.793 E219.413
G1 X110.259 Y122.568 E219.421
G1 X110.468 Y122.228 E219.431
G1 X111.235 Y121.304 E219.461
G1 X110.7 Y121.445 E219.475
G1 X111.894 Y120.166 E219.518
G1 X111.417 Y120.204 E219.53
G1 X112.184 Y119.665 E219.554
G1 X111.747 Y119.633 E219.565
G1 X112.077 Y116.912 E219.633
G1 X111.95 Y116.886 E219.636
G1 X111.803 Y116.427 E219.648
G1 X111.683 Y116.402 E219.651
G1 X101.211 Y107.448 E219.995
G1 X101.776 Y107.039 E220.013
G1 X102.082 Y106.787 E220.022
G1 X102.387 Y106.496 E220.033
G1 X103.071 Y105.733 E220.059
G1 X102.986 Y105.475 E220.065
G1 F1800 E210.065
G1 F236
G0 X103.071 Y105.733
G0 X102.718 Y106.127
G0 X103.071 Y105.733
G0 X102.986 Y105.475
;rapid-dry
G1 F236
G0 X102.643 Y106.292
G1 F1800 E220.065
;bead-support-structure
G1 X101.786 Y107.032 F711 E220.094
G1 X101.455 Y107.272 E220.104
G1 X101.114 Y107.484 E220.114
G1 X100.758 Y107.674 E220.124
G1 X100.386 Y107.84 E220.134
G1 X99.338 Y108.207 E220.162
G1 F1800 E210.162
G1 F236
G0 X100.093 Y107.942
G0 X99.338 Y108.207
;rapid-dry
G1 F236
G0 X98.447 Y108.092
G1 F1800 E220.162
;bead-support-structure
G1 X98.634 Y108.301 F711 E220.169
G1 X99.623 Y108.092 E220.194
G1 X100.04 Y107.969 E220.205
G1 X101.06 Y107.555 E220.232
G1 F1800 E210.232
G1 F236
G0 X100.318 Y107.856
G0 X101.06 Y107.555
;rapid-dry
G1 F236
G0 X102.533 Y104.162
G1 F1800 E220.232
;bead-support-structure
G1 X102.835 Y104.251 F711 E220.24
G1 X97.291 Y106.451 E220.389
G1 X97.277 Y106.513 E220.39
G1 X97.365 Y108.091 E220.43
G1 X97.28 Y108.277 E220.435
G1 X97.499 E220.44
G1 X97.096 Y109.873 E220.481
G1 X96.966 Y110.243 E220.491
G1 X106.829 Y122.958 E220.893
G1 X106.683 Y123.146 E220.899
G1 X106.699 Y123.169
G1 X107.325 E220.915
G1 X107.372 Y123.11 E220.917
G1 X107.433 Y123.169 E220.919
G1 X105.455 Y125.457 E220.994
G1 X105.645 Y124.857 E221.01
G1 X105.89 Y123.169 E221.053
G1 X106.083 Y122.77 E221.064
G1 F1800 E211.064
G1 F236
G0 X105.89 Y123.169
G0 X105.839 Y123.522
G0 X105.89 Y123.169
G0 X106.083 Y122.77
;rapid-dry
G1 F236
G0 X74.042 Y148.459
G1 F1800 E221.064
;bead-support-structure
G1 X73.636 Y148.907 F711 E221.079
G1 F1800 E211.079
G1 F236
G0 X74.042 Y148.459
G0 X73.636 Y148.907
;rapid-dry
G1 F236
G0 X76.21 Y147
G1 F1800 E221.079
;bead-support-structure
G1 X75.379 Y147.201 F711 E221.1
G1 X75.103 Y147.221 E221.107
G1 X74.665 Y147.169 E221.118
G1 X74.368 Y146.75 E221.131
G1 X74.275 Y146.538 E221.137
G1 X74.146 Y146.119 E221.148
G1 X74.053 Y145.751 E221.157
G1 F1800 E211.157
G1 F236
G0 X74.146 Y146.119
G0 X74.27 Y146.521
G0 X74.146 Y146.119
G0 X74.053 Y145.751
;rapid-dry
G1 F236
G0 X76.328 Y141.245 Z0.9
G1 F1800 E221.157
;bead-perimeter_outer
G1 X76.329 Y141.689 F300 E221.172
G1 X75.945 Y141.467 E221.187
G1 X76.328 Y141.245 E221.201
G1 F1800 E211.201
;rapid-dry
G1 F236
G0 Y89.781
G1 F1800 E221.201
;bead-perimeter_outer
G1 X76.138 Y89.669 F300 E221.209
G1 X76.328 Y89.559 E221.216
G1 Y89.781 E221.223
G1 F1800 E211.223
;rapid-dry
G1 F236
G0 X74.046 Y85.474 Z0.7
G1 F1800 E221.223
;bead-support-structure
G1 X74.246 Y84.728 F711 E221.243
G1 X74.32 Y84.51 E221.248
G1 X74.646 Y83.92 E221.265
G1 X75.278 Y83.932 E221.281
G1 X75.644 Y84.005 E221.29
G1 X76.279 Y84.192 E221.307
G1 F1800 E211.307
G1 F236
G0 X75.644 Y84.005
G0 X75.509 Y83.978
G0 X75.644 Y84.005
G0 X76.279 Y84.192
;rapid-dry
G1 F236
G0 X73.495 Y82.424
G1 F1800 E221.307
;bead-support-structure
G1 X74.15 Y83.066 F711 E221.33
G1 X73.92 Y82.178 E221.352
G1 F1800 E211.352
G1 F236
G0 X74.12 Y82.952
G0 X73.92 Y82.178
;rapid-dry
G1 F236
G0 X92.873 Y71.203
G1 F1800 E221.352
;bead-support-structure
G1 X93.165 Y71.503 F711 E221.363
G1 X93.063 Y71.093 E221.373
G1 F1800 E211.373
G1 F236
G0 X93.165 Y71.503
G0 X92.901 Y71.232
G0 X93.165 Y71.503
G0 X93.063 Y71.093
;rapid-dry
G1 F236
G0 X93.327 Y74.337
G1 F1800 E221.373
;bead-support-structure
G1 X93.517 Y73.652 F711 E221.391
G1 X93.609 Y73.403 E221.398
G1 X93.955 Y72.838 E221.414
G1 X94.633 Y72.863 E221.431
G1 X95.498 Y73.08 E221.453
G1 F1800 E211.453
G1 F236
G0 X94.722 Y72.885
G0 X95.498 Y73.08
;rapid-dry
G1 F236
G0 X97.854 Y77.096 Z0.9
G1 F1800 E221.453
;bead-perimeter_outer
G1 X98.137 Y76.932 F300 E221.464
G1 X98.139 Y77.261 E221.475
G1 X97.854 Y77.096 E221.486
G1 F1800 E211.486
;Layer : 4 of 179
;rapid-leaky
G1 F236
G0 X97.572 Z1.1
G0 Z0.9
G1 F1800 E221.486
;bead-perimeter_outer
G1 X98.28 Y76.686 F300 E221.514
G1 X98.283 Y77.508 E221.541
G1 X97.572 Y77.096 E221.568
G1 F1800 E211.568
;rapid-dry
G1 F236
G0 X95.498 Y73.08
G1 F1800 E221.568
;bead-support-structure
G1 X94.633 Y72.863 F848 E221.59
G1 X93.955 Y72.838 E221.607
G1 X93.609 Y73.403 E221.624
G1 X93.517 Y73.652 E221.631
G1 X93.327 Y74.337 E221.648
G1 F1800 E211.648
G1 F236
G0 X93.517 Y73.652
G0 X93.548 Y73.568
G0 X93.517 Y73.652
G0 X93.327 Y74.337
;rapid-dry
G1 F236
G0 X93.063 Y71.093
G1 F1800 E221.648
;bead-support-structure
G1 X93.165 Y71.503 F848 E221.659
G1 X92.873 Y71.203 E221.669
G1 F1800 E211.669
G1 F236
G0 X93.165 Y71.503
G0 X93.072 Y71.132
G0 X93.165 Y71.503
G0 X92.873 Y71.203
;rapid-dry
G1 F236
G0 X73.92 Y82.178
G1 F1800 E221.669
;bead-support-structure
G1 X74.15 Y83.066 F848 E221.692
G1 X73.495 Y82.424 E221.715
G1 F1800 E211.715
G1 F236
G0 X74.066 Y82.984
G0 X73.495 Y82.424
;rapid-dry
G1 F236
G0 X76.279 Y84.192
G1 F1800 E221.715
;bead-support-structure
G1 X75.644 Y84.005 F848 E221.731
G1 X75.278 Y83.932 E221.741
G1 X74.646 Y83.92 E221.757
G1 X74.32 Y84.51 E221.773
G1 X74.246 Y84.728 E221.779
G1 X74.046 Y85.474 E221.798
G1 F1800 E211.798
G1 F236
G0 X74.246 Y84.728
G0 X74.254 Y84.702
G0 X74.246 Y84.728
G0 X74.046 Y85.474
;rapid-dry
G1 F236
G0 X76.47 Y89.313
G1 F1800 E221.798
;bead-perimeter_outer
G1 Y90.029 F300 E221.822
G1 X75.856 Y89.669 E221.846
G1 X76.47 Y89.313 E221.869
G1 F1800 E211.869
;rapid-dry
G1 F236
G0 X98.447 Y108.092
G1 F1800 E221.869
;bead-support-structure
G1 X98.634 Y108.301 F848 E221.876
G1 X99.623 Y108.092 E221.902
G1 X100.04 Y107.969 E221.913
G1 X101.06 Y107.555 E221.94
G1 F1800 E211.94
G1 F236
G0 X100.318 Y107.856
G0 X101.06 Y107.555
;rapid-dry
G1 F236
G0 X99.338 Y108.207
G1 F1800 E221.94
;bead-support-structure
G1 X100.386 Y107.84 F848 E221.968
G1 X100.758 Y107.674 E221.978
G1 X101.114 Y107.484 E221.988
G1 X101.455 Y107.272 E221.998
G1 X101.786 Y107.032 E222.008
G1 X102.643 Y106.292 E222.036
G1 F1800 E212.036
G1 F236
G0 X102.037 Y106.815
G0 X102.643 Y106.292
;rapid-dry
G1 F236
G0 X102.986 Y105.475
G1 F1800 E222.036
;bead-support-structure
G1 X103.071 Y105.733 F848 E222.043
G1 X102.387 Y106.496 E222.069
G1 X102.082 Y106.787 E222.079
G1 X101.776 Y107.039 E222.089
G1 X101.211 Y107.448 E222.106
G1 X111.683 Y116.402 E222.45
G1 X111.803 Y116.427 E222.453
G1 X111.95 Y116.886 E222.465
G1 X112.077 Y116.912 E222.468
G1 X111.747 Y119.633 E222.537
G1 X112.184 Y119.665 E222.548
G1 X111.417 Y120.204 E222.571
G1 X111.894 Y120.166 E222.583
G1 X110.7 Y121.445 E222.627
G1 X111.235 Y121.304 E222.641
G1 X110.468 Y122.228 E222.671
G1 X110.259 Y122.568 E222.681
G1 X110.024 Y122.793 E222.689
G1 X110.197 Y126.629 E222.784
G1 X112.156 E222.833
G1 X113.14 Y124.92 E222.882
G1 F1800 E212.882
G1 F236
G0 X112.741 Y125.613
G0 X113.14 Y124.92
;rapid-dry
G1 F236
G0 X150.652 Y104.748
G1 F1800 E222.882
;bead-support-structure
G1 X149.707 Y104.448 F848 E222.907
G1 X150.652 Y104.133 E222.932
G1 F1800 E212.932
G1 F236
G0 X149.893 Y104.386
G0 X150.652 Y104.133
;rapid-dry
G1 F236
G0 X147.712 Y105.747
G1 F1800 E222.932
;bead-support-structure
G1 X148.019 Y105.463 F848 E222.942
G1 X148.373 Y105.102 E222.955
G1 X148.843 Y104.436 E222.975
G1 X148.321 Y103.739 E222.997
G1 X147.71 Y103.133 E223.019
G1 F1800 E213.019
G1 F236
G0 X148.278 Y103.697
G0 X147.71 Y103.133
;rapid-dry
G1 F236
G0 X142.206 Y102.939
G1 F1800 E223.019
;bead-perimeter_outer
G1 X143.298 Y102.307 F300 E223.061
G1 Y103.571 E223.103
G1 X142.206 Y102.939 E223.145
G1 F1800 E213.145
;rapid-dry
G1 F236
G0 X102.533 Y104.162
G1 F1800 E223.145
;bead-support-structure
G1 X102.835 Y104.251 F848 E223.152
G1 X97.291 Y106.451 E223.301
G1 X97.277 Y106.513 E223.303
G1 X97.365 Y108.091 E223.342
G1 X97.28 Y108.277 E223.347
G1 X97.499 E223.353
G1 X97.096 Y109.873 E223.394
G1 X96.966 Y110.243 E223.404
G1 X106.829 Y122.958 E223.805
G1 X106.683 Y123.146 E223.811
G1 X106.699 Y123.169 E223.812
G1 X107.325 E223.827
G1 X107.372 Y123.11 E223.829
G1 X107.433 Y123.169 E223.831
G1 X105.455 Y125.457 E223.907
G1 X105.645 Y124.857 E223.923
G1 X105.89 Y123.169 E223.965
G1 X106.083 Y122.77 E223.976
G1 F1800 E213.976
G1 F236
G0 X105.89 Y123.169
G0 X105.839 Y123.522
G0 X105.89 Y123.169
G0 X106.083 Y122.77
;rapid-dry
G1 F236
G0 X76.471 Y141
G1 F1800 E223.976
;bead-perimeter_outer
G1 Y141.934 F300 E224.007
G1 X75.663 Y141.467 E224.038
G1 X76.471 Y141 E224.069
G1 F1800 E214.069
;rapid-dry
G1 F236
G0 X74.053 Y145.751
G1 F1800 E224.069
;bead-support-structure
G1 X74.146 Y146.119 F848 E224.079
G1 X74.275 Y146.538 E224.09
G1 X74.368 Y146.75 E224.095
G1 X74.665 Y147.169 E224.108
G1 X75.103 Y147.221 E224.119
G1 X75.379 Y147.201 E224.126
G1 X76.21 Y147 E224.148
G1 F1800 E214.148
G1 F236
G0 X75.432 Y147.188
G0 X76.21 Y147
;rapid-dry
G1 F236
G0 X74.042 Y148.459
G1 F1800 E224.148
;bead-support-structure
G1 X73.636 Y148.907 F848 E224.163
G1 F1800 E214.163
G1 F236
G0 X74.042 Y148.459
G0 X73.636 Y148.907
;Layer : 5 of 179
;rapid-dry
G1 F236
G0 Z1.1
G1 F1800 E224.163
;bead-support-structure
G1 X74.042 Y148.459 F1021 E224.178
G1 F1800 E214.178
G1 F236
G0 X73.636 Y148.907
G0 X74.042 Y148.459
;rapid-dry
G1 F236
G0 X76.21 Y147
G1 F1800 E224.178
;bead-support-structure
G1 X75.379 Y147.201 F1021 E224.199
G1 X75.103 Y147.221 E224.206
G1 X74.665 Y147.169 E224.217
G1 X74.368 Y146.75 E224.23
G1 X74.275 Y146.538 E224.235
G1 X74.146 Y146.119 E224.246
G1 X74.053 Y145.751 E224.256
G1 F1800 E214.256
G1 F236
G0 X74.146 Y146.119
G0 X74.27 Y146.521
G0 X74.146 Y146.119
G0 X74.053 Y145.751
;rapid-dry
G1 F236
G0 X76.248 Y141.547
G1 F1800 E224.256
;bead-perimeter_inner
G1 X76.11 Y141.467 F379 E224.261
G1 X76.248 Y141.387 E224.266
G1 Y141.547 E224.272
;rapid-leaky
G1 F236
G0 X76.613 Y142.18
;bead-perimeter_outer
G1 X75.382 Y141.467 F300 E224.319
G1 X76.613 Y140.754 E224.366
G1 Y142.18 E224.414
G1 F1800 E214.414
;rapid-dry
G1 F236
G0 X98.447 Y108.092
G1 F1800 E224.414
;bead-support-structure
G1 X98.634 Y108.301 F1021 E224.421
G1 X99.623 Y108.092 E224.446
G1 X100.04 Y107.969 E224.457
G1 X101.06 Y107.555 E224.484
G1 F1800 E214.484
G1 F236
G0 X100.318 Y107.856
G0 X101.06 Y107.555
;rapid-dry
G1 F236
G0 X99.338 Y108.207
G1 F1800 E224.484
;bead-support-structure
G1 X100.386 Y107.84 F1021 E224.512
G1 X100.758 Y107.674 E224.522
G1 X101.114 Y107.484 E224.532
G1 X101.455 Y107.272 E224.542
G1 X101.786 Y107.032 E224.553
G1 X102.643 Y106.292 E224.581
G1 F1800 E214.581
G1 F236
G0 X102.037 Y106.815
G0 X102.643 Y106.292
;rapid-dry
G1 F236
G0 X102.986 Y105.475
G1 F1800 E224.581
;bead-support-structure
G1 X103.071 Y105.733 F1021 E224.588
G1 X102.387 Y106.496 E224.613
G1 X102.082 Y106.787 E224.624
G1 X101.776 Y107.039 E224.633
G1 X101.211 Y107.448 E224.651
G1 X111.683 Y116.402 E224.995
G1 X111.803 Y116.427 E224.998
G1 X111.95 Y116.886 E225.01
G1 X112.077 Y116.912 E225.013
G1 X111.747 Y119.633 E225.081
G1 X112.184 Y119.665 E225.092
G1 X111.417 Y120.204 E225.116
G1 X111.894 Y120.166 E225.128
G1 X110.7 Y121.445 E225.171
G1 X111.235 Y121.304 E225.185
G1 X110.468 Y122.228 E225.215
G1 X110.259 Y122.568 E225.225
G1 X110.024 Y122.793 E225.233
G1 X110.197 Y126.629 E225.329
G1 X112.156 E225.378
G1 X113.14 Y124.92 E225.427
G1 F1800 E215.427
G1 F236
G0 X112.741 Y125.613
G0 X113.14 Y124.92
;rapid-dry
G1 F236
G0 X106.083 Y122.77
G1 F1800 E225.427
;bead-support-structure
G1 X105.89 Y123.169 F1021 E225.438
G1 X105.645 Y124.857 E225.48
G1 X105.455 Y125.457 E225.496
G1 X107.433 Y123.169 E225.572
G1 X107.372 Y123.11 E225.574
G1 X107.325 Y123.169 E225.576
G1 X106.699 E225.591
G1 X106.683 Y123.146 E225.592
G1 X106.829 Y122.958 E225.598
G1 X96.966 Y110.243 E225.999
G1 X97.096 Y109.873 E226.009
G1 X97.499 Y108.277 E226.05
G1 X97.28 E226.056
G1 X97.365 Y108.091 E226.061
G1 X97.277 Y106.513 E226.1
G1 X97.291 Y106.451 E226.102
G1 X102.835 Y104.251 E226.251
G1 X102.533 Y104.162 E226.258
G1 F1800 E216.258
G1 F236
G0 X102.835 Y104.251
G0 X102.385 Y104.43
G0 X102.835 Y104.251
G0 X102.533 Y104.162
;rapid-dry
G1 F236
G0 X98.06 Y77.12
G1 F1800 E226.258
;bead-perimeter_inner
G1 X98.019 Y77.096 F379 E226.26
G1 X98.06 Y77.072 E226.262
G1 Y77.12 E226.263
;rapid-leaky
G1 F236
G0 X98.428 Y77.755
;bead-perimeter_outer
G1 X97.29 Y77.096 F300 E226.307
G1 X98.422 Y76.441 E226.35
G1 X98.428 Y77.755 E226.394
G1 F1800 E216.394
;rapid-dry
G1 F236
G0 X95.498 Y73.08
G1 F1800 E226.394
;bead-support-structure
G1 X94.633 Y72.863 F1021 E226.416
G1 X93.955 Y72.838 E226.433
G1 X93.609 Y73.403 E226.45
G1 X93.517 Y73.652 E226.456
G1 X93.327 Y74.337 E226.474
G1 F1800 E216.474
G1 F236
G0 X93.517 Y73.652
G0 X93.548 Y73.568
G0 X93.517 Y73.652
G0 X93.327 Y74.337
;rapid-dry
G1 F236
G0 X93.063 Y71.093
G1 F1800 E226.474
;bead-support-structure
G1 X93.165 Y71.503 F1021 E226.485
G1 X92.873 Y71.203 E226.495
G1 F1800 E216.495
G1 F236
G0 X93.165 Y71.503
G0 X93.072 Y71.132
G0 X93.165 Y71.503
G0 X92.873 Y71.203
;rapid-dry
G1 F236
G0 X73.92 Y82.178
G1 F1800 E226.495
;bead-support-structure
G1 X74.15 Y83.066 F1021 E226.518
G1 X73.495 Y82.424 E226.541
G1 F1800 E216.541
G1 F236
G0 X74.066 Y82.984
G0 X73.495 Y82.424
;rapid-dry
G1 F236
G0 X76.279 Y84.192
G1 F1800 E226.541
;bead-support-structure
G1 X75.644 Y84.005 F1021 E226.557
G1 X75.278 Y83.932 E226.567
G1 X74.646 Y83.92 E226.582
G1 X74.32 Y84.51 E226.599
G1 X74.246 Y84.728 E226.605
G1 X74.046 Y85.474 E226.624
G1 F1800 E216.624
G1 F236
G0 X74.246 Y84.728
G0 X74.254 Y84.702
G0 X74.246 Y84.728
G0 X74.046 Y85.474
;rapid-dry
G1 F236
G0 X76.612 Y89.068
G1 F1800 E226.624
;bead-perimeter_outer
G1 Y90.277 F300 E226.664
G1 X75.575 Y89.669 E226.704
G1 X76.612 Y89.068 E226.744
G1 F1800 E216.744
;rapid-dry
G1 F236
G0 X142.653 Y102.939
G1 F1800 E226.744
;bead-perimeter_inner
G1 X143.075 Y102.695 F379 E226.761
G1 Y103.183 E226.777
G1 X142.653 Y102.939 E226.793
;rapid-leaky
G1 F236
G0 X141.925
;bead-perimeter_outer
G1 X143.44 Y102.062 F300 E226.851
G1 Y103.816 E226.91
G1 X141.925 Y102.939 E226.968
G1 F1800 E216.968
;rapid-dry
G1 F236
G0 X147.71 Y103.133
G1 F1800 E226.968
;bead-support-structure
G1 X148.321 Y103.739 F1021 E226.989
G1 X148.843 Y104.436 E227.011
G1 X148.373 Y105.102 E227.031
G1 X148.019 Y105.463 E227.044
G1 X147.712 Y105.747 E227.054
G1 F1800 E217.054
G1 F236
G0 X148.019 Y105.463
G0 X148.286 Y105.19
G0 X148.019 Y105.463
G0 X147.712 Y105.747
;rapid-dry
G1 F236
G0 X150.652 Y104.748
G1 F1800 E227.054
;bead-support-structure
G1 X149.707 Y104.448 F1021 E227.079
G1 X150.652 Y104.133 E227.104
G1 F1800 E217.104
G1 F236
G0 X149.893 Y104.386
G0 X150.652 Y104.133
;Layer : 6 of 179
;rapid-dry
G1 F236
G0 Z1.3
G1 F1800 E227.104
;bead-support-structure
G1 X149.707 Y104.448 F1253 E227.129
G1 X150.652 Y104.748 E227.154
G1 F1800 E217.154
G1 F236
G0 X149.89 Y104.506
G0 X150.652 Y104.748
;rapid-dry
G1 F236
G0 X147.712 Y105.747
G1 F1800 E227.154
;bead-support-structure
G1 X148.019 Y105.463 F1253 E227.164
G1 X148.373 Y105.102 E227.177
G1 X148.843 Y104.436 E227.197
