;1001
;Printer name: Creality Ender 3 V2
;Print time: 30m:40s
;Extruder 1 material used: 1206mm
;Extruder 1 material name: PVA 1.75mm
;Extruder 1 filament diameter: 1.75mm
;Extruder 1 nozzle diameter: 0.4mm
;Extruder 1 offset x: 0mm
;Extruder 1 offset y: 0mm
;Extruder 1 offset z: 0mm
;Extruder 1 max temp: 220
;Bed temp: 60
;Layer count: 53
;Width: 220mm
;Depth: 220mm
;Height: 250mm
;Center x: 110mm
;Center y: 110mm
;Center z: 0mm
;Count of bodies: 1
;Fusion version: 2.0.10032
;--------------------------------
;Selected Profile: PVA 1.75mm, 0.4mm Nozzle
;Selected Printer: Creality, Ender 3 V2
;--------------------------------
T0
M140 S60
M190 S60
M104 S220 T0
M105
M109 S220 T0
G1 F236
G21
G90
M82
;Reset multiplier
M220 S100
M221 S100
;Enable auto bed leveling
M420 S1 Z2
G28
G1 Z10
G92 E0
G0 X10 Y10 Z10
G92 E0
;--------------------------------
;Layer : 1 of 53
M107
;rapid-leaky
G0 X20 Y20.8 Z0.3
G1 F1800 E10
;bead-prime
G1 X200 F270 E45.921
G1 F1800 E35.921
;rapid-dry
G1 F236
G0 X124.016 Y87.881
G1 F1800 E45.921
;bead-skirt/brim
G1 Y107.887 F780 E46.919
G1 X135.482 Y119.353 E47.728
G1 X142.875 Y111.96 E48.25
G1 X150.254 Y119.339 E48.77
G1 X148.081 Y121.512 E48.924
G1 X148.993 Y122.424 E48.988
G1 X140.573 Y130.843 E49.582
G1 X139.661 Y129.931 E49.646
G1 X135.899 Y133.693 E49.912
G1 X113.241 Y111.035 E51.51
G1 Y103.438 E51.889
G1 X114.32 E51.943
G1 Y97.703 E52.229
G1 X105.791 E52.655
G1 Y103.438 E52.941
G1 X106.871 E52.995
G1 Y111.048 E53.375
G1 X84.084 Y133.565 E54.973
G1 X80.396 Y129.877 E55.233
G1 X79.483 Y130.789 E55.297
G1 X71.064 Y122.368 E55.892
G1 X71.976 Y121.456 E55.956
G1 X69.745 Y119.225 E56.113
G1 X77.126 Y111.849 E56.634
G1 X84.63 Y119.353 E57.163
G1 X96.096 Y107.887 E57.972
G1 Y87.881 E58.97
G1 X124.016 E60.363
;rapid-leaky
G1 F236
G0 X123.616 Y88.281
;bead-skirt/brim
G1 Y108.053 F780 E61.35
G1 X135.482 Y119.919 E62.187
G1 X142.875 Y112.526 E62.709
G1 X149.688 Y119.339 E63.189
G1 X147.515 Y121.512 E63.343
G1 X148.428 Y122.424 E63.407
G1 X140.573 Y130.278 E63.961
G1 X139.661 Y129.366 E64.025
G1 X135.899 Y133.127 E64.291
G1 X113.641 Y110.869 E65.861
G1 Y103.838 E66.212
G1 X114.72 E66.266
G1 Y97.303 E66.592
G1 X105.391 E67.057
G1 Y103.838 E67.383
G1 X106.471 E67.437
G1 Y110.881 E67.789
G1 X84.086 Y133.001 E69.359
G1 X80.396 Y129.311 E69.619
G1 X79.483 Y130.223 E69.684
G1 X71.63 Y122.368 E70.238
G1 X72.542 Y121.456 E70.302
G1 X70.311 Y119.225 E70.459
G1 X77.126 Y112.414 E70.94
G1 X84.63 Y119.919 E71.47
G1 X96.496 Y108.053 E72.307
G1 Y88.281 E73.293
G1 X123.616 E74.646
;rapid-leaky
G1 F236
G0 X123.216 Y88.681
;bead-skirt/brim
G1 Y108.218 F780 E75.621
G1 X135.482 Y120.484 E76.486
G1 X142.875 Y113.091 E77.008
G1 X149.123 Y119.339 E77.449
G1 X146.95 Y121.512 E77.602
G1 X147.862 Y122.424 E77.666
G1 X140.573 Y129.712 E78.181
G1 X139.661 Y128.8 E78.245
G1 X135.899 Y132.561 E78.51
G1 X114.041 Y110.704 E80.053
G1 Y104.238 E80.375
G1 X115.12 E80.429
G1 Y96.903 E80.795
G1 X104.991 E81.3
G1 Y104.238 E81.666
G1 X106.071 E81.72
G1 Y110.714 E82.043
G1 X84.087 Y132.437 E83.585
G1 X80.396 Y128.745 E83.846
G1 X79.483 Y129.657 E83.91
G1 X72.195 Y122.368 E84.424
G1 X73.108 Y121.456 E84.489
G1 X70.877 Y119.225 E84.646
G1 X77.126 Y112.98 E85.087
G1 X84.63 Y120.484 E85.616
G1 X96.896 Y108.218 E86.482
G1 Y88.681 E87.456
G1 X123.216 E88.77
;rapid-leaky
G1 F236
G0 X122.816 Y89.081
;bead-skirt/brim
G1 Y108.384 F780 E89.733
G1 X135.482 Y121.05 E90.626
G1 X142.875 Y113.657 E91.148
G1 X148.557 Y119.339 E91.549
G1 X146.384 Y121.512 E91.702
G1 X147.296 Y122.424 E91.766
G1 X140.573 Y129.146 E92.241
G1 X139.661 Y128.234 E92.305
G1 X135.899 Y131.996 E92.57
G1 X114.441 Y110.538 E94.084
G1 Y104.638 E94.379
G1 X115.52 E94.433
G1 Y96.503 E94.838
G1 X104.591 E95.384
G1 Y104.638 E95.79
G1 X105.671 E95.843
G1 Y110.547 E96.138
G1 X84.089 Y131.873 E97.652
G1 X80.396 Y128.179 E97.913
G1 X79.483 Y129.092 E97.977
G1 X72.761 Y122.368 E98.451
G1 X73.673 Y121.456 E98.516
G1 X71.443 Y119.225 E98.673
G1 X77.125 Y113.546 E99.074
G1 X84.63 Y121.05 E99.603
G1 X97.296 Y108.384 E100.497
G1 Y89.081 E101.46
G1 X122.816 E102.733
;rapid-leaky
G1 F236
G0 X122.416 Y89.481
;bead-skirt/brim
G1 Y108.55 F780 E103.685
G1 X135.482 Y121.616 E104.606
G1 X142.875 Y114.223 E105.128
G1 X147.991 Y119.339 E105.489
G1 X145.818 Y121.512 E105.642
G1 X146.73 Y122.424 E105.707
G1 X140.573 Y128.581 E106.141
G1 X139.661 Y127.669 E106.206
G1 X135.899 Y131.43 E106.471
G1 X114.841 Y110.372 E107.957
G1 Y105.038 E108.223
G1 X115.92 E108.277
G1 Y96.103 E108.722
G1 X104.191 E109.308
G1 Y105.038 E109.753
G1 X105.271 E109.807
G1 Y110.38 E110.074
G1 X84.091 Y131.309 E111.559
G1 X80.396 Y127.614 E111.82
G1 X79.483 Y128.526 E111.884
G1 X73.327 Y122.368 E112.319
G1 X74.239 Y121.456 E112.383
G1 X72.008 Y119.226 E112.541
G1 X77.125 Y114.111 E112.901
G1 X84.63 Y121.616 E113.431
G1 X97.696 Y108.55 E114.353
G1 Y89.481 E115.304
G1 X122.416 E116.537
;rapid-leaky
G1 F236
G0 X122.016 Y89.881
;bead-skirt/brim
G1 Y108.715 F780 E117.477
G1 X135.482 Y122.181 E118.427
G1 X142.875 Y114.788 E118.949
G1 X147.426 Y119.339 E119.27
G1 X145.252 Y121.512 E119.423
G1 X146.165 Y122.424 E119.488
G1 X140.573 Y128.015 E119.882
G1 X139.661 Y127.103 E119.946
G1 X135.899 Y130.864 E120.212
G1 X115.241 Y110.207 E121.669
G1 Y105.438 E121.907
G1 X116.32 E121.961
G1 Y95.703 E122.447
G1 X103.791 E123.072
G1 Y105.438 E123.558
G1 X104.871 E123.611
G1 Y110.213 E123.85
G1 X84.092 Y130.745 E125.307
G1 X80.396 Y127.048 E125.568
G1 X79.483 Y127.96 E125.632
G1 X73.892 Y122.368 E126.027
G1 X74.805 Y121.456 E126.091
G1 X72.574 Y119.226 E126.248
G1 X77.125 Y114.677 E126.569
G1 X84.63 Y122.181 E127.099
G1 X98.096 Y108.715 E128.049
G1 Y89.881 E128.989
G1 X122.016 E130.182
;rapid-leaky
G1 F236
G0 X121.616 Y90.281
;bead-skirt/brim
G1 Y108.881 F780 E131.11
G1 X135.482 Y122.747 E132.088
G1 X142.875 Y115.354 E132.61
G1 X146.86 Y119.339 E132.891
G1 X144.687 Y121.512 E133.044
G1 X145.599 Y122.424 E133.109
G1 X140.573 Y127.45 E133.463
G1 X139.661 Y126.538 E133.528
G1 X135.899 Y130.299 E133.793
G1 X115.641 Y110.041 E135.223
G1 Y105.838 E135.432
G1 X116.72 E135.486
G1 Y95.303 E136.012
G1 X103.391 E136.677
G1 Y105.838 E137.202
G1 X104.471 E137.256
G1 Y110.046 E137.466
G1 X84.094 Y130.181 E138.895
G1 X80.396 Y126.482 E139.156
G1 X79.484 Y127.395 E139.221
G1 X74.458 Y122.368 E139.575
G1 X75.37 Y121.456 E139.639
G1 X73.14 Y119.226 E139.797
G1 X77.125 Y115.242 E140.078
G1 X84.63 Y122.747 E140.607
G1 X98.496 Y108.881 E141.586
G1 Y90.281 E142.514
G1 X121.616 E143.667
;rapid-leaky
G1 F236
G0 X121.216 Y90.681
;bead-skirt/brim
G1 Y109.047 F780 E144.583
G1 X135.482 Y123.313 E145.59
G1 X142.875 Y115.92 E146.112
G1 X146.294 Y119.339 E146.353
G1 X144.121 Y121.512 E146.506
G1 X145.033 Y122.424 E146.571
G1 X140.573 Y126.884 E146.885
G1 X139.661 Y125.972 E146.95
G1 X135.899 Y129.733 E147.215
G1 X116.041 Y109.875 E148.616
G1 Y106.238 E148.798
G1 X117.12 E148.851
G1 Y94.903 E149.417
G1 X102.991 E150.122
G1 Y106.238 E150.687
G1 X104.071 E150.741
G1 Y109.879 E150.923
G1 X84.096 Y129.617 E152.324
G1 X80.396 Y125.917 E152.585
G1 X79.484 Y126.829 E152.649
G1 X75.024 Y122.368 E152.964
G1 X75.936 Y121.456 E153.028
G1 X73.706 Y119.226 E153.186
G1 X77.125 Y115.808 E153.427
G1 X84.63 Y123.313 E153.956
G1 X98.896 Y109.047 E154.963
G1 Y90.681 E155.879
G1 X121.216 E156.993
;rapid-leaky
G1 F236
G0 X120.816 Y91.081
;bead-skirt/brim
G1 Y109.212 F780 E157.897
G1 X135.482 Y123.878 E158.932
G1 X142.875 Y116.485 E159.454
G1 X145.729 Y119.339 E159.655
G1 X143.555 Y121.512 E159.808
G1 X144.467 Y122.424 E159.873
G1 X140.573 Y126.318 E160.148
G1 X139.661 Y125.406 E160.212
G1 X135.899 Y129.167 E160.477
G1 X116.441 Y109.71 E161.85
G1 Y106.638 E162.003
G1 X117.52 E162.057
G1 Y94.503 E162.663
G1 X102.591 E163.407
G1 Y106.638 E164.013
G1 X103.671 E164.067
G1 Y109.712 E164.22
G1 X84.097 Y129.053 E165.593
G1 X80.396 Y125.351 E165.854
G1 X79.484 Y126.263 E165.918
G1 X75.589 Y122.369 E166.193
G1 X76.502 Y121.456 E166.258
G1 X74.271 Y119.226 E166.415
G1 X77.125 Y116.374 E166.616
G1 X84.63 Y123.878 E167.146
G1 X99.296 Y109.212 E168.181
G1 Y91.081 E169.085
G1 X120.816 E170.159
;rapid-leaky
G1 F236
G0 X120.416 Y91.481
;bead-skirt/brim
G1 Y109.378 F780 E171.052
G1 X135.482 Y124.444 E172.115
G1 X142.875 Y117.051 E172.636
G1 X145.163 Y119.339 E172.798
G1 X135.899 Y128.602 E173.451
G1 X116.841 Y109.544 E174.796
G1 Y107.038 E174.921
G1 X117.92 E174.975
G1 Y94.103 E175.62
G1 X102.191 E176.405
G1 Y107.038 E177.05
G1 X103.271 E177.104
G1 Y109.545 E177.229
G1 X84.099 Y128.489 E178.574
G1 X74.837 Y119.226 E179.227
G1 X77.125 Y116.939 E179.389
G1 X84.63 Y124.444 E179.918
G1 X99.696 Y109.378 E180.981
G1 Y91.481 E181.874
G1 X120.416 E182.908
;rapid-leaky
G1 F236
G0 X143.163 Y121.686
;bead-skirt/brim
G1 X143.902 Y122.424 F780 E182.96
G1 X140.573 Y125.753 E183.195
G1 X139.834 Y125.014 E183.247
G1 X140.933 Y123.915 E183.324
G1 X143.163 Y121.686 E183.482
;rapid-leaky
G1 F236
G0 X80.222 Y124.959
;bead-skirt/brim
G1 X79.484 Y125.698 F780 E183.534
G1 X76.155 Y122.369 E183.769
G1 X76.894 Y121.63 E183.821
G1 X77.526 Y122.262 E183.865
G1 X80.222 Y124.959 E184.056
G1 F1800 E174.056
;rapid-dry
G1 F236
G0 X84.63 Y125.526
G1 F1800 E184.056
;bead-perimeter_inner
G1 X100.461 Y109.695 F780 E185.173
G1 Y92.246 E186.043
G1 X119.651 E187.001
G1 Y109.695 E187.871
G1 X135.482 Y125.526 E188.988
G1 X142.875 Y118.133 E189.51
G1 X144.081 Y119.339 E189.595
G1 X135.899 Y127.52 E190.172
G1 X117.606 Y109.227 E191.463
G1 Y107.803 E191.534
G1 X118.685 E191.588
G1 Y93.338 E192.309
G1 X101.426 E193.17
G1 Y107.803 E193.892
G1 X102.506 E193.946
G1 Y109.225 E194.017
G1 X84.102 Y127.41 E195.308
G1 X75.919 Y119.226 E195.885
G1 X77.125 Y118.021 E195.97
G1 X84.63 Y125.526 E196.5
;rapid-leaky
G1 F236
G0 Y125.01
;bead-perimeter_outer
G1 X100.096 Y109.544 F540 E197.591
G1 Y91.881 E198.472
G1 X120.016 E199.466
G1 Y109.544 E200.347
G1 X135.482 Y125.01 E201.438
G1 X142.875 Y117.617 E201.96
G1 X144.597 Y119.339 E202.081
G1 X135.899 Y128.036 E202.695
G1 X117.241 Y109.378 E204.011
G1 Y107.438 E204.108
G1 X118.32 E204.162
G1 Y93.703 E204.847
G1 X101.791 E205.672
G1 Y107.438 E206.357
G1 X102.871 E206.411
G1 Y109.377 E206.508
G1 X84.101 Y127.925 E207.824
G1 X75.403 Y119.226 E208.438
G1 X77.125 Y117.505 E208.559
G1 X84.63 Y125.01 E209.089
G1 F1800 E199.089
;rapid-dry
G1 F236
G0 X76.567 Y119.421
G1 F1800 E209.089
;bead-solid_infill
G1 X77.32 Y118.668 F1200 E209.142
G1 X77.603 Y118.951 E209.162
G1 X76.85 Y119.704 E209.215
G1 X77.132 Y119.987 E209.235
G1 X77.885 Y119.234 E209.288
G1 X78.168 Y119.517 E209.308
G1 X77.415 Y120.27 E209.361
G1 X77.698 Y120.553 E209.381
G1 X78.451 Y119.8 E209.434
G1 X78.734 Y120.082 E209.454
G1 X77.981 Y120.836 E209.508
G1 X78.264 Y121.118 E209.528
G1 X79.017 Y120.365 E209.581
G1 X79.3 Y120.648 E209.601
G1 X78.547 Y121.401 E209.654
G1 X78.829 Y121.684 E209.674
G1 X79.582 Y120.931 E209.727
G1 X79.865 Y121.214 E209.747
G1 X79.112 Y121.967 E209.8
G1 X79.395 Y122.25 E209.82
G1 X80.148 Y121.497 E209.873
G1 X80.431 Y121.78 E209.893
G1 X79.678 Y122.533 E209.946
G1 X79.961 Y122.816 E209.966
G1 X80.714 Y122.062 E210.019
G1 X80.736 Y122.085 E210.021
G1 X80.997 Y122.345 E210.039
G1 X80.243 Y123.098 E210.092
G1 X80.526 Y123.381 E210.112
G1 X81.279 Y122.628 E210.165
G1 X81.562 Y122.911 E210.185
G1 X80.809 Y123.664 E210.238
G1 X81.092 Y123.947 E210.258
G1 X81.845 Y123.194 E210.312
G1 X82.128 Y123.477 E210.332
G1 X81.375 Y124.23 E210.385
G1 X81.658 Y124.513 E210.405
G1 X82.411 Y123.759 E210.458
G1 X82.694 Y124.042 E210.478
G1 X81.94 Y124.796 E210.531
G1 X82.223 Y125.078 E210.551
G1 X82.977 Y124.325 E210.604
G1 X83.259 Y124.608 E210.624
G1 X82.506 Y125.361 E210.677
G1 X82.789 Y125.644 E210.697
G1 X83.542 Y124.891 E210.75
G1 X83.825 Y125.174 E210.77
G1 X83.072 Y125.927 E210.823
G1 X83.355 Y126.21 E210.843
G1 X84.108 Y125.456 E210.896
G1 X84.391 Y125.739 E210.916
G1 X83.637 Y126.493 E210.97
G1 X83.92 Y126.776 E210.99
G1 X102.186 Y108.51 E212.278
G1 Y108.123 E212.298
G1 X102.007 E212.306
G1 X100.781 Y109.349 E212.393
G1 Y108.783 E212.421
G1 X101.441 Y108.123 E212.468
G1 X101.106 E212.485
G1 Y107.893 E212.496
G1 X100.781 Y108.218 E212.519
G1 Y107.652 E212.547
G1 X101.106 Y107.327 E212.57
G1 Y106.761 E212.598
G1 X100.781 Y107.086 E212.621
G1 Y106.521 E212.649
G1 X101.106 Y106.196 E212.672
G1 Y105.63 E212.701
G1 X100.781 Y105.955 E212.724
G1 Y105.389 E212.752
G1 X101.106 Y105.064 E212.775
G1 Y104.499 E212.803
G1 X100.781 Y104.824 E212.826
G1 Y104.258 E212.854
G1 X101.106 Y103.933 E212.877
G1 Y103.367 E212.905
G1 X100.781 Y103.692 E212.928
G1 Y103.127 E212.956
G1 X101.106 Y102.802 E212.979
G1 Y102.236 E213.008
G1 X100.781 Y102.561 E213.03
G1 Y101.995 E213.059
G1 X101.106 Y101.67 E213.082
G1 Y101.104 E213.11
G1 X100.781 Y101.429 E213.133
G1 Y100.864 E213.161
G1 X101.106 Y100.539 E213.184
G1 Y99.973 E213.212
G1 X100.781 Y100.298 E213.235
G1 Y99.732 E213.263
G1 X101.106 Y99.407 E213.286
G1 Y98.842 E213.314
G1 X100.781 Y99.167 E213.337
G1 Y98.601 E213.366
G1 X101.106 Y98.276 E213.389
G1 Y97.71 E213.417
G1 X100.781 Y98.035 E213.44
G1 Y97.47 E213.468
G1 X101.106 Y97.145 E213.491
G1 Y96.579 E213.519
G1 X100.781 Y96.904 E213.542
G1 Y96.338 E213.57
G1 X101.106 Y96.013 E213.593
G1 Y95.448 E213.621
G1 X100.781 Y95.773 E213.644
G1 Y95.207 E213.673
G1 X101.106 Y94.882 E213.695
G1 Y94.316 E213.724
G1 X100.781 Y94.641 E213.747
G1 Y94.076 E213.775
G1 X101.106 Y93.751 E213.798
G1 F1800 E203.798
;rapid-dry
G1 F236
G0 X101.159 Y92.566
G1 F1800 E213.798
;bead-solid_infill
G1 X100.781 Y92.944 F1200 E213.824
G1 Y93.51 E213.853
G1 X101.106 Y93.185 E213.876
G1 Y93.018 E213.884
G1 X101.273 E213.892
G1 X101.725 Y92.566 E213.924
G1 X102.291 E213.952
G1 X101.839 Y93.018 E213.984
G1 X102.404 E214.012
G1 X102.856 Y92.566 E214.044
G1 X103.422 E214.073
G1 X102.97 Y93.018 E214.104
G1 X103.536 E214.133
G1 X103.988 Y92.566 E214.165
G1 X104.553 E214.193
G1 X104.101 Y93.018 E214.225
G1 X104.667 E214.253
G1 X105.119 Y92.566 E214.285
G1 X105.685 E214.313
G1 X105.233 Y93.018 E214.345
G1 X105.798 E214.373
G1 X106.25 Y92.566 E214.405
G1 X106.816 E214.433
G1 X106.364 Y93.018 E214.465
G1 X106.93 E214.493
G1 X107.382 Y92.566 E214.525
G1 X107.947 E214.553
G1 X107.495 Y93.018 E214.585
G1 X108.061 E214.614
G1 X108.513 Y92.566 E214.645
G1 X109.079 E214.674
G1 X108.627 Y93.018 E214.706
G1 X109.192 E214.734
G1 X109.644 Y92.566 E214.766
G1 X110.21 E214.794
G1 X109.758 Y93.018 E214.826
G1 X110.324 E214.854
G1 X110.776 Y92.566 E214.886
G1 X111.342 E214.914
G1 X110.89 Y93.018 E214.946
G1 X111.455 E214.974
G1 X111.907 Y92.566 E215.006
G1 X112.473 E215.034
G1 X112.021 Y93.018 E215.066
G1 X112.587 E215.095
G1 X113.039 Y92.566 E215.126
G1 X113.604 E215.155
G1 X113.152 Y93.018 E215.187
G1 X113.718 E215.215
G1 X114.17 Y92.566 E215.247
G1 X114.736 E215.275
G1 X114.284 Y93.018 E215.307
G1 X114.849 E215.335
G1 X115.301 Y92.566 E215.367
G1 X115.867 E215.395
G1 X115.415 Y93.018 E215.427
G1 X115.981 E215.455
G1 X116.433 Y92.566 E215.487
G1 X116.998 E215.515
G1 X116.546 Y93.018 E215.547
G1 X117.112 E215.575
G1 X117.564 Y92.566 E215.607
G1 X118.13 E215.636
G1 X117.678 Y93.018 E215.667
G1 X118.243 E215.696
G1 X118.695 Y92.566 E215.728
G1 X119.261 E215.756
G1 X118.809 Y93.018 E215.788
G1 X119.005 E215.797
G1 Y93.388 E215.816
G1 X119.331 Y93.062 E215.839
G1 Y93.627 E215.867
G1 X119.005 Y93.953 E215.89
G1 Y94.519 E215.918
G1 X119.331 Y94.193 E215.941
G1 Y94.759 E215.97
G1 X119.005 Y95.085 E215.993
G1 Y95.651 E216.021
G1 X119.331 Y95.325 E216.044
G1 Y95.89 E216.072
G1 X119.005 Y96.216 E216.095
G1 Y96.782 E216.123
G1 X119.331 Y96.456 E216.146
G1 Y97.022 E216.174
G1 X119.005 Y97.348 E216.197
G1 Y97.913 E216.226
G1 X119.331 Y97.587 E216.249
G1 Y98.153 E216.277
G1 X119.005 Y98.479 E216.3
G1 Y99.045 E216.328
G1 X119.331 Y98.719 E216.351
G1 Y99.284 E216.379
G1 X119.005 Y99.61 E216.402
G1 Y100.176 E216.431
G1 X119.331 Y99.85 E216.454
G1 Y100.416 E216.482
G1 X119.005 Y100.742 E216.505
G1 Y101.307 E216.533
G1 X119.331 Y100.981 E216.556
G1 Y101.547 E216.584
G1 X119.005 Y101.873 E216.607
G1 Y102.439 E216.635
G1 X119.331 Y102.113 E216.658
G1 Y102.678 E216.687
G1 X119.005 Y103.004 E216.71
G1 Y103.57 E216.738
G1 X119.331 Y103.244 E216.761
G1 Y103.81 E216.789
G1 X119.005 Y104.136 E216.812
G1 Y104.702 E216.84
G1 X119.331 Y104.376 E216.863
G1 Y104.941 E216.892
G1 X119.005 Y105.267 E216.915
G1 Y105.833 E216.943
G1 X119.331 Y105.507 E216.966
G1 Y106.073 E216.994
G1 X119.005 Y106.399 E217.017
G1 Y106.964 E217.045
G1 X119.331 Y106.638 E217.068
G1 Y107.204 E217.096
G1 X119.005 Y107.53 E217.119
G1 Y108.096 E217.148
G1 X119.331 Y107.77 E217.171
G1 Y108.335 E217.199
G1 X118.249 Y109.417 E217.275
G1 X118.532 Y109.7 E217.295
G1 X119.331 Y108.901 E217.352
G1 Y109.467 E217.38
G1 X118.815 Y109.983 E217.416
G1 X119.097 Y110.266 E217.436
G1 X119.433 Y109.93 E217.46
G1 X119.716 Y110.213 E217.48
G1 X119.38 Y110.549 E217.504
G1 X119.663 Y110.832 E217.524
G1 X119.999 Y110.496 E217.547
G1 X120.282 Y110.779 E217.567
G1 X119.946 Y111.114 E217.591
G1 X120.229 Y111.397 E217.611
G1 X120.565 Y111.061 E217.635
G1 X120.848 Y111.344 E217.654
G1 X120.512 Y111.68 E217.678
G1 X120.795 Y111.963 E217.698
G1 X121.13 Y111.627 E217.722
G1 X121.413 Y111.91 E217.742
G1 X121.077 Y112.246 E217.766
G1 X121.36 Y112.529 E217.785
G1 X121.696 Y112.193 E217.809
G1 X121.979 Y112.476 E217.829
G1 X121.643 Y112.811 E217.853
G1 X121.926 Y113.094 E217.873
G1 X122.262 Y112.758 E217.896
G1 X122.545 Y113.041 E217.916
G1 X122.209 Y113.377 E217.94
G1 X122.492 Y113.66 E217.96
G1 X122.827 Y113.324 E217.984
G1 X123.11 Y113.607 E218.004
G1 X122.774 Y113.943 E218.027
G1 X123.057 Y114.226 E218.047
G1 X123.393 Y113.89 E218.071
G1 X123.676 Y114.173 E218.091
G1 X123.34 Y114.509 E218.115
G1 X123.623 Y114.791 E218.135
G1 X123.959 Y114.455 E218.158
G1 X124.242 Y114.738 E218.178
G1 X123.906 Y115.074 E218.202
G1 X124.189 Y115.357 E218.222
G1 X124.525 Y115.021 E218.246
G1 X124.807 Y115.304 E218.266
G1 X124.471 Y115.64 E218.289
G1 X124.754 Y115.923 E218.309
G1 X125.09 Y115.587 E218.333
G1 X125.373 Y115.87 E218.353
G1 X125.037 Y116.206 E218.377
G1 X125.32 Y116.488 E218.397
G1 X125.656 Y116.153 E218.42
G1 X125.939 Y116.435 E218.44
G1 X125.603 Y116.771 E218.464
G1 X125.886 Y117.054 E218.484
G1 X126.222 Y116.718 E218.508
G1 X126.504 Y117.001 E218.528
G1 X126.169 Y117.337 E218.551
G1 X126.451 Y117.62 E218.571
G1 X126.787 Y117.284 E218.595
G1 X127.07 Y117.567 E218.615
G1 X126.734 Y117.903 E218.639
G1 X127.017 Y118.185 E218.659
G1 X127.353 Y117.85 E218.682
G1 X127.636 Y118.132 E218.702
G1 X127.3 Y118.468 E218.726
G1 X127.583 Y118.751 E218.746
G1 X127.919 Y118.415 E218.77
G1 X128.202 Y118.698 E218.79
G1 X127.866 Y119.034 E218.813
G1 X128.148 Y119.317 E218.833
G1 X128.484 Y118.981 E218.857
G1 X128.767 Y119.264 E218.877
G1 X128.431 Y119.6 E218.901
G1 X128.714 Y119.883 E218.921
G1 X129.05 Y119.547 E218.944
G1 X129.333 Y119.829 E218.964
G1 X128.997 Y120.165 E218.988
G1 X129.28 Y120.448 E219.008
G1 X129.616 Y120.112 E219.032
G1 X129.899 Y120.395 E219.052
G1 X129.563 Y120.731 E219.075
G1 X129.845 Y121.014 E219.095
G1 X130.181 Y120.678 E219.119
G1 X130.464 Y120.961 E219.139
G1 X130.128 Y121.297 E219.163
G1 X130.411 Y121.58 E219.182
G1 X130.747 Y121.244 E219.206
G1 X131.03 Y121.527 E219.226
G1 X130.694 Y121.862 E219.25
G1 X130.977 Y122.145 E219.27
G1 X131.313 Y121.809 E219.294
G1 X131.596 Y122.092 E219.313
G1 X131.26 Y122.428 E219.337
G1 X131.543 Y122.711 E219.357
G1 X131.878 Y122.375 E219.381
G1 X132.161 Y122.658 E219.401
G1 X131.825 Y122.994 E219.424
G1 X132.108 Y123.277 E219.444
G1 X132.444 Y122.941 E219.468
G1 X132.727 Y123.224 E219.488
G1 X132.391 Y123.56 E219.512
G1 X132.674 Y123.842 E219.532
G1 X133.01 Y123.506 E219.555
G1 X133.293 Y123.789 E219.575
G1 X132.957 Y124.125 E219.599
G1 X133.24 Y124.408 E219.619
G1 X133.576 Y124.072 E219.643
G1 X133.858 Y124.355 E219.663
G1 X133.522 Y124.691 E219.686
G1 X133.805 Y124.974 E219.706
G1 X134.141 Y124.638 E219.73
G1 X134.424 Y124.921 E219.75
G1 X134.088 Y125.257 E219.774
G1 X134.371 Y125.539 E219.794
G1 X134.707 Y125.203 E219.817
G1 X134.99 Y125.486 E219.837
G1 X134.654 Y125.822 E219.861
G1 X134.937 Y126.105 E219.881
G1 X135.273 Y125.769 E219.905
G1 X135.482 Y125.979 E219.919
G1 X142.875 Y118.586 E220.441
G1 X142.948 Y118.659 E220.446
G1 X135.219 Y126.388 E220.992
G1 X135.502 Y126.671 E221.012
G1 X143.231 Y118.942 E221.557
G1 X143.514 Y119.225 E221.577
G1 X135.785 Y126.954 E222.122
G1 F1800 E212.122
;rapid-dry
G1 F236
G0 X117.966 Y109.135
G1 F1800 E222.122
;bead-solid_infill
G1 X118.978 Y108.123 F1200 E222.194
G1 X118.412 E222.222
G1 X117.926 Y108.609 E222.256
G1 F1800 E212.256
;rapid-dry
G1 F236
G0 X102.186 Y109.075
G1 F1800 E222.256
;bead-solid_infill
G1 X100.844 Y110.417 F1200 E222.351
G1 F1800 E212.351
;Layer : 2 of 53
M106 S255
;rapid-leaky
G1 F236
G0 X100.461 Y109.695 Z0.5
G1 F1800 E222.351
;bead-perimeter_inner
G1 Y92.246 F1560 E222.931
G1 X119.651 E223.569
G1 Y109.695 E224.15
G1 X135.482 Y125.526 E224.894
G1 X142.875 Y118.133 E225.242
G1 X144.081 Y119.339 E225.299
G1 X135.899 Y127.52 E225.684
G1 X117.606 Y109.227 E226.544
G1 Y107.803 E226.591
G1 X118.685 E226.627
G1 Y93.338 E227.108
G1 X101.426 E227.682
G1 Y107.803 E228.164
G1 X102.506 E228.199
G1 Y109.225 E228.247
G1 X84.102 Y127.41 E229.107
G1 X75.919 Y119.226 E229.492
G1 X77.125 Y118.021 E229.549
G1 X84.63 Y125.526 E229.902
G1 X100.461 Y109.695 E230.647
;rapid-leaky
G1 F236
G0 X100.096 Y109.544
;bead-perimeter_outer
G1 Y91.881 F1080 E231.234
G1 X120.016 E231.897
G1 Y109.544 E232.484
G1 X135.482 Y125.01 E233.212
G1 X142.875 Y117.617 E233.559
G1 X144.597 Y119.339 E233.64
G1 X135.899 Y128.036 E234.049
G1 X117.241 Y109.378 E234.927
G1 Y107.438 E234.992
G1 X118.32 E235.027
G1 Y93.703 E235.484
G1 X101.791 E236.034
G1 Y107.438 E236.491
G1 X102.871 E236.527
G1 Y109.377 E236.591
G1 X84.101 Y127.925 E237.469
G1 X75.403 Y119.226 E237.878
G1 X77.125 Y117.505 E237.959
G1 X84.63 Y125.01 E238.312
G1 X100.096 Y109.544 E239.04
G1 F1800 E229.04
;rapid-dry
G1 F236
G0 X102.186 Y108.662
G1 F1800 E239.04
;bead-solid_infill
G1 X101.647 Y108.123 F2400 E239.065
G1 F1800 E229.065
;rapid-dry
G1 F236
G0 X76.459 Y119.139
G1 F1800 E239.065
;bead-solid_infill
G1 X84.192 Y126.872 F2400 E239.429
G1 X84.477 Y126.591 E239.442
G1 X76.742 Y118.856 E239.806
G1 X76.748 Y118.85
G1 X77.025 Y118.573 E239.819
G1 X84.761 Y126.31 E240.183
G1 X85.046 Y126.028 E240.196
G1 X84.813 Y125.796 E240.207
G1 X85.096 Y125.513 E240.221
G1 X85.33 Y125.747 E240.232
G1 X85.615 Y125.466 E240.245
G1 X85.379 Y125.23 E240.256
G1 X85.661 Y124.947 E240.269
G1 X85.899 Y125.185 E240.28
G1 X86.184 Y124.904 E240.294
G1 X85.944 Y124.664 E240.305
G1 X86.227 Y124.381 E240.318
G1 X86.468 Y124.623 E240.33
G1 X86.753 Y124.341 E240.343
G1 X86.51 Y124.099 E240.354
G1 X86.793 Y123.816 E240.368
G1 X87.037 Y124.06 E240.379
G1 X87.322 Y123.779 E240.393
G1 X87.076 Y123.533 E240.404
G1 X87.359 Y123.25 E240.417
G1 X87.606 Y123.498 E240.429
G1 X87.891 Y123.217 E240.442
G1 X87.641 Y122.967 E240.454
G1 X87.924 Y122.684 E240.467
G1 X88.176 Y122.936 E240.479
G1 X88.46 Y122.654 E240.493
G1 X88.207 Y122.401 E240.504
G1 X88.49 Y122.119 E240.518
G1 X88.745 Y122.373 E240.53
G1 X89.029 Y122.092 E240.543
G1 X88.773 Y121.836 E240.555
G1 X89.056 Y121.553 E240.568
G1 X89.314 Y121.811 E240.581
G1 X89.598 Y121.53 E240.594
G1 X89.338 Y121.27 E240.606
G1 X89.621 Y120.987 E240.619
G1 X89.883 Y121.249 E240.632
G1 X90.167 Y120.968 E240.645
G1 X89.904 Y120.704 E240.657
G1 X90.187 Y120.422 E240.671
G1 X90.452 Y120.686 E240.683
G1 X90.736 Y120.405 E240.696
G1 X90.47 Y120.139 E240.709
G1 X90.753 Y119.856 E240.722
G1 X91.021 Y120.124 E240.735
G1 X91.305 Y119.843 E240.748
G1 X91.036 Y119.573 E240.761
G1 X91.318 Y119.29 E240.774
G1 X91.59 Y119.562 E240.787
G1 X91.874 Y119.281 E240.8
G1 X91.601 Y119.007 E240.813
G1 X91.884 Y118.725 E240.826
G1 X92.159 Y118.999 E240.839
G1 X92.443 Y118.718 E240.853
G1 X92.167 Y118.442 E240.866
G1 X92.45 Y118.159 E240.879
G1 X92.728 Y118.437 E240.892
G1 X93.013 Y118.156 E240.905
G1 X92.733 Y117.876 E240.918
G1 X93.015 Y117.593 E240.932
G1 X93.297 Y117.875 E240.945
G1 X93.582 Y117.594 E240.958
G1 X93.298 Y117.31 E240.972
G1 X93.581 Y117.027 E240.985
G1 X93.866 Y117.313 E240.998
G1 X94.151 Y117.031 E241.012
G1 X93.864 Y116.745 E241.025
G1 X94.147 Y116.462 E241.038
G1 X94.435 Y116.75 E241.052
G1 X94.72 Y116.469 E241.065
G1 X94.43 Y116.179 E241.079
G1 X94.712 Y115.896 E241.092
G1 X95.004 Y116.188 E241.106
G1 X95.289 Y115.907 E241.119
G1 X94.995 Y115.613 E241.133
G1 X95.278 Y115.33 E241.146
G1 X95.573 Y115.626 E241.16
G1 X95.858 Y115.344 E241.174
G1 X95.561 Y115.048 E241.188
G1 X95.844 Y114.765 E241.201
G1 X96.142 Y115.063 E241.215
G1 X96.427 Y114.782 E241.228
G1 X96.127 Y114.482 E241.242
G1 X96.41 Y114.199 E241.256
G1 X96.711 Y114.501 E241.27
G1 X96.996 Y114.22 E241.283
G1 X96.692 Y113.916 E241.297
G1 X96.975 Y113.633 E241.311
G1 X97.28 Y113.939 E241.325
G1 X97.565 Y113.658 E241.338
G1 X97.258 Y113.351 E241.353
G1 X97.541 Y113.068 E241.366
G1 X97.85 Y113.376 E241.381
G1 X98.134 Y113.095 E241.394
G1 X97.824 Y112.785 E241.409
G1 X98.107 Y112.502 E241.422
G1 X98.419 Y112.814 E241.437
G1 X98.703 Y112.533 E241.45
G1 X98.389 Y112.219 E241.465
G1 X98.672 Y111.936 E241.478
G1 X98.988 Y112.252 E241.493
G1 X99.272 Y111.971 E241.506
G1 X98.955 Y111.653 E241.521
G1 X99.238 Y111.371 E241.534
G1 X99.557 Y111.689 E241.549
G1 X99.841 Y111.408 E241.563
G1 X99.521 Y111.088 E241.578
G1 X99.804 Y110.805 E241.591
G1 X100.126 Y111.127 E241.606
G1 X100.41 Y110.846 E241.619
G1 X100.086 Y110.522 E241.635
G1 X100.369 Y110.239 E241.648
G1 X100.695 Y110.565 E241.663
G1 X100.979 Y110.284 E241.677
G1 X100.652 Y109.956 E241.692
G1 X100.781 Y109.828 E241.698
G1 Y109.52 E241.708
G1 X101.264 Y110.002 E241.731
G1 X101.548 Y109.721 E241.744
G1 X100.781 Y108.954 E241.78
G1 Y108.388 E241.799
G1 X101.833 Y109.44 E241.849
G1 X102.118 Y109.159 E241.862
G1 X100.781 Y107.823 E241.925
G1 Y107.257 E241.944
G1 X101.106 Y107.582 E241.959
G1 Y107.016 E241.978
G1 X100.781 Y106.691 E241.993
G1 Y106.125 E242.012
G1 X101.106 Y106.45 E242.027
G1 Y105.885 E242.046
G1 X100.781 Y105.56 E242.061
G1 Y104.994 E242.08
G1 X101.106 Y105.319 E242.095
G1 Y104.753 E242.114
G1 X100.781 Y104.428 E242.129
G1 Y103.863 E242.148
G1 X101.106 Y104.188 E242.164
G1 Y103.622 E242.182
G1 X100.781 Y103.297 E242.198
G1 Y102.731 E242.216
G1 X101.106 Y103.056 E242.232
G1 Y102.491 E242.251
G1 X100.781 Y102.166 E242.266
G1 Y101.6 E242.285
G1 X101.106 Y101.925 E242.3
G1 Y101.359 E242.319
G1 X100.781 Y101.034 E242.334
G1 Y100.469 E242.353
G1 X101.106 Y100.794 E242.368
G1 Y100.228 E242.387
G1 X100.781 Y99.903 E242.402
G1 Y99.337 E242.421
G1 X101.106 Y99.662 E242.436
G1 Y99.097 E242.455
G1 X100.781 Y98.772 E242.47
G1 Y98.206 E242.489
G1 X101.106 Y98.531 E242.505
G1 Y97.965 E242.523
G1 X100.781 Y97.64 E242.539
G1 Y97.075 E242.558
G1 X101.106 Y97.399 E242.573
G1 Y96.834 E242.592
G1 X100.781 Y96.509 E242.607
G1 Y95.943 E242.626
G1 X101.106 Y96.268 E242.641
G1 Y95.702 E242.66
G1 X100.781 Y95.377 E242.675
G1 Y94.812 E242.694
G1 X101.106 Y95.137 E242.709
G1 Y94.571 E242.728
G1 X100.781 Y94.246 E242.743
G1 Y93.68 E242.762
G1 X101.106 Y94.005 E242.777
G1 Y93.44 E242.796
G1 X100.781 Y93.115 E242.812
G1 Y92.566 E242.83
G1 X100.798
G1 X101.25 Y93.018 E242.852
G1 X101.816 E242.87
G1 X101.364 Y92.566 E242.892
G1 X101.929 E242.91
G1 X102.381 Y93.018 E242.932
G1 X102.947 E242.951
G1 X102.495 Y92.566 E242.972
G1 X103.061 E242.991
G1 X103.513 Y93.018 E243.012
G1 X104.078 E243.031
G1 X103.626 Y92.566 E243.052
G1 X104.192 E243.071
G1 X104.644 Y93.018 E243.092
G1 X105.21 E243.111
G1 X104.758 Y92.566 E243.132
G1 X105.323 E243.151
G1 X105.775 Y93.018 E243.172
G1 X106.341 E243.191
G1 X105.889 Y92.566 E243.212
G1 X106.455 E243.231
G1 X106.907 Y93.018 E243.252
G1 X107.473 E243.271
G1 X107.021 Y92.566 E243.292
G1 X107.586 E243.311
G1 X108.038 Y93.018 E243.332
G1 X108.604 E243.351
G1 X108.152 Y92.566 E243.373
G1 X108.718 E243.391
G1 X109.17 Y93.018 E243.413
G1 X109.735 E243.431
G1 X109.283 Y92.566 E243.453
G1 X109.849 E243.472
G1 X110.301 Y93.018 E243.493
G1 X110.867 E243.512
G1 X110.415 Y92.566 E243.533
G1 X110.98 E243.552
G1 X111.432 Y93.018 E243.573
G1 X111.998 E243.592
G1 X111.546 Y92.566 E243.613
G1 X112.112 E243.632
G1 X112.564 Y93.018 E243.653
G1 X113.129 E243.672
G1 X112.677 Y92.566 E243.693
G1 X113.243 E243.712
G1 X113.695 Y93.018 E243.733
G1 X114.261 E243.752
G1 X113.809 Y92.566 E243.773
G1 X114.374 E243.792
G1 X114.826 Y93.018 E243.813
G1 X115.392 E243.832
G1 X114.94 Y92.566 E243.853
G1 X115.506 E243.872
G1 X115.958 Y93.018 E243.894
G1 X116.523 E243.912
G1 X116.072 Y92.566 E243.934
G1 X116.637 E243.952
G1 X117.089 Y93.018 E243.974
G1 X117.655 E243.993
G1 X117.203 Y92.566 E244.014
G1 X117.769 E244.033
G1 X118.221 Y93.018 E244.054
G1 X118.786 E244.073
G1 X118.334 Y92.566 E244.094
G1 X118.9 E244.113
G1 X119.331 Y92.997 E244.133
G1 Y93.563 E244.152
G1 X119.005 Y93.237 E244.167
G1 Y93.802 E244.186
G1 X119.331 Y94.128 E244.201
G1 Y94.694 E244.22
G1 X119.005 Y94.368 E244.235
G1 Y94.934 E244.254
G1 X119.331 Y95.26 E244.27
G1 Y95.826 E244.288
G1 X119.005 Y95.5 E244.304
G1 Y96.065 E244.323
G1 X119.331 Y96.391 E244.338
G1 Y96.957 E244.357
G1 X119.005 Y96.631 E244.372
G1 Y97.197 E244.391
G1 X119.331 Y97.523 E244.406
G1 Y98.088 E244.425
G1 X119.005 Y97.762 E244.44
G1 Y98.328 E244.459
G1 X119.331 Y98.654 E244.475
G1 Y99.22 E244.493
G1 X119.005 Y98.894 E244.509
G1 Y99.459 E244.527
G1 X119.331 Y99.785 E244.543
G1 Y100.351 E244.562
G1 X119.005 Y100.025 E244.577
G1 Y100.591 E244.596
G1 X119.331 Y100.917 E244.611
G1 Y101.482 E244.63
G1 X119.005 Y101.156 E244.645
G1 Y101.722 E244.664
G1 X119.331 Y102.048 E244.679
G1 Y102.614 E244.698
G1 X119.005 Y102.288 E244.714
G1 Y102.853 E244.732
G1 X119.331 Y103.179 E244.748
G1 Y103.745 E244.767
G1 X119.005 Y103.419 E244.782
G1 Y103.985 E244.801
G1 X119.331 Y104.311 E244.816
G1 Y104.876 E244.835
G1 X119.005 Y104.55 E244.85
G1 Y105.116 E244.869
G1 X119.331 Y105.442 E244.884
G1 Y106.008 E244.903
G1 X119.005 Y105.682 E244.918
G1 Y106.248 E244.937
G1 X119.331 Y106.574 E244.953
G1 Y107.139 E244.971
G1 X119.005 Y106.813 E244.987
G1 Y107.379 E245.006
G1 X119.331 Y107.705 E245.021
G1 Y108.271 E245.04
G1 X119.005 Y107.945 E245.055
G1 Y108.123 E245.061
G1 X118.618 E245.074
G1 X119.331 Y108.836 E245.107
G1 Y109.402 E245.126
G1 X118.052 Y108.123 E245.186
G1 X117.926 E245.191
G1 Y108.563 E245.205
G1 X136.165 Y126.802 E246.063
G1 X136.448 Y126.519 E246.076
G1 X135.695 Y125.766 E246.112
G1 X135.978 Y125.483 E246.125
G1 X136.731 Y126.236 E246.161
G1 X137.014 Y125.953 E246.174
G1 X136.26 Y125.2 E246.209
G1 X136.543 Y124.917 E246.223
G1 X137.296 Y125.67 E246.258
G1 X137.579 Y125.387 E246.271
G1 X136.826 Y124.634 E246.307
G1 X137.109 Y124.352 E246.32
G1 X137.862 Y125.105 E246.355
G1 X138.145 Y124.822 E246.369
G1 X137.392 Y124.069 E246.404
G1 X137.675 Y123.786 E246.417
G1 X138.428 Y124.539 E246.453
G1 X138.711 Y124.256 E246.466
G1 X137.958 Y123.503 E246.502
G1 X138.24 Y123.22 E246.515
G1 X138.994 Y123.973 E246.55
G1 X139.276 Y123.69 E246.564
G1 X138.523 Y122.937 E246.599
G1 X138.806 Y122.655 E246.612
G1 X139.559 Y123.408 E246.648
G1 X139.842 Y123.125 E246.661
G1 X139.089 Y122.372 E246.697
G1 X139.372 Y122.089 E246.71
G1 X140.125 Y122.842 E246.745
G1 X140.408 Y122.559 E246.759
G1 X139.655 Y121.806 E246.794
G1 X139.937 Y121.523 E246.807
G1 X140.691 Y122.276 E246.843
G1 X140.974 Y121.994 E246.856
G1 X140.22 Y121.24 E246.891
G1 X140.503 Y120.957 E246.905
G1 X141.256 Y121.711 E246.94
G1 X141.539 Y121.428 E246.953
G1 X140.786 Y120.675 E246.989
G1 X141.069 Y120.392 E247.002
G1 X141.822 Y121.145 E247.038
G1 X142.105 Y120.862 E247.051
G1 X141.352 Y120.109 E247.086
G1 X141.635 Y119.826 E247.1
G1 X142.388 Y120.579 E247.135
G1 X142.671 Y120.297 E247.148
G1 X141.917 Y119.543 E247.184
G1 X142.2 Y119.26 E247.197
G1 X142.954 Y120.014 E247.233
G1 X143.236 Y119.731 E247.246
G1 X142.483 Y118.978 E247.281
G1 X142.766 Y118.695 E247.295
G1 X143.519 Y119.448 E247.33
G1 F1800 E237.33
;Layer : 3 of 53
;rapid-leaky
G1 F236
G0 X144.081 Y119.339 Z0.7
G1 F1800 E247.33
;bead-perimeter_inner
G1 X135.899 Y127.52 F1560 E247.715
G1 X117.606 Y109.227 E248.575
G1 Y107.803 E248.623
G1 X118.685 E248.659
G1 Y93.338 E249.14
G1 X101.426 E249.714
G1 Y107.803 E250.195
G1 X102.506 E250.231
G1 Y109.225 E250.278
G1 X84.102 Y127.41 E251.139
G1 X75.919 Y119.226 E251.524
G1 X77.125 Y118.021 E251.58
G1 X79.404 Y120.3 E251.687
G1 X80.357 Y121.283 E251.733
G1 X81.551 Y122.448 E251.788
G1 X84.63 Y125.526 E251.933
G1 X100.461 Y109.695 E252.678
G1 Y92.246 E253.258
G1 X119.651 E253.897
G1 Y109.695 E254.477
G1 X135.482 Y125.526 E255.222
G1 X138.504 Y122.504 E255.364
G1 X139.398 Y121.639 E255.405
G1 X140.652 Y120.356 E255.465
G1 X142.875 Y118.133 E255.569
G1 X144.081 Y119.339 E255.626
;rapid-leaky
G1 F236
G0 X144.597
;bead-perimeter_outer
G1 X135.899 Y128.036 F1080 E256.035
G1 X117.241 Y109.378 E256.913
G1 Y107.438 E256.977
G1 X118.32 E257.013
G1 Y93.703 E257.47
G1 X101.791 E258.02
G1 Y107.438 E258.477
G1 X102.871 E258.513
G1 Y109.377 E258.577
G1 X84.101 Y127.925 E259.455
G1 X75.403 Y119.226 E259.864
G1 X77.125 Y117.505 E259.945
G1 X79.665 Y120.044 E260.064
G1 X80.616 Y121.026 E260.11
G1 X81.807 Y122.188 E260.165
G1 X84.63 Y125.01 E260.298
G1 X100.096 Y109.544 E261.025
G1 Y91.881 E261.613
G1 X120.016 E262.275
G1 Y109.544 E262.863
G1 X135.482 Y125.01 E263.59
G1 X138.248 Y122.244 E263.72
G1 X139.141 Y121.379 E263.762
G1 X140.392 Y120.1 E263.821
G1 X142.875 Y117.617 E263.938
G1 X144.597 Y119.339 E264.019
;rapid-leaky
G1 F236
G0 X135.785 Y126.954
;bead-solid_infill
G1 X143.514 Y119.225 F2400 E264.383
G1 X143.231 Y118.942 E264.396
G1 X135.502 Y126.671 E264.759
G1 X135.219 Y126.388 E264.773
G1 X142.948 Y118.659 E265.136
G1 X142.875 Y118.586 E265.14
G1 X140.88 Y120.581 E265.234
G1 X139.623 Y121.866 E265.293
G1 X138.729 Y122.732 E265.335
G1 X135.482 Y125.979 E265.487
G1 X135.273 Y125.769 E265.497
G1 X134.937 Y126.105 E265.513
G1 X134.654 Y125.822 E265.526
G1 X134.99 Y125.486 E265.542
G1 X134.707 Y125.203 E265.556
G1 X134.371 Y125.539 E265.571
G1 X134.088 Y125.257 E265.585
G1 X134.424 Y124.921 E265.6
G1 X134.141 Y124.638 E265.614
G1 X133.805 Y124.974 E265.63
G1 X133.522 Y124.691 E265.643
G1 X133.858 Y124.355 E265.659
G1 X133.576 Y124.072 E265.672
G1 X133.24 Y124.408 E265.688
G1 X132.957 Y124.125 E265.701
G1 X133.293 Y123.789 E265.717
G1 X133.01 Y123.506 E265.73
G1 X132.674 Y123.842 E265.746
G1 X132.391 Y123.56 E265.759
G1 X132.727 Y123.224 E265.775
G1 X132.444 Y122.941 E265.788
G1 X132.108 Y123.277 E265.804
G1 X131.825 Y122.994 E265.817
G1 X132.161 Y122.658 E265.833
G1 X131.878 Y122.375 E265.847
G1 X131.543 Y122.711 E265.862
G1 X131.26 Y122.428 E265.876
G1 X131.596 Y122.092 E265.891
G1 X131.313 Y121.809 E265.905
G1 X130.977 Y122.145 E265.921
G1 X130.694 Y121.862 E265.934
G1 X131.03 Y121.527 E265.95
G1 X130.747 Y121.244 E265.963
G1 X130.411 Y121.58 E265.979
G1 X130.128 Y121.297 E265.992
G1 X130.464 Y120.961 E266.008
G1 X130.181 Y120.678 E266.021
G1 X129.845 Y121.014 E266.037
G1 X129.563 Y120.731 E266.05
G1 X129.899 Y120.395 E266.066
G1 X129.616 Y120.112 E266.079
G1 X129.28 Y120.448 E266.095
G1 X128.997 Y120.165 E266.109
G1 X129.333 Y119.829 E266.124
G1 X129.05 Y119.547 E266.138
G1 X128.714 Y119.883 E266.153
G1 X128.431 Y119.6 E266.167
G1 X128.767 Y119.264 E266.183
G1 X128.484 Y118.981 E266.196
G1 X128.148 Y119.317 E266.212
G1 X127.866 Y119.034 E266.225
G1 X128.202 Y118.698 E266.241
G1 X127.919 Y118.415 E266.254
G1 X127.583 Y118.751 E266.27
G1 X127.3 Y118.468 E266.283
G1 X127.636 Y118.132 E266.299
G1 X127.353 Y117.85 E266.312
G1 X127.017 Y118.185 E266.328
G1 X126.734 Y117.903 E266.341
G1 X127.07 Y117.567 E266.357
G1 X126.787 Y117.284 E266.37
G1 X126.451 Y117.62 E266.386
G1 X126.169 Y117.337 E266.4
G1 X126.504 Y117.001 E266.415
G1 X126.222 Y116.718 E266.429
G1 X125.886 Y117.054 E266.444
G1 X125.603 Y116.771 E266.458
G1 X125.939 Y116.435 E266.474
G1 X125.656 Y116.153 E266.487
G1 X125.32 Y116.488 E266.503
G1 X125.037 Y116.206 E266.516
G1 X125.373 Y115.87 E266.532
G1 X125.09 Y115.587 E266.545
G1 X124.754 Y115.923 E266.561
G1 X124.471 Y115.64 E266.574
G1 X124.807 Y115.304 E266.59
G1 X124.525 Y115.021 E266.603
G1 X124.189 Y115.357 E266.619
G1 X123.906 Y115.074 E266.632
G1 X124.242 Y114.738 E266.648
G1 X123.959 Y114.455 E266.661
G1 X123.623 Y114.791 E266.677
G1 X123.34 Y114.509 E266.691
G1 X123.676 Y114.173 E266.706
G1 X123.393 Y113.89 E266.72
G1 X123.057 Y114.226 E266.736
G1 X122.774 Y113.943 E266.749
G1 X123.11 Y113.607 E266.765
G1 X122.827 Y113.324 E266.778
G1 X122.492 Y113.66 E266.794
G1 X122.209 Y113.377 E266.807
G1 X122.545 Y113.041 E266.823
G1 X122.262 Y112.758 E266.836
G1 X121.926 Y113.094 E266.852
G1 X121.643 Y112.811 E266.865
G1 X121.979 Y112.476 E266.881
G1 X121.696 Y112.193 E266.894
G1 X121.36 Y112.529 E266.91
G1 X121.077 Y112.246 E266.923
G1 X121.413 Y111.91 E266.939
G1 X121.13 Y111.627 E266.953
G1 X120.795 Y111.963 E266.968
G1 X120.512 Y111.68 E266.982
G1 X120.848 Y111.344 E266.997
G1 X120.565 Y111.061 E267.011
G1 X120.229 Y111.397 E267.027
G1 X119.946 Y111.114 E267.04
G1 X120.282 Y110.779 E267.056
G1 X119.999 Y110.496 E267.069
G1 X119.663 Y110.832 E267.085
G1 X119.38 Y110.549 E267.098
G1 X119.716 Y110.213 E267.114
G1 X119.433 Y109.93 E267.127
G1 X119.097 Y110.266 E267.143
G1 X118.815 Y109.983 E267.156
G1 X119.331 Y109.467 E267.181
G1 Y108.901 E267.199
G1 X118.532 Y109.7 E267.237
G1 X118.249 Y109.417 E267.25
G1 X119.331 Y108.335 E267.301
G1 Y107.77 E267.32
G1 X119.005 Y108.096 E267.335
G1 Y107.53 E267.354
G1 X119.331 Y107.204 E267.369
G1 Y106.638 E267.388
G1 X119.005 Y106.964 E267.404
G1 Y106.399 E267.422
G1 X119.331 Y106.073 E267.438
G1 Y105.507 E267.457
G1 X119.005 Y105.833 E267.472
G1 Y105.267 E267.491
G1 X119.331 Y104.941 E267.506
G1 Y104.376 E267.525
G1 X119.005 Y104.702 E267.54
G1 Y104.136 E267.559
G1 X119.331 Y103.81 E267.574
G1 Y103.244 E267.593
G1 X119.005 Y103.57 E267.609
G1 Y103.004 E267.627
G1 X119.331 Y102.678 E267.643
G1 Y102.113 E267.661
G1 X119.005 Y102.439 E267.677
G1 Y101.873 E267.696
G1 X119.331 Y101.547 E267.711
G1 Y100.981 E267.73
G1 X119.005 Y101.307 E267.745
G1 Y100.742 E267.764
G1 X119.331 Y100.416 E267.779
G1 Y99.85 E267.798
G1 X119.005 Y100.176 E267.813
G1 Y99.61 E267.832
G1 X119.331 Y99.284 E267.848
G1 Y98.719 E267.866
G1 X119.005 Y99.045 E267.882
G1 Y98.479 E267.901
G1 X119.331 Y98.153 E267.916
G1 Y97.587 E267.935
G1 X119.005 Y97.913 E267.95
G1 Y97.348 E267.969
G1 X119.331 Y97.022 E267.984
G1 Y96.456 E268.003
G1 X119.005 Y96.782 E268.018
G1 Y96.216 E268.037
G1 X119.331 Y95.89 E268.052
G1 Y95.325 E268.071
G1 X119.005 Y95.651 E268.087
G1 Y95.085 E268.105
G1 X119.331 Y94.759 E268.121
G1 Y94.193 E268.14
G1 X119.005 Y94.519 E268.155
G1 Y93.953 E268.174
G1 X119.331 Y93.627 E268.189
G1 Y93.062 E268.208
G1 X119.005 Y93.388 E268.223
G1 Y93.018 E268.236
G1 X118.809 E268.242
G1 X119.261 Y92.566 E268.263
G1 X118.695 E268.282
G1 X118.243 Y93.018 E268.303
G1 X117.678 E268.322
G1 X118.13 Y92.566 E268.343
G1 X117.564 E268.362
G1 X117.112 Y93.018 E268.384
G1 X116.546 E268.402
G1 X116.998 Y92.566 E268.424
G1 X116.433 E268.442
G1 X115.981 Y93.018 E268.464
G1 X115.415 E268.482
G1 X115.867 Y92.566 E268.504
G1 X115.301 E268.523
G1 X114.849 Y93.018 E268.544
G1 X114.284 E268.563
G1 X114.736 Y92.566 E268.584
G1 X114.17 E268.603
G1 X113.718 Y93.018 E268.624
G1 X113.152 E268.643
G1 X113.604 Y92.566 E268.664
G1 X113.039 E268.683
G1 X112.587 Y93.018 E268.704
G1 X112.021 E268.723
G1 X112.473 Y92.566 E268.744
G1 X111.907 E268.763
G1 X111.455 Y93.018 E268.784
G1 X110.89 E268.803
G1 X111.342 Y92.566 E268.824
G1 X110.776 E268.843
G1 X110.324 Y93.018 E268.864
G1 X109.758 E268.883
G1 X110.21 Y92.566 E268.904
G1 X109.644 E268.923
G1 X109.192 Y93.018 E268.945
G1 X108.627 E268.963
G1 X109.079 Y92.566 E268.985
G1 X108.513 E269.003
G1 X108.061 Y93.018 E269.025
G1 X107.495 E269.044
G1 X107.947 Y92.566 E269.065
G1 X107.382 E269.084
G1 X106.93 Y93.018 E269.105
G1 X106.364 E269.124
G1 X106.816 Y92.566 E269.145
G1 X106.25 E269.164
G1 X105.798 Y93.018 E269.185
G1 X105.233 E269.204
G1 X105.685 Y92.566 E269.225
G1 X105.119 E269.244
G1 X104.667 Y93.018 E269.265
G1 X104.101 E269.284
G1 X104.553 Y92.566 E269.305
G1 X103.988 E269.324
G1 X103.536 Y93.018 E269.345
G1 X102.97 E269.364
G1 X103.422 Y92.566 E269.385
G1 X102.856 E269.404
G1 X102.404 Y93.018 E269.425
G1 X101.839 E269.444
G1 X102.291 Y92.566 E269.466
G1 X101.725 E269.484
G1 X101.273 Y93.018 E269.506
G1 X101.106 E269.511
G1 Y93.185 E269.517
G1 X100.781 Y93.51 E269.532
G1 Y92.944 E269.551
G1 X101.159 Y92.566 E269.569
G1 F1800 E259.569
;rapid-dry
G1 F236
G0 X101.106 Y93.751
G1 F1800 E269.569
;bead-solid_infill
G1 X100.781 Y94.076 F2400 E269.584
G1 Y94.641 E269.603
G1 X101.106 Y94.316 E269.618
G1 Y94.882 E269.637
G1 X100.781 Y95.207 E269.652
G1 Y95.773 E269.671
G1 X101.106 Y95.448 E269.686
G1 Y96.013 E269.705
G1 X100.781 Y96.338 E269.72
G1 Y96.904 E269.739
G1 X101.106 Y96.579 E269.754
G1 Y97.145 E269.773
G1 X100.781 Y97.47 E269.789
G1 Y98.035 E269.807
G1 X101.106 Y97.71 E269.823
G1 Y98.276 E269.841
G1 X100.781 Y98.601 E269.857
G1 Y99.167 E269.876
G1 X101.106 Y98.842 E269.891
G1 Y99.407 E269.91
G1 X100.781 Y99.732 E269.925
G1 Y100.298 E269.944
G1 X101.106 Y99.973 E269.959
G1 Y100.539 E269.978
G1 X100.781 Y100.864 E269.993
G1 Y101.429 E270.012
G1 X101.106 Y101.104 E270.027
G1 Y101.67 E270.046
G1 X100.781 Y101.995 E270.061
G1 Y102.561 E270.08
G1 X101.106 Y102.236 E270.095
G1 Y102.802 E270.114
G1 X100.781 Y103.127 E270.13
G1 Y103.692 E270.148
G1 X101.106 Y103.367 E270.164
G1 Y103.933 E270.182
G1 X100.781 Y104.258 E270.198
G1 Y104.824 E270.217
G1 X101.106 Y104.499 E270.232
G1 Y105.064 E270.251
G1 X100.781 Y105.389 E270.266
G1 Y105.955 E270.285
G1 X101.106 Y105.63 E270.3
G1 Y106.196 E270.319
G1 X100.781 Y106.521 E270.334
G1 Y107.086 E270.353
G1 X101.106 Y106.761 E270.368
G1 Y107.327 E270.387
G1 X100.781 Y107.652 E270.402
G1 Y108.218 E270.421
G1 X101.106 Y107.893 E270.436
G1 Y108.123 E270.444
G1 X101.441 E270.455
G1 X100.781 Y108.783 E270.486
G1 Y109.349 E270.505
G1 X102.007 Y108.123 E270.563
G1 X102.186 E270.569
G1 Y108.51 E270.582
G1 X83.92 Y126.776 E271.441
G1 X83.637 Y126.493 E271.454
G1 X84.391 Y125.739 E271.49
G1 X84.108 Y125.456 E271.503
G1 X83.355 Y126.21 E271.538
G1 X83.072 Y125.927 E271.552
G1 X83.825 Y125.174 E271.587
G1 X83.542 Y124.891 E271.6
G1 X82.789 Y125.644 E271.636
G1 X82.506 Y125.361 E271.649
G1 X83.259 Y124.608 E271.684
G1 X82.976 Y124.325 E271.698
G1 X82.223 Y125.078 E271.733
G1 X81.94 Y124.796 E271.747
G1 X82.693 Y124.042 E271.782
G1 X82.411 Y123.76 E271.795
G1 X81.658 Y124.513 E271.831
G1 X81.375 Y124.23 E271.844
G1 X82.128 Y123.477 E271.879
G1 X81.845 Y123.194 E271.893
G1 X81.092 Y123.947 E271.928
G1 X80.809 Y123.664 E271.941
G1 X81.562 Y122.911 E271.977
G1 X81.327 Y122.676 E271.988
G1 X81.278 Y122.629 E271.99
G1 X80.526 Y123.381 E272.025
G1 X80.243 Y123.098 E272.039
G1 X80.992 Y122.35 E272.074
G1 X80.706 Y122.07 E272.087
G1 X79.961 Y122.816 E272.122
G1 X79.678 Y122.533 E272.136
G1 X80.419 Y121.791 E272.171
G1 X80.133 Y121.512 E272.184
G1 X79.395 Y122.25 E272.219
G1 X79.112 Y121.967 E272.232
G1 X79.855 Y121.225 E272.267
G1 X79.576 Y120.937 E272.28
G1 X78.829 Y121.684 E272.315
G1 X78.546 Y121.401 E272.329
G1 X79.298 Y120.65 E272.364
G1 X79.176 Y120.525 E272.37
G1 X79.017 Y120.365 E272.377
G1 X78.264 Y121.118 E272.413
G1 X77.981 Y120.836 E272.426
G1 X78.734 Y120.082 E272.461
G1 X78.451 Y119.8 E272.475
G1 X77.698 Y120.553 E272.51
G1 X77.415 Y120.27 E272.523
G1 X78.168 Y119.517 E272.559
G1 X77.885 Y119.234 E272.572
G1 X77.132 Y119.987 E272.607
G1 X76.85 Y119.704 E272.621
G1 X77.603 Y118.951 E272.656
G1 X77.32 Y118.668 E272.67
G1 X76.567 Y119.421 E272.705
G1 F1800 E262.705
;rapid-dry
G1 F236
G0 X100.844 Y110.417
G1 F1800 E272.705
;bead-solid_infill
G1 X102.186 Y109.075 F2400 E272.768
G1 F1800 E262.768
;rapid-dry
G1 F236
G0 X117.926 Y108.609
G1 F1800 E272.768
;bead-solid_infill
G1 X118.412 Y108.123 F2400 E272.791
G1 X118.978 E272.81
G1 X117.966 Y109.135 E272.857
G1 F1800 E262.857
;Layer : 4 of 53
;rapid-leaky
G1 F236
G0 X117.606 Y109.227 Z0.9
G1 F1800 E272.857
;bead-perimeter_inner
G1 Y107.803 F1560 E272.905
G1 X118.685 E272.941
G1 Y93.338 E273.422
G1 X101.426 E273.996
G1 Y107.803 E274.477
G1 X102.506 E274.513
G1 Y109.225 E274.56
G1 X84.102 Y127.41 E275.421
G1 X75.919 Y119.226 E275.805
G1 X77.125 Y118.021 E275.862
G1 X79.039 Y119.936 E275.952
G1 X80.449 Y121.4 E276.02
G1 X81.916 Y122.813 E276.088
G1 X84.63 Y125.526 E276.215
G1 X100.461 Y109.695 E276.96
G1 Y92.246 E277.54
G1 X119.651 E278.178
G1 Y109.695 E278.759
G1 X135.482 Y125.526 E279.503
G1 X138.14 Y122.869 E279.628
G1 X139.447 Y121.615 E279.689
G1 X140.124 Y120.931 E279.721
G1 X141.017 Y119.993 E279.764
G1 X142.875 Y118.133 E279.851
G1 X144.081 Y119.339 E279.908
G1 X135.899 Y127.52 E280.293
G1 X117.606 Y109.227 E281.153
;rapid-leaky
G1 F236
G0 X117.241 Y109.378
;bead-perimeter_outer
G1 Y107.438 F1080 E281.218
G1 X118.32 E281.254
G1 Y93.703 E281.711
G1 X101.791 E282.26
G1 Y107.438 E282.717
G1 X102.871 E282.753
G1 Y109.377 E282.818
G1 X84.101 Y127.925 E283.695
G1 X75.403 Y119.226 E284.104
G1 X77.125 Y117.505 E284.185
G1 X79.301 Y119.681 E284.288
G1 X80.707 Y121.141 E284.355
G1 X82.17 Y122.551 E284.423
G1 X84.63 Y125.01 E284.538
G1 X100.096 Y109.544 E285.266
G1 Y91.881 E285.853
G1 X120.016 E286.516
G1 Y109.544 E287.103
G1 X135.482 Y125.01 E287.831
G1 X137.885 Y122.607 E287.944
G1 X139.19 Y121.356 E288.004
G1 X139.862 Y120.677 E288.036
G1 X140.755 Y119.738 E288.079
G1 X142.875 Y117.617 E288.179
G1 X144.597 Y119.339 E288.26
G1 X135.899 Y128.036 E288.669
G1 X117.241 Y109.378 E289.546
;rapid-leaky
G1 F236
G0 X123.394 Y113.89
;bead-sparse_infill
G1 X123.446 Y114.35 F3600 E289.562
G1 X123.351 Y114.519 E289.568
G1 X126.805 Y117.302 E289.716
G1 X126.564 Y117.732 E289.732
G1 F1800 E279.732
;rapid-dry
G1 F236
G0 X136.472 Y124.989
G1 F1800 E289.732
;bead-sparse_infill
G1 X136.721 Y125.21 F3600 E289.743
G1 X137.089 Y125.878 E289.768
G1 X141.852 Y121.115 E289.993
G1 X141.317 Y120.145 E290.029
G1 F1800 E280.029
;rapid-dry
G1 F236
G0 X119.331 Y107.361
G1 F1800 E290.029
;bead-sparse_infill
G1 X119.19 Y107.111 F3600 E290.039
G1 X119.331 Y105.874 E290.08
G1 Y92.882 E290.512
G1 X119.19 Y92.631 E290.522
G1 X119.198 Y92.566 E290.524
G1 X113.59 Y93.018 E290.711
G1 X113.155 Y92.631 E290.731
G1 X113.119 Y92.566 E290.733
G1 X104.928 Y93.018 E291.006
G1 X104.711 Y92.631 E291.021
G1 X104.718 Y92.566 E291.023
G1 F1800 E281.023
;rapid-dry
G1 F236
G0 X100.781 Y94.568
G1 F1800 E291.023
;bead-sparse_infill
G1 X101.106 Y95.146 F3600 E291.045
G1 Y98.813 E291.167
G1 X100.781 Y99.402 E291.189
G1 Y109.048 E291.51
G1 X101.299 Y109.968 E291.545
G1 X90.388 Y120.221 E292.043
G1 X90.32 Y120.817 E292.063
G1 X86.582 Y124.026 E292.227
G1 X86.757 Y124.337 E292.239
G1 F1800 E282.239
;Layer : 5 of 53
;rapid-leaky
G1 F236
G0 X84.63 Y125.526 Z1.1
G1 F1800 E292.239
;bead-perimeter_inner
G1 X100.461 Y109.695 F1560 E292.984
G1 Y92.246 E293.564
G1 X119.651 E294.202
G1 Y109.695 E294.783
G1 X135.482 Y125.526 E295.527
G1 X137.863 Y123.146 E295.639
G1 X138.664 Y122.398 E295.676
G1 X139.139 Y121.978 E295.697
G1 X139.616 Y121.519 E295.719
G1 X140.126 Y120.992 E295.743
G1 X140.546 Y120.516 E295.764
G1 X141.294 Y119.715 E295.801
G1 X142.875 Y118.133 E295.875
G1 X144.081 Y119.339 E295.932
G1 X135.899 Y127.52 E296.317
G1 X117.606 Y109.227 E297.177
G1 Y107.803 E297.224
G1 X118.685 E297.26
G1 Y93.338 E297.741
G1 X101.426 E298.315
G1 Y107.803 E298.797
G1 X102.506 E298.832
G1 Y109.225 E298.88
G1 X84.102 Y127.41 E299.74
G1 X75.919 Y119.226 E300.125
G1 X77.125 Y118.021 E300.182
G1 X78.761 Y119.658 E300.259
G1 X80.09 Y121.107 E300.324
G1 X80.414 Y121.439 E300.34
G1 X80.745 Y121.761 E300.355
G1 X82.194 Y123.09 E300.42
G1 X84.63 Y125.526 E300.535
;rapid-leaky
G1 F236
G0 Y125.01
;bead-perimeter_outer
G1 X100.096 Y109.544 F1080 E301.263
G1 Y91.881 E301.85
G1 X120.016 E302.513
G1 Y109.544 E303.1
G1 X135.482 Y125.01 E303.827
G1 X137.609 Y122.884 E303.927
G1 X138.418 Y122.128 E303.964
G1 X138.892 Y121.71 E303.985
G1 X139.358 Y121.261 E304.007
G1 X139.858 Y120.744 E304.031
G1 X140.276 Y120.27 E304.052
G1 X141.032 Y119.461 E304.089
G1 X142.875 Y117.617 E304.175
G1 X144.597 Y119.339 E304.256
G1 X135.899 Y128.036 E304.665
G1 X117.241 Y109.378 E305.543
G1 Y107.438 E305.608
G1 X118.32 E305.643
G1 Y93.703 E306.1
G1 X101.791 E306.65
G1 Y107.438 E307.107
G1 X102.871 E307.143
G1 Y109.377 E307.207
G1 X84.101 Y127.925 E308.085
G1 X75.403 Y119.226 E308.494
G1 X77.125 Y117.505 E308.575
G1 X79.024 Y119.405 E308.664
G1 X80.355 Y120.856 E308.73
G1 X80.672 Y121.181 E308.745
G1 X80.996 Y121.496 E308.76
G1 X82.447 Y122.827 E308.826
G1 X84.63 Y125.01 E308.928
;rapid-leaky
G1 F236
G0 X86.917 Y124.179
;bead-sparse_infill
G1 X86.755 Y123.854 F3600 E308.94
G1 X90.163 Y120.972 E309.089
G1 X90.284 Y120.324 E309.111
G1 X101.454 Y109.815 E309.621
G1 X101.007 Y108.921 E309.654
G1 X100.781 Y108.739 E309.664
G1 Y99.324 E309.977
G1 X101.106 Y98.806 E309.997
G1 Y94.64 E310.136
G1 X101.007 Y94.441 E310.143
G1 X100.781 Y94.259 E310.153
G1 F1800 E300.153
;rapid-dry
G1 F236
G0 X104.538 Y92.566
G1 F1800 E310.153
;bead-sparse_infill
G1 X104.526 Y92.631 F3600 E310.155
G1 X104.719 Y93.018 E310.169
G1 X113.198 Y92.566 E310.452
G1 X113.239 Y92.631 E310.454
G1 X113.719 Y93.018 E310.475
G1 X119.018 Y92.566 E310.652
G1 X119.005 Y92.631 E310.654
G1 X119.331 Y93.283 E310.678
G1 Y105.375 E311.08
G1 X119.005 Y107.111 E311.139
G1 X119.331 Y107.762 E311.163
G1 F1800 E301.163
;rapid-dry
G1 F236
G0 X123.58 Y114.076
G1 F1800 E311.163
;bead-sparse_infill
G1 X123.631 Y114.35 F3600 E311.173
G1 X123.481 Y114.65 E311.184
G1 X126.655 Y117.151 E311.318
G1 X126.431 Y117.599 E311.335
G1 F1800 E301.335
;rapid-dry
G1 F236
G0 X136.423 Y125.038
G1 F1800 E311.335
;bead-sparse_infill
G1 X136.637 Y125.21 F3600 E311.344
G1 X137.068 Y125.899 E311.371
G1 X141.882 Y121.085 E311.597
G1 X141.308 Y120.169 E311.633
G1 F1800 E301.633
;Layer : 6 of 53
;rapid-leaky
G1 F236
G0 X140.931 Y120.13 Z1.3
G1 F1800 E311.633
;bead-perimeter_inner
G1 X141.533 Y119.476 F1560 E311.663
G1 X142.875 Y118.133 E311.726
G1 X144.081 Y119.339 E311.783
G1 X135.899 Y127.52 E312.168
G1 X117.606 Y109.227 E313.028
G1 Y107.803 E313.075
G1 X118.685 E313.111
G1 Y93.338 E313.592
G1 X101.426 E314.166
G1 Y107.803 E314.647
G1 X102.506 E314.683
G1 Y109.225 E314.731
G1 X84.102 Y127.41 E315.591
G1 X75.919 Y119.226 E315.976
G1 X77.125 Y118.021 E316.033
G1 X78.523 Y119.42 E316.099
G1 X79.115 Y120.064 E316.128
G1 X79.759 Y120.826 E316.161
G1 X80.35 Y121.451 E316.19
G1 X81.025 Y122.092 E316.22
G1 X81.788 Y122.737 E316.254
G1 X82.432 Y123.329 E316.283
G1 X84.63 Y125.526 E316.386
G1 X100.461 Y109.695 E317.131
G1 Y92.246 E317.711
G1 X119.651 E318.349
G1 Y109.695 E318.93
G1 X135.482 Y125.526 E319.674
G1 X137.624 Y123.385 E319.775
G1 X138.278 Y122.784 E319.805
G1 X138.854 Y122.304 E319.83
G1 X139.524 Y121.688 E319.86
G1 X140.142 Y121.052 E319.889
G1 X140.452 Y120.706 E319.905
G1 X140.931 Y120.13 E319.93
;rapid-leaky
G1 F236
G0 X140.657 Y119.89
;bead-perimeter_outer
G1 X141.269 Y119.223 F1080 E319.96
G1 X142.875 Y117.617 E320.035
G1 X144.597 Y119.339 E320.116
G1 X135.899 Y128.036 E320.526
G1 X117.241 Y109.378 E321.403
G1 Y107.438 E321.468
G1 X118.32 E321.504
G1 Y93.703 E321.96
G1 X101.791 E322.51
G1 Y107.438 E322.967
G1 X102.871 E323.003
G1 Y109.377 E323.067
G1 X84.101 Y127.925 E323.945
G1 X75.403 Y119.226 E324.354
G1 X77.125 Y117.505 E324.435
G1 X78.787 Y119.167 E324.513
G1 X79.39 Y119.824 E324.543
G1 X80.031 Y120.582 E324.576
G1 X80.609 Y121.193 E324.604
G1 X81.269 Y121.82 E324.634
G1 X82.028 Y122.462 E324.667
G1 X82.685 Y123.065 E324.697
G1 X84.63 Y125.01 E324.789
G1 X100.096 Y109.544 E325.516
G1 Y91.881 E326.103
G1 X120.016 E326.766
G1 Y109.544 E327.353
G1 X135.482 Y125.01 E328.081
G1 X137.371 Y123.121 E328.17
G1 X138.038 Y122.51 E328.2
G1 X138.616 Y122.027 E328.225
G1 X139.269 Y121.426 E328.254
G1 X139.874 Y120.805 E328.283
G1 X140.175 Y120.468 E328.298
G1 X140.657 Y119.89 E328.323
;rapid-leaky
G1 F236
G0 X141.299 Y120.203
;bead-sparse_infill
G1 X141.906 Y121.062 F3600 E328.358
G1 X137.053 Y125.914 E328.587
G1 X136.556 Y125.21 E328.615
G1 X136.378 Y125.083 E328.622
G1 F1800 E318.622
;rapid-dry
G1 F236
G0 X126.262 Y117.431
G1 F1800 E328.622
;bead-sparse_infill
G1 X126.458 Y116.955 F3600 E328.64
G1 X123.645 Y114.814 E328.757
G1 X123.836 Y114.35 E328.774
G1 X123.83 Y114.326 E328.775
G1 F1800 E318.775
;rapid-dry
G1 F236
G0 X119.331 Y108.398
G1 F1800 E328.775
;bead-sparse_infill
G1 X119.005 Y107.607 F3600 E328.803
G1 Y106.342 E328.845
G1 X119.283 Y105.301 E328.881
G1 X119.331 Y105.232 E328.884
G1 Y93.919 E329.26
G1 X119.005 Y93.128 E329.289
G1 X118.96 Y93.018 E329.293
G1 X118.8 Y92.631 E329.306
G1 X118.818 Y92.566 E329.309
G1 X113.86 Y93.018 E329.474
G1 X113.32 Y92.631 E329.496
G1 X113.274 Y92.566 E329.499
G1 X104.48 Y93.018 E329.792
G1 X104.321 Y92.631 E329.806
G1 X104.338 Y92.566 E329.808
;rapid-leaky
G1 F236
G0 X100.781 Y94.02
;bead-sparse_infill
G1 X101.106 Y94.252 F3600 E329.821
G1 Y98.811 E329.973
G1 X100.781 Y99.272 E329.992
G1 Y108.499 E330.299
G1 X101.371 Y108.921 E330.323
G1 X101.657 Y109.614 E330.348
G1 X90.141 Y120.468 E330.874
G1 X89.95 Y121.182 E330.899
G1 X86.984 Y123.624 E331.026
G1 X87.127 Y123.971 E331.039
G1 F1800 E321.039
;Layer : 7 of 53
;rapid-leaky
G1 F236
G0 X84.63 Y125.526 Z1.5
G1 F1800 E331.039
;bead-perimeter_inner
G1 X100.461 Y109.695 F1560 E331.784
G1 Y92.246 E332.364
G1 X119.651 E333.002
G1 Y109.695 E333.583
G1 X135.482 Y125.526 E334.327
G1 X137.427 Y123.582 E334.419
G1 X137.99 Y123.07 E334.444
G1 X139.267 Y122.038 E334.499
G1 X139.702 Y121.632 E334.518
G1 X140.188 Y121.116 E334.542
G1 X141.218 Y119.842 E334.596
G1 X141.73 Y119.279 E334.622
G1 X142.875 Y118.133 E334.676
G1 X144.081 Y119.339 E334.732
G1 X135.899 Y127.52 E335.117
G1 X117.606 Y109.227 E335.978
G1 Y107.803 E336.025
G1 X118.685 E336.061
G1 Y93.338 E336.542
G1 X101.426 E337.116
G1 Y107.803 E337.597
G1 X102.506 E337.633
G1 Y109.225 E337.68
G1 X84.102 Y127.41 E338.541
G1 X75.919 Y119.226 E338.926
G1 X77.125 Y118.021 E338.982
G1 X78.326 Y119.223 E339.039
G1 X78.829 Y119.778 E339.064
G1 X79.724 Y120.888 E339.111
G1 X80.013 Y121.225 E339.126
G1 X80.314 Y121.539 E339.141
G1 X80.627 Y121.837 E339.155
G1 X80.963 Y122.128 E339.17
G1 X82.075 Y123.023 E339.217
G1 X82.629 Y123.525 E339.242
G1 X84.63 Y125.526 E339.336
;rapid-leaky
G1 F236
G0 Y125.01
;bead-perimeter_outer
G1 X100.096 Y109.544 F1080 E340.064
G1 Y91.881 E340.651
G1 X120.016 E341.314
G1 Y109.544 E341.901
G1 X135.482 Y125.01 E342.629
G1 X137.175 Y123.318 E342.708
G1 X137.754 Y122.792 E342.734
G1 X139.026 Y121.763 E342.789
G1 X139.448 Y121.37 E342.808
G1 X139.912 Y120.877 E342.83
G1 X140.94 Y119.606 E342.885
G1 X141.466 Y119.027 E342.911
G1 X142.875 Y117.617 E342.977
G1 X144.597 Y119.339 E343.058
G1 X135.899 Y128.036 E343.467
G1 X117.241 Y109.378 E344.345
G1 Y107.438 E344.409
G1 X118.32 E344.445
G1 Y93.703 E344.902
G1 X101.791 E345.452
G1 Y107.438 E345.909
G1 X102.871 E345.945
G1 Y109.377 E346.009
G1 X84.101 Y127.925 E346.887
G1 X75.403 Y119.226 E347.296
G1 X77.125 Y117.505 E347.377
G1 X78.59 Y118.971 E347.446
G1 X79.108 Y119.542 E347.471
G1 X80.006 Y120.656 E347.519
G1 X80.284 Y120.979 E347.533
G1 X80.572 Y121.281 E347.547
G1 X81.195 Y121.846 E347.575
G1 X82.31 Y122.744 E347.623
G1 X82.881 Y123.261 E347.648
G1 X84.63 Y125.01 E347.73
;rapid-leaky
G1 F236
G0 X87.453 Y123.649
;bead-sparse_infill
G1 X87.387 Y123.4 F3600 E347.739
G1 X87.277 Y123.332 E347.743
G1 X89.653 Y121.475 E347.844
G1 X89.936 Y120.673 E347.872
G1 X94.165 Y116.444 E348.071
G1 X94.627 Y116.16 E348.089
G1 X94.691 Y115.918 E348.097
G1 X101.969 Y109.306 E348.424
G1 X101.866 Y108.921 E348.438
G1 X100.781 Y108.254 E348.48
G1 Y99.237 E348.78
G1 X101.106 Y98.825 E348.797
G1 Y93.975 E348.959
G1 X100.781 Y93.775 E348.971
;rapid-leaky
G1 F236
G0 X104.115 Y92.566
;bead-sparse_infill
G1 X104.092 Y92.631 F3600 E348.974
G1 X104.195 Y93.018 E348.987
G1 X113.345 Y92.566 E349.292
G1 X113.397 Y92.631 E349.294
G1 X114.027 Y93.018 E349.319
G1 X118.594 Y92.566 E349.472
G1 X118.571 Y92.631 E349.474
G1 X118.674 Y93.018 E349.487
G1 X119.005 Y94.268 E349.53
G1 X119.051 Y94.441 E349.536
G1 X119.331 Y94.613 E349.547
G1 Y105.145 E349.897
G1 X119.208 Y105.301 E349.904
G1 X119.005 Y105.879 E349.924
G1 X118.84 Y108.123 E349.999
G1 X119.051 Y108.921 E350.027
G1 X119.331 Y109.092 E350.038
;rapid-leaky
G1 F236
G0 X124.021 Y114.517
;bead-sparse_infill
G1 X123.88 Y115.048 F3600 E350.056
G1 X126.159 Y116.656 E350.149
G1 X126.019 Y117.187 E350.167
G1 F1800 E340.167
;rapid-dry
G1 F236
G0 X136.338 Y125.123
G1 F1800 E350.167
;bead-sparse_infill
G1 X136.479 Y125.21 F3600 E350.173
G1 X137.043 Y125.924 E350.203
G1 X141.924 Y121.043 E350.432
G1 X141.299 Y120.251 E350.466
G1 F1800 E340.466
;Layer : 8 of 53
;rapid-leaky
G1 F236
G0 X140.939 Y120.276 Z1.7
G1 F1800 E350.466
;bead-perimeter_inner
G1 X141.449 Y119.611 F1560 E350.494
G1 X141.904 Y119.105 E350.516
G1 X142.875 Y118.133 E350.562
G1 X144.081 Y119.339 E350.619
G1 X135.899 Y127.52 E351.004
G1 X117.606 Y109.227 E351.864
G1 Y107.803 E351.911
G1 X118.685 E351.947
G1 Y93.338 E352.428
G1 X101.426 E353.003
G1 Y107.803 E353.484
G1 X102.506 E353.52
G1 Y109.225 E353.567
G1 X84.102 Y127.41 E354.427
G1 X75.919 Y119.226 E354.812
G1 X77.125 Y118.021 E354.869
G1 X78.152 Y119.049 E354.917
G1 X78.603 Y119.55 E354.94
G1 X79.686 Y120.986 E355
G1 X80.222 Y121.578 E355.026
G1 X80.546 Y121.889 E355.041
G1 X80.865 Y122.166 E355.055
G1 X82.302 Y123.249 E355.115
G1 X82.803 Y123.7 E355.137
G1 X84.63 Y125.526 E355.223
G1 X100.461 Y109.695 E355.968
G1 Y92.246 E356.548
G1 X119.651 E357.187
G1 Y109.695 E357.767
G1 X135.482 Y125.526 E358.512
G1 X137.253 Y123.756 E358.595
G1 X137.759 Y123.301 E358.617
G1 X138.424 Y122.791 E358.645
G1 X139.022 Y122.358 E358.67
G1 X139.353 Y122.084 E358.684
G1 X139.925 Y121.542 E358.71
G1 X140.232 Y121.205 E358.726
G1 X140.506 Y120.874 E358.74
G1 X140.939 Y120.276 E358.764
;rapid-leaky
G1 F236
G0 X140.643 Y120.062
;bead-perimeter_outer
G1 X141.168 Y119.378 F1080 E358.793
G1 X141.639 Y118.854 E358.817
G1 X142.875 Y117.617 E358.875
G1 X144.597 Y119.339 E358.956
G1 X135.899 Y128.036 E359.365
G1 X117.241 Y109.378 E360.242
G1 Y107.438 E360.307
G1 X118.32 E360.343
G1 Y93.703 E360.8
G1 X101.791 E361.349
G1 Y107.438 E361.806
G1 X102.871 E361.842
G1 Y109.377 E361.907
G1 X84.101 Y127.925 E362.784
G1 X75.403 Y119.226 E363.194
G1 X77.125 Y117.505 E363.274
G1 X78.417 Y118.798 E363.335
G1 X78.885 Y119.319 E363.359
G1 X79.968 Y120.753 E363.418
G1 X80.48 Y121.32 E363.444
G1 X80.792 Y121.619 E363.458
G1 X81.098 Y121.884 E363.472
G1 X82.533 Y122.967 E363.531
G1 X83.054 Y123.435 E363.555
G1 X84.63 Y125.01 E363.629
G1 X100.096 Y109.544 E364.356
G1 Y91.881 E364.944
G1 X120.016 E365.606
G1 Y109.544 E366.194
G1 X135.482 Y125.01 E366.921
G1 X137.002 Y123.491 E366.993
G1 X137.526 Y123.02 E367.016
G1 X138.21 Y122.495 E367.045
G1 X138.796 Y122.071 E367.069
G1 X139.114 Y121.808 E367.083
G1 X139.662 Y121.289 E367.108
G1 X139.956 Y120.966 E367.122
G1 X140.219 Y120.648 E367.136
G1 X140.643 Y120.062 E367.16
;rapid-leaky
G1 F236
G0 X141.311 Y120.316
;bead-sparse_infill
G1 X141.938 Y121.029 F3600 E367.192
;rapid-leaky
G1 F236
G0 X140.553 Y121.573
;bead-solid_infill
G1 X140.436 Y121.456 F2400 E367.197
G1 X140.307 Y121.598 E367.203
G1 X140.167 Y121.752 E367.21
G1 X140.297 Y121.883 E367.217
G1 X140.03 Y122.151 E367.229
G1 X140.014 Y122.165 E367.23
G1 X139.877 Y122.028 E367.236
G1 X139.587 Y122.304 E367.25
G1 X139.703 Y122.42 E367.255
;rapid-leaky
G1 F236
G0 X136.299 Y125.161
;bead-sparse_infill
G1 X136.404 Y125.21 F3600 E367.259
G1 X137.037 Y125.93 E367.291
;rapid-leaky
G1 F236
G0 X133.266 Y123.763
;bead-sparse_infill
G1 X132.479 Y123.4 F3600 E367.32
G1 X132.542 Y123.039 E367.332
G1 X125.292 Y116.46 E367.657
G1 X125.24 Y116.16 E367.668
G1 X125.53 Y116.026 E367.678
G1 X124.561 Y115.73 E367.712
G1 X124.42 Y114.916 E367.739
G1 X118.139 Y108.123 E368.047
G1 X118 Y108.921 E368.074
G1 X119.331 Y109.534 E368.123
;rapid-leaky
G1 F236
G0 X119.005 Y105.562
;bead-sparse_infill
G1 X119.121 Y105.301 F3600 E368.132
G1 X119.331 Y105.062 E368.143
G1 Y95.055 E368.476
G1 X119.005 Y94.905 E368.488
;rapid-leaky
G1 F236
G0 X118.248 Y93.018
;bead-sparse_infill
G1 X118.315 Y92.631 F3600 E368.501
G1 X118.344 Y92.566 E368.503
G1 X114.31 Y93.018 E368.638
G1 X113.472 Y92.631 E368.669
G1 X113.414 Y92.566 E368.672
G1 X103.865 E368.989
G1 X103.836 Y92.631 E368.992
G1 X103.769 Y93.018 E369.005
;rapid-leaky
G1 F236
G0 X101.106 Y93.606
;bead-sparse_infill
G1 X100.781 Y93.456 F3600 E369.017
G1 X101.106 Y98.847 E369.196
G1 X100.781 Y99.217 E369.213
G1 Y107.936 E369.503
G1 X101.106 Y108.085 E369.514
G1 X101.188 Y108.123 E369.517
G1 X102.186 Y108.583 E369.554
G1 X95.495 Y115.113 E369.865
G1 X95.583 Y115.616 E369.882
G1 X94.467 Y116.718 E369.934
G1 X93.396 Y117.212 E369.973
G1 X89.628 Y120.98 E370.151
G1 X89.357 Y121.59 E370.173
G1 X89.319 Y121.806 E370.18
G1 X87.939 Y123.17 E370.245
G1 X87.597 Y123.012 E370.257
G1 F1800 E360.257
;Layer : 9 of 53
;rapid-leaky
G1 F236
G0 X84.63 Y125.526 Z1.9
G1 F1800 E370.257
;bead-perimeter_inner
G1 X100.461 Y109.695 F1560 E371.002
G1 Y92.246 E371.582
G1 X119.651 E372.22
G1 Y109.695 E372.801
G1 X135.482 Y125.526 E373.545
G1 X137.102 Y123.907 E373.621
G1 X137.56 Y123.499 E373.642
G1 X138.138 Y123.073 E373.666
G1 X138.397 Y122.911 E373.676
G1 X139.109 Y122.416 E373.705
G1 X139.448 Y122.162 E373.719
G1 X139.756 Y121.895 E373.732
G1 X140.043 Y121.608 E373.746
G1 X140.31 Y121.3 E373.759
G1 X140.796 Y120.635 E373.787
G1 X141.219 Y119.993 E373.812
G1 X141.647 Y119.412 E373.836
G1 X142.055 Y118.954 E373.857
G1 X142.875 Y118.133 E373.895
G1 X144.081 Y119.339 E373.952
G1 X135.899 Y127.52 E374.337
G1 X117.606 Y109.227 E375.197
G1 Y107.803 E375.245
G1 X118.685 E375.281
G1 Y93.338 E375.762
G1 X101.426 E376.336
G1 Y107.803 E376.817
G1 X102.506 E376.853
G1 Y109.225 E376.9
G1 X84.103 Y127.41 E377.761
G1 X75.919 Y119.226 E378.146
G1 X77.125 Y118.021 E378.202
G1 X78.001 Y118.898 E378.244
G1 X78.411 Y119.36 E378.264
G1 X78.833 Y119.933 E378.288
G1 X79.127 Y120.389 E378.306
G1 X79.618 Y121.08 E378.334
G1 X79.876 Y121.401 E378.348
G1 X80.154 Y121.699 E378.361
G1 X80.451 Y121.975 E378.375
G1 X80.771 Y122.233 E378.388
G1 X81.463 Y122.725 E378.417
G1 X81.919 Y123.02 E378.435
G1 X82.492 Y123.44 E378.458
G1 X82.954 Y123.851 E378.479
G1 X84.63 Y125.526 E378.558
;rapid-leaky
G1 F236
G0 X80.614 Y122.728
;bead-solid_infill
G1 X80.739 Y122.603 F2400 E378.564
G1 X80.578 Y122.489 E378.57
G1 X80.521 Y122.442 E378.573
G1 X80.417 Y122.359 E378.577
G1 X80.24 Y122.536 E378.585
G1 X80.012 Y122.39 E378.594
G1 X79.909 Y122.301 E378.599
G1 X80.113 Y122.098 E378.608
G1 X80.07 Y122.058 E378.61
G1 X79.927 Y121.926 E378.617
G1 X79.827 Y121.818 E378.622
G1 X79.621 Y122.024 E378.631
G1 X79.461 Y121.838 E378.64
G1 X79.375 Y121.704 E378.645
G1 X79.56 Y121.519 E378.654
G1 X79.363 Y121.273 E378.664
G1 X79.312 Y121.201 E378.667
G1 X79.172 Y121.342 E378.674
G1 X78.993 Y120.955 E378.688
G1 X79.059 Y120.888 E378.691
;rapid-leaky
G1 F236
G0 X84.63 Y125.01
;bead-perimeter_outer
G1 X100.096 Y109.544 F1080 E379.418
G1 Y91.881 E380.006
G1 X120.016 E380.668
G1 Y109.544 E381.256
G1 X135.482 Y125.01 E381.983
G1 X136.851 Y123.642 E382.048
G1 X137.33 Y123.216 E382.069
G1 X137.933 Y122.771 E382.094
G1 X138.57 Y122.352 E382.119
G1 X139.219 Y121.878 E382.146
G1 X139.507 Y121.627 E382.159
G1 X139.775 Y121.359 E382.171
G1 X140.026 Y121.071 E382.184
G1 X140.265 Y120.752 E382.197
G1 X140.639 Y120.218 E382.219
G1 X140.919 Y119.786 E382.236
G1 X141.364 Y119.182 E382.261
G1 X141.79 Y118.703 E382.282
G1 X142.875 Y117.617 E382.333
G1 X144.597 Y119.339 E382.414
G1 X135.899 Y128.036 E382.824
G1 X117.241 Y109.378 E383.701
G1 Y107.438 E383.766
G1 X118.32 E383.802
G1 Y93.703 E384.258
G1 X101.791 E384.808
G1 Y107.438 E385.265
G1 X102.871 E385.301
G1 Y109.377 E385.365
G1 X84.101 Y127.925 E386.243
G1 X75.403 Y119.226 E386.652
G1 X77.125 Y117.505 E386.733
G1 X78.266 Y118.647 E386.787
G1 X78.695 Y119.13 E386.808
G1 X79.133 Y119.726 E386.833
G1 X79.429 Y120.184 E386.851
G1 X79.909 Y120.86 E386.879
G1 X80.153 Y121.162 E386.892
G1 X80.412 Y121.441 E386.904
G1 X80.69 Y121.698 E386.917
G1 X80.992 Y121.942 E386.93
G1 X81.668 Y122.423 E386.957
G1 X82.126 Y122.719 E386.976
G1 X82.722 Y123.156 E387
G1 X83.205 Y123.586 E387.022
G1 X84.63 Y125.01 E387.089
;rapid-leaky
G1 F236
G0 X88.422 Y122.187
;bead-sparse_infill
G1 X88.74 Y122.109 F3600 E387.1
G1 X89.105 Y121.504 E387.123
G1 X93.278 Y117.331 E387.319
G1 X94.17 Y117.009 E387.351
G1 X94.172 Y117.01
G1 X95.889 Y114.72 E387.446
G1 X95.979 Y114.87 E387.452
G1 X96.267 Y114.94 E387.462
G1 F1800 E377.462
;rapid-dry
G1 F236
G0 X101.106 Y107.962
G1 F1800 E387.462
;bead-sparse_infill
G1 X100.781 Y107.845 F3600 E387.473
G1 Y99.236 E387.76
G1 X101.106 Y98.977 E387.774
G1 Y93.483 E387.956
G1 X100.781 Y93.366 E387.968
G1 X103.299 Y93.018 E388.052
G1 X103.572 Y92.566 E388.07
G1 X113.61 E388.404
G1 X114.079 Y92.939 E388.424
G1 X114.296 Y93.018 E388.431
G1 X117.778 E388.547
G1 X118.051 Y92.566 E388.565
;rapid-leaky
G1 F236
G0 X119.331 Y95.334
;bead-sparse_infill
G1 X119.005 Y95.413 F3600 E388.576
G1 X119.331 Y104.921 E388.892
G1 X119.005 Y105.462 E388.913
G1 X119.331 Y109.813 E389.058
G1 X118.779 Y109.947 E389.077
G1 X131.183 Y122.352 E389.661
G1 X131.724 Y122.22 E389.679
G1 X133.798 Y124.295 E389.777
G1 X133.258 Y124.427 E389.795
;rapid-leaky
G1 F236
G0 X136.221 Y125.24
;bead-sparse_infill
G1 X137.059 Y125.908 F3600 E389.831
;rapid-leaky
G1 F236
G0 X139.295 Y122.878
;bead-solid_infill
G1 X141.026 Y121.147 F2400 E389.912
;rapid-leaky
G1 F236
G0 X141.274 Y120.491
;bead-sparse_infill
G1 X141.942 Y121.025 F3600 E389.941
G1 F1800 E379.941
;Layer : 10 of 53
;rapid-leaky
G1 F236
G0 X141.448 Y119.759 Z2.1
G1 F1800 E389.941
;bead-perimeter_inner
G1 X141.813 Y119.246 F1560 E389.962
G1 X142.195 Y118.814 E389.981
G1 X142.875 Y118.133 E390.013
G1 X144.081 Y119.339 E390.07
G1 X135.899 Y127.52 E390.455
G1 X117.606 Y109.227 E391.315
G1 Y107.803 E391.362
G1 X118.685 E391.398
G1 Y93.338 E391.879
G1 X101.426 E392.453
G1 Y107.803 E392.935
G1 X102.506 E392.97
G1 Y109.225 E393.018
G1 X84.102 Y127.41 E393.878
G1 X75.919 Y119.226 E394.263
G1 X77.125 Y118.021 E394.32
G1 X77.861 Y118.758 E394.355
G1 X78.241 Y119.188 E394.374
G1 X78.605 Y119.702 E394.395
G1 X79.31 Y120.871 E394.44
G1 X79.546 Y121.208 E394.454
G1 X79.79 Y121.513 E394.467
G1 X80.053 Y121.799 E394.48
G1 X80.339 Y122.062 E394.492
G1 X80.851 Y122.453 E394.514
G1 X82.15 Y123.247 E394.565
G1 X82.664 Y123.611 E394.586
G1 X83.094 Y123.991 E394.605
G1 X84.63 Y125.526 E394.677
G1 X100.461 Y109.695 E395.421
G1 Y92.246 E396.002
G1 X119.651 E396.64
G1 Y109.695 E397.22
G1 X135.482 Y125.526 E397.965
G1 X136.962 Y124.047 E398.035
G1 X137.394 Y123.665 E398.054
G1 X137.907 Y123.3 E398.075
G1 X138.891 Y122.713 E398.113
G1 X139.248 Y122.482 E398.127
G1 X139.571 Y122.24 E398.14
G1 X139.86 Y121.987 E398.153
G1 X140.133 Y121.714 E398.166
G1 X140.388 Y121.423 E398.179
G1 X140.63 Y121.1 E398.192
G1 X140.861 Y120.743 E398.207
G1 X141.448 Y119.759 E398.245
;rapid-leaky
G1 F236
G0 X141.141 Y119.562
;bead-perimeter_outer
G1 X141.527 Y119.019 F1080 E398.267
G1 X141.929 Y118.564 E398.287
G1 X142.875 Y117.617 E398.332
G1 X144.597 Y119.339 E398.413
G1 X135.899 Y128.036 E398.822
G1 X117.241 Y109.378 E399.699
G1 Y107.438 E399.764
G1 X118.32 E399.8
G1 Y93.703 E400.257
G1 X101.791 E400.806
G1 Y107.438 E401.263
G1 X102.871 E401.299
G1 Y109.377 E401.363
G1 X84.101 Y127.925 E402.241
G1 X75.403 Y119.226 E402.65
G1 X77.125 Y117.505 E402.731
G1 X78.127 Y118.508 E402.778
G1 X78.527 Y118.96 E402.799
G1 X78.911 Y119.502 E402.821
G1 X79.616 Y120.672 E402.866
G1 X79.838 Y120.989 E402.879
G1 X80.067 Y121.275 E402.891
G1 X80.311 Y121.541 E402.903
G1 X80.577 Y121.785 E402.915
G1 X81.06 Y122.153 E402.935
G1 X82.35 Y122.941 E402.986
G1 X82.892 Y123.325 E403.008
G1 X83.344 Y123.725 E403.028
G1 X84.63 Y125.01 E403.088
G1 X100.096 Y109.544 E403.816
G1 Y91.881 E404.403
G1 X120.016 E405.066
G1 Y109.544 E405.653
G1 X135.482 Y125.01 E406.381
G1 X136.712 Y123.781 E406.438
G1 X137.167 Y123.379 E406.459
G1 X137.71 Y122.993 E406.481
G1 X138.703 Y122.4 E406.519
G1 X139.039 Y122.182 E406.533
G1 X139.341 Y121.956 E406.545
G1 X139.611 Y121.72 E406.557
G1 X139.866 Y121.465 E406.569
G1 X140.104 Y121.193 E406.581
G1 X140.33 Y120.891 E406.594
G1 X140.548 Y120.555 E406.607
G1 X141.141 Y119.562 E406.645
;rapid-leaky
G1 F236
G0 X141.933 Y121.034
;bead-sparse_infill
G1 X141.733 Y120.892 F3600 E406.654
;rapid-leaky
G1 F236
G0 X141.372 Y120.695
;bead-solid_infill
G1 X141.303 Y120.626 F2400 E406.657
G1 X141.132 Y120.913 E406.668
G1 X141.09 Y120.978 E406.671
G1 X141.251 Y121.14 E406.678
G1 X141.224 Y121.238 E406.682
G1 X141.1 Y121.554 E406.693
G1 X140.865 Y121.32 E406.704
G1 X140.637 Y121.625 E406.717
G1 X140.622 Y121.642
G1 X140.911 Y121.931 E406.731
G1 X140.906 Y121.94
G1 X140.698 Y122.26 E406.744
G1 X140.686 Y122.272
G1 X140.357 Y121.943 E406.76
G1 X140.079 Y122.22 E406.773
G1 X140.074 Y122.225
G1 X140.403 Y122.554 E406.789
G1 X140.087 Y122.758 E406.801
G1 X140.057 Y122.774 E406.802
G1 X139.772 Y122.489 E406.816
G1 X139.449 Y122.731 E406.829
G1 X139.678 Y122.961 E406.84
G1 X139.386 Y123.076 E406.85
G1 X139.262 Y123.11 E406.855
G1 X139.106 Y122.955 E406.862
G1 X139.06 Y122.984 E406.864
G1 X138.754 Y123.168 E406.876
G1 X138.817 Y123.231 E406.879
;rapid-leaky
G1 F236
G0 X136.198 Y125.263
;bead-sparse_infill
G1 X137.077 Y125.89 F3600 E406.915
;rapid-leaky
G1 F236
G0 X133.505 Y124.674
;bead-sparse_infill
G1 X133.985 Y124.481 F3600 E406.932
G1 X131.406 Y121.903 E407.053
G1 X130.927 Y122.095 E407.07
G1 X119.505 Y110.002 E407.624
G1 X119.026 Y110.194 E407.641
G1 X119.005 Y105.263 E407.805
G1 X119.331 Y104.801 E407.824
G1 X119.005 Y95.724 E408.126
G1 X119.331 Y95.593 E408.137
;rapid-leaky
G1 F236
G0 X117.747 Y92.566
;bead-sparse_infill
G1 X117.698 Y92.635 F3600 E408.14
G1 X116.743 Y93.018 E408.174
G1 X114.639 E408.244
G1 X114.079 Y92.864 E408.264
G1 X113.661 Y92.566 E408.281
G1 X103.267 E408.626
G1 X103.219 Y92.635 E408.629
G1 X102.264 Y93.018 E408.663
G1 X101.106 Y93.278 E408.703
G1 X100.781 Y93.189 E408.714
G1 X101.106 Y99.028 E408.909
G1 X100.781 Y99.26 E408.922
G1 X101.106 Y107.757 E409.205
G1 X100.781 Y107.668 E409.216
G1 F1800 E399.216
;rapid-dry
G1 F236
G0 X96.606 Y114.605
G1 F1800 E409.216
;bead-sparse_infill
G1 X96.176 Y114.432 F3600 E409.231
G1 X93.85 Y117.328 E409.355
G1 X93.065 Y117.544 E409.382
G1 F1800 E399.382
;rapid-dry
G1 F236
G0 X81.016 Y123.13
G1 F1800 E409.382
;bead-solid_infill
G1 X80.388 Y122.502 F2400 E409.412
G1 X80.133 Y122.307 E409.422
G1 X79.827 Y122.025 E409.436
G1 X79.547 Y121.722 E409.45
G1 X79.303 Y121.417 E409.463
G1 X78.722 Y120.836 E409.49
G1 X78.901 Y121.379 E409.509
G1 X79.068 Y121.736 E409.522
G1 X79.089 Y121.768 E409.523
G1 X80.083 Y122.763 E409.57
G1 F1800 E399.57
;Layer : 11 of 53
;rapid-leaky
G1 F236
G0 X80.511 Y122.427 Z2.3
G1 F1800 E409.57
;bead-perimeter_inner
G1 X80.862 Y122.637 F1560 E409.584
G1 X81.762 Y123.105 E409.618
G1 X82.34 Y123.433 E409.64
G1 X82.812 Y123.758 E409.659
G1 X83.211 Y124.108 E409.676
G1 X84.63 Y125.526 E409.743
G1 X100.461 Y109.695 E410.488
G1 Y92.246 E411.068
G1 X119.651 E411.706
G1 Y109.695 E412.287
G1 X135.482 Y125.526 E413.031
G1 X136.844 Y124.164 E413.095
G1 X137.245 Y123.813 E413.113
G1 X137.719 Y123.487 E413.132
G1 X138.288 Y123.166 E413.154
G1 X138.675 Y122.978 E413.168
G1 X139.373 Y122.591 E413.195
G1 X139.708 Y122.371 E413.208
G1 X140.007 Y122.126 E413.221
G1 X140.273 Y121.858 E413.234
G1 X140.518 Y121.561 E413.246
G1 X140.739 Y121.225 E413.26
G1 X141.126 Y120.527 E413.286
G1 X141.314 Y120.14 E413.301
G1 X141.635 Y119.571 E413.322
G1 X141.961 Y119.097 E413.342
G1 X142.312 Y118.696 E413.359
G1 X142.875 Y118.133 E413.386
G1 X144.081 Y119.339 E413.443
G1 X135.899 Y127.52 E413.827
G1 X117.606 Y109.227 E414.688
G1 Y107.803 E414.735
G1 X118.685 E414.771
G1 Y93.338 E415.252
G1 X101.426 E415.826
G1 Y107.803 E416.307
G1 X102.506 E416.343
G1 Y109.225 E416.391
G1 X84.102 Y127.41 E417.251
G1 X75.919 Y119.226 E417.636
G1 X77.125 Y118.021 E417.693
G1 X77.744 Y118.64 E417.722
G1 X78.092 Y119.039 E417.739
G1 X78.419 Y119.512 E417.759
G1 X78.747 Y120.09 E417.781
G1 X79.035 Y120.663 E417.802
G1 X79.425 Y121.341 E417.828
G1 X79.655 Y121.655 E417.841
G1 X79.911 Y121.94 E417.854
G1 X80.195 Y122.196 E417.866
G1 X80.511 Y122.427 E417.879
;rapid-leaky
G1 F236
G0 X80.712 Y122.122
;bead-perimeter_outer
G1 X81.367 Y122.497 F1080 E417.904
G1 X81.931 Y122.781 E417.925
G1 X82.533 Y123.122 E417.948
G1 X83.037 Y123.47 E417.969
G1 X83.46 Y123.841 E417.988
G1 X84.63 Y125.01 E418.043
G1 X100.096 Y109.544 E418.77
G1 Y91.881 E419.358
G1 X120.016 E420.02
G1 Y109.544 E420.608
G1 X135.482 Y125.01 E421.335
G1 X136.595 Y123.897 E421.387
G1 X137.021 Y123.524 E421.406
G1 X137.525 Y123.177 E421.427
G1 X138.119 Y122.842 E421.449
G1 X138.505 Y122.655 E421.463
G1 X139.187 Y122.276 E421.489
G1 X139.492 Y122.076 E421.502
G1 X139.761 Y121.855 E421.513
G1 X140.002 Y121.613 E421.525
G1 X140.224 Y121.344 E421.536
G1 X140.424 Y121.039 E421.548
G1 X140.803 Y120.357 E421.574
G1 X140.99 Y119.971 E421.588
G1 X141.325 Y119.377 E421.611
G1 X141.672 Y118.873 E421.632
G1 X142.045 Y118.447 E421.65
G1 X142.875 Y117.617 E421.689
G1 X144.597 Y119.339 E421.77
G1 X135.899 Y128.036 E422.179
G1 X117.241 Y109.378 E423.057
G1 Y107.438 E423.122
G1 X118.32 E423.158
G1 Y93.703 E423.614
G1 X101.791 E424.164
G1 Y107.438 E424.621
G1 X102.871 E424.657
G1 Y109.377 E424.721
G1 X84.101 Y127.925 E425.599
G1 X75.403 Y119.226 E426.008
G1 X77.125 Y117.505 E426.089
G1 X78.011 Y118.391 E426.131
G1 X78.381 Y118.815 E426.15
G1 X78.73 Y119.319 E426.17
G1 X79.071 Y119.921 E426.193
G1 X79.354 Y120.484 E426.214
G1 X79.73 Y121.14 E426.239
G1 X79.938 Y121.425 E426.251
G1 X80.169 Y121.682 E426.262
G1 X80.426 Y121.912 E426.274
G1 X80.712 Y122.122 E426.286
;rapid-leaky
G1 F236
G0 X81.266 Y123.207
;bead-solid_infill
G1 X81.123 Y123.35 F2400 E426.292
G1 X81.03 Y123.337 E426.295
G1 X80.668 Y123.258 E426.308
G1 X80.652 Y123.255
G1 X80.894 Y123.014 E426.32
G1 X80.706 Y122.916 E426.327
G1 X80.574 Y122.837 E426.332
G1 X80.531 Y122.811 E426.333
G1 X80.243 Y123.098 E426.347
G1 X79.961 Y122.816 E426.36
G1 X80.189 Y122.588 E426.371
G1 X79.993 Y122.445 E426.379
G1 X79.903 Y122.363 E426.383
G1 X79.874 Y122.337 E426.384
G1 X79.678 Y122.533 E426.394
G1 X79.395 Y122.25 E426.407
G1 X79.587 Y122.058 E426.416
G1 X79.406 Y121.857 E426.425
G1 X79.328 Y121.751 E426.429
G1 X79.112 Y121.967 E426.439
G1 X78.829 Y121.684 E426.453
G1 X79.099 Y121.415 E426.465
G1 X78.892 Y121.056 E426.479
G1 X78.614 Y121.334 E426.492
G1 X78.595 Y121.184 E426.497
G1 X78.522 Y120.86 E426.508
G1 X78.691 Y120.691 E426.516
G1 X78.502 Y120.314 E426.53
G1 X78.455 Y120.362 E426.533
G1 F1800 E416.533
;rapid-dry
G1 F236
G0 X92.916 Y117.693
G1 F1800 E426.533
;bead-sparse_infill
G1 X93.621 Y117.555 F3600 E426.556
G1 X96.414 Y114.195 E426.702
G1 X96.819 Y114.394 E426.717
G1 F1800 E416.717
;rapid-dry
G1 F236
G0 X100.781 Y107.51
G1 F1800 E426.717
;bead-sparse_infill
G1 X101.106 Y107.574 F3600 E426.728
G1 X100.781 Y99.291 E427.004
G1 X101.106 Y99.084 E427.016
G1 Y93.095 E427.216
G1 X100.781 Y93.031 E427.227
G1 X101.685 Y93.018 E427.257
G1 X102.602 Y92.566 E427.291
G1 X113.709 E427.66
G1 X114.079 Y92.8 E427.675
G1 X115.193 Y93.018 E427.712
G1 X116.164 E427.745
G1 X117.081 Y92.566 E427.779
G1 F1800 E417.779
;rapid-dry
G1 F236
G0 X119.331 Y95.816
G1 F1800 E427.779
;bead-sparse_infill
G1 X119.005 Y95.977 F3600 E427.791
G1 X119.331 Y104.692 E428.081
G1 X119.005 Y105.101 E428.098
G1 X119.194 Y110.363 E428.273
G1 X119.508 Y110.208 E428.285
G1 X119.761 Y110.257 E428.294
G1 X130.754 Y121.922 E428.827
G1 X131.204 Y121.7 E428.843
G1 X133.674 Y124.842 E428.976
G1 X133.987 Y124.687 E428.988
G1 X134.24 Y124.737 E428.996
;rapid-leaky
G1 F236
G0 X137.1 Y125.867
;bead-sparse_infill
G1 X136.178 Y125.282 F3600 E429.033
;rapid-leaky
G1 F236
G0 X139.021 Y123.152
;bead-solid_infill
G1 X138.739 Y123.434 F2400 E429.046
G1 X139.248 Y123.35 E429.063
G1 X139.389 Y123.311 E429.068
G1 X139.43 Y123.308 E429.069
G1 X141.456 Y121.282 E429.165
G1 X141.459 Y121.241 E429.166
G1 X141.498 Y121.1 E429.171
G1 X141.582 Y120.591 E429.188
G1 X141.3 Y120.873 E429.201
G1 F1800 E419.201
;Layer : 12 of 53
;rapid-leaky
G1 F236
G0 X141.034 Y121.06 Z2.5
G1 F1800 E429.201
;bead-perimeter_inner
G1 X141.523 Y119.922 F1560 E429.243
G1 X141.8 Y119.402 E429.262
G1 X142.094 Y118.963 E429.28
G1 X142.429 Y118.579 E429.297
G1 X142.875 Y118.133 E429.318
G1 X144.081 Y119.339 E429.374
G1 X135.899 Y127.52 E429.759
G1 X117.606 Y109.227 E430.62
G1 Y107.803 E430.667
G1 X118.685 E430.703
G1 Y93.338 E431.184
G1 X101.426 E431.758
G1 Y107.803 E432.239
G1 X102.506 E432.275
G1 Y109.225 E432.322
G1 X84.103 Y127.41 E433.183
G1 X75.919 Y119.226 E433.568
G1 X77.125 Y118.021 E433.625
G1 X77.627 Y118.523 E433.648
G1 X77.964 Y118.91 E433.665
G1 X78.26 Y119.351 E433.683
G1 X78.531 Y119.861 E433.702
G1 X78.812 Y120.49 E433.725
G1 X78.934 Y120.81 E433.736
G1 X79.113 Y121.181 E433.75
G1 X79.276 Y121.484 E433.762
G1 X79.489 Y121.817 E433.775
G1 X79.741 Y122.11 E433.788
G1 X80.033 Y122.362 E433.8
G1 X80.368 Y122.576 E433.814
G1 X81.042 Y122.919 E433.839
G1 X81.361 Y123.039 E433.85
G1 X81.987 Y123.319 E433.873
G1 X82.505 Y123.594 E433.892
G1 X82.941 Y123.887 E433.91
G1 X83.328 Y124.225 E433.927
G1 X84.63 Y125.526 E433.988
G1 X100.461 Y109.695 E434.733
G1 Y92.246 E435.313
G1 X119.651 E435.951
G1 Y109.695 E436.532
G1 X135.482 Y125.526 E437.276
G1 X136.727 Y124.281 E437.335
G1 X137.111 Y123.946 E437.352
G1 X137.55 Y123.652 E437.37
G1 X138.07 Y123.375 E437.389
G1 X139.208 Y122.886 E437.43
G1 X139.861 Y122.53 E437.455
G1 X140.173 Y122.297 E437.468
G1 X140.444 Y122.024 E437.481
G1 X140.678 Y121.713 E437.494
G1 X141.034 Y121.06 E437.518
;rapid-leaky
G1 F236
G0 X140.705 Y120.9
;bead-perimeter_outer
G1 X140.907 Y120.404 F1080 E437.536
G1 X141.193 Y119.765 E437.56
G1 X141.487 Y119.214 E437.58
G1 X141.804 Y118.741 E437.599
G1 X142.162 Y118.33 E437.617
G1 X142.875 Y117.617 E437.651
G1 X144.597 Y119.339 E437.732
G1 X135.899 Y128.036 E438.141
G1 X117.241 Y109.378 E439.019
G1 Y107.438 E439.083
G1 X118.32 E439.119
G1 Y93.703 E439.576
G1 X101.791 E440.126
G1 Y107.438 E440.583
G1 X102.871 E440.618
G1 Y109.377 E440.683
G1 X84.101 Y127.925 E441.561
G1 X75.403 Y119.226 E441.97
G1 X77.125 Y117.505 E442.051
G1 X77.894 Y118.273 E442.087
G1 X78.254 Y118.688 E442.105
G1 X78.573 Y119.163 E442.124
G1 X78.863 Y119.708 E442.145
G1 X79.149 Y120.349 E442.168
G1 X79.269 Y120.665 E442.179
G1 X79.435 Y121.009 E442.192
G1 X79.597 Y121.308 E442.203
G1 X79.782 Y121.599 E442.215
G1 X80 Y121.851 E442.226
G1 X80.252 Y122.069 E442.237
G1 X80.544 Y122.255 E442.248
G1 X81.186 Y122.583 E442.272
G1 X81.502 Y122.702 E442.284
G1 X82.142 Y122.988 E442.307
G1 X82.69 Y123.279 E442.328
G1 X83.164 Y123.597 E442.347
G1 X83.577 Y123.958 E442.365
G1 X84.63 Y125.01 E442.414
G1 X100.096 Y109.544 E443.142
G1 Y91.881 E443.729
G1 X120.016 E444.392
G1 Y109.544 E444.979
G1 X135.482 Y125.01 E445.707
G1 X136.478 Y124.014 E445.754
G1 X136.889 Y123.656 E445.772
G1 X137.362 Y123.339 E445.791
G1 X137.913 Y123.045 E445.811
G1 X138.552 Y122.759 E445.835
G1 X139.048 Y122.557 E445.853
G1 X139.663 Y122.222 E445.876
G1 X139.933 Y122.021 E445.887
G1 X140.168 Y121.785 E445.898
G1 X140.37 Y121.515 E445.909
G1 X140.705 Y120.9 E445.933
G1 F1800 E435.933
;rapid-dry
G1 F236
G0 X141.768 Y120.526
G1 F1800 E445.933
;bead-solid_infill
G1 X141.659 Y120.416 F2400 E445.938
G1 X141.489 Y120.812 E445.952
G1 X141.74 Y121.063 E445.964
G1 X141.745 Y121.222 E445.969
G1 X141.566 Y121.402 E445.978
G1 X141.539 Y121.428 E445.979
G1 X141.318 Y121.207 E445.989
G1 X141.119 Y121.573 E446.003
G1 X141.256 Y121.711 E446.01
G1 X140.974 Y121.994 E446.023
G1 X140.913 Y121.933 E446.026
G1 X140.687 Y122.234 E446.038
G1 X140.668 Y122.254 E446.039
G1 X140.691 Y122.276 E446.04
G1 X140.408 Y122.559 E446.054
G1 X140.386 Y122.537 E446.055
G1 X140.383 Y122.54
G1 X140.062 Y122.779 E446.068
G1 X140.125 Y122.842 E446.071
G1 X139.842 Y123.125 E446.084
G1 X139.7 Y122.982 E446.091
G1 X139.348 Y123.174 E446.104
G1 X139.332 Y123.181 E446.105
G1 X139.559 Y123.408 E446.116
G1 X139.37 Y123.597 E446.125
G1 X139.177 Y123.591 E446.131
G1 X138.937 Y123.351 E446.142
G1 X138.541 Y123.521 E446.157
G1 X138.643 Y123.623 E446.161
;rapid-leaky
G1 F236
G0 X137.129 Y125.838
;bead-sparse_infill
G1 X136.163 Y125.298 F3600 E446.198
;rapid-leaky
G1 F236
G0 X134.431 Y124.928
;bead-sparse_infill
G1 X133.987 Y124.874 F3600 E446.213
G1 X133.807 Y124.975 E446.22
G1 X131.049 Y121.546 E446.366
G1 X130.618 Y121.786 E446.383
G1 X119.952 Y110.449 E446.901
G1 X119.508 Y110.395 E446.915
G1 X119.327 Y110.496 E446.922
G1 X119.005 Y104.957 E447.107
G1 X119.331 Y104.587 E447.123
G1 X119.005 Y96.196 E447.402
G1 X119.331 Y96.014 E447.415
G1 F1800 E437.415
;rapid-dry
G1 F236
G0 X116.609 Y92.566
G1 F1800 E447.415
;bead-sparse_infill
G1 X115.888 Y92.967 F3600 E447.442
G1 X114.079 Y92.748 E447.503
G1 X113.753 Y92.566 E447.515
G1 X102.129 E447.902
G1 X101.409 Y92.967 E447.929
G1 X100.781 Y92.891 E447.95
G1 X101.106 Y99.145 E448.159
G1 X100.781 Y99.327 E448.171
G1 X101.106 Y107.41 E448.44
G1 X100.781 Y107.37 E448.451
G1 F1800 E438.451
;rapid-dry
G1 F236
G0 X96.98 Y114.235
G1 F1800 E448.451
;bead-sparse_infill
G1 X96.59 Y114.018 F3600 E448.466
G1 X93.452 Y117.721 E448.627
G1 X92.809 Y117.799 E448.649
G1 F1800 E438.649
;rapid-dry
G1 F236
G0 X81.21 Y123.324
G1 F1800 E448.649
;bead-solid_infill
G1 X81.389 Y123.503 F2400 E448.657
G1 X80.859 Y123.539 E448.675
G1 X80.113 Y122.792 E448.71
G1 X79.06 Y121.739 E448.76
G1 X78.312 Y120.992 E448.795
G1 X78.35 Y120.464 E448.812
G1 X78.527 Y120.641 E448.821
G1 F1800 E438.821
;Layer : 13 of 53
;rapid-leaky
G1 F236
G0 X78.567 Y120.224 Z2.7
G1 F1800 E448.821
;bead-perimeter_inner
G1 X78.934 Y121.366 F1560 E448.861
G1 X79.099 Y121.72 E448.874
G1 X79.264 Y122.017 E448.885
G1 X79.52 Y122.333 E448.898
G1 X79.836 Y122.587 E448.912
G1 X80.131 Y122.752 E448.923
G1 X80.485 Y122.918 E448.936
G1 X81.628 Y123.285 E448.976
G1 X82.169 Y123.493 E448.995
G1 X82.646 Y123.734 E449.013
G1 X83.062 Y124.008 E449.03
G1 X83.421 Y124.318 E449.046
G1 X84.63 Y125.526 E449.102
G1 X100.461 Y109.695 E449.847
G1 Y92.246 E450.427
G1 X119.651 E451.066
G1 Y109.695 E451.646
G1 X135.482 Y125.526 E452.391
G1 X136.635 Y124.374 E452.445
G1 X136.999 Y124.059 E452.461
G1 X137.41 Y123.788 E452.477
G1 X137.884 Y123.551 E452.495
G1 X138.432 Y123.337 E452.514
G1 X138.605 Y123.291 E452.52
G1 X139.095 Y123.119 E452.538
G1 X139.375 Y123.043 E452.547
G1 X139.746 Y122.897 E452.56
G1 X140.07 Y122.728 E452.573
G1 X140.386 Y122.523 E452.585
G1 X140.671 Y122.238 E452.599
G1 X140.876 Y121.922 E452.611
G1 X141.045 Y121.598 E452.623
G1 X141.191 Y121.227 E452.637
G1 X141.267 Y120.947 E452.646
G1 X141.439 Y120.457 E452.663
G1 X141.485 Y120.284 E452.669
G1 X141.699 Y119.736 E452.689
G1 X141.936 Y119.262 E452.707
G1 X142.207 Y118.851 E452.723
G1 X142.522 Y118.487 E452.739
G1 X142.875 Y118.133 E452.756
G1 X144.081 Y119.339 E452.812
G1 X135.899 Y127.52 E453.197
G1 X117.606 Y109.227 E454.058
G1 Y107.803 E454.105
G1 X118.685 E454.141
G1 Y93.338 E454.622
G1 X101.426 E455.196
G1 Y107.803 E455.677
G1 X102.506 E455.713
G1 Y109.225 E455.76
G1 X84.102 Y127.41 E456.621
G1 X75.919 Y119.226 E457.006
G1 X77.125 Y118.021 E457.062
G1 X77.534 Y118.431 E457.082
G1 X77.843 Y118.788 E457.097
G1 X78.117 Y119.205 E457.114
G1 X78.358 Y119.684 E457.132
G1 X78.567 Y120.224 E457.151
;rapid-leaky
G1 F236
G0 X78.913 Y120.105
;bead-perimeter_outer
G1 X79.274 Y121.231 F1080 E457.19
G1 X79.42 Y121.544 E457.202
G1 X79.573 Y121.818 E457.212
G1 X79.779 Y122.073 E457.223
G1 X80.034 Y122.278 E457.234
G1 X80.307 Y122.432 E457.245
G1 X80.62 Y122.578 E457.256
G1 X81.747 Y122.939 E457.295
G1 X82.317 Y123.159 E457.316
G1 X82.83 Y123.417 E457.335
G1 X83.283 Y123.717 E457.353
G1 X83.67 Y124.051 E457.37
G1 X84.63 Y125.01 E457.415
G1 X100.096 Y109.544 E458.143
G1 Y91.881 E458.73
G1 X120.016 E459.393
G1 Y109.544 E459.98
G1 X135.482 Y125.01 E460.707
G1 X136.386 Y124.106 E460.75
G1 X136.778 Y123.767 E460.767
G1 X137.228 Y123.472 E460.785
G1 X137.739 Y123.216 E460.804
G1 X138.314 Y122.991 E460.825
G1 X138.499 Y122.942 E460.831
G1 X138.975 Y122.773 E460.848
G1 X139.26 Y122.696 E460.858
G1 X139.594 Y122.564 E460.87
G1 X139.886 Y122.412 E460.881
G1 X140.155 Y122.237 E460.891
G1 X140.385 Y122.007 E460.902
G1 X140.56 Y121.738 E460.913
G1 X140.712 Y121.446 E460.924
G1 X140.844 Y121.112 E460.936
G1 X140.921 Y120.827 E460.945
G1 X141.09 Y120.351 E460.962
G1 X141.139 Y120.166 E460.969
G1 X141.364 Y119.591 E460.989
G1 X141.62 Y119.08 E461.008
G1 X141.915 Y118.63 E461.026
G1 X142.254 Y118.238 E461.043
G1 X142.875 Y117.617 E461.073
G1 X144.597 Y119.339 E461.154
G1 X135.899 Y128.036 E461.563
G1 X117.241 Y109.378 E462.44
G1 Y107.438 E462.505
G1 X118.32 E462.541
G1 Y93.703 E462.997
G1 X101.791 E463.547
G1 Y107.438 E464.004
G1 X102.871 E464.04
G1 Y109.377 E464.104
G1 X84.101 Y127.925 E464.982
G1 X75.403 Y119.226 E465.391
G1 X77.125 Y117.505 E465.472
G1 X77.801 Y118.182 E465.504
G1 X78.135 Y118.568 E465.521
G1 X78.434 Y119.022 E465.539
G1 X78.692 Y119.535 E465.558
G1 X78.913 Y120.105 E465.579
;rapid-leaky
G1 F236
G0 X78.594 Y121.354
;bead-solid_infill
G1 X78.546 Y121.401 F2400 E465.581
G1 X78.264 Y121.118 E465.594
G1 X78.457 Y120.926 E465.603
G1 X78.319 Y120.497 E465.618
G1 X78.113 Y120.703 E465.628
G1 F1800 E455.628
;rapid-dry
G1 F236
G0 X80.243 Y121.267 Z3
G1 F1800 E465.628
;bead-support-structure
G1 X80.583 Y121.607 F4200 E465.64
G1 F1800 E455.64
G1 F236
G0 X80.243 Y121.267
G0 X80.583 Y121.607
;rapid-dry
G1 F236
G0 X80.613 Y123.295 Z2.7
G1 F1800 E465.64
;bead-solid_infill
G1 X80.526 Y123.381 F2400 E465.644
G1 X80.809 Y123.664 E465.657
G1 X81.041 Y123.432 E465.668
G1 X81.469 Y123.57 E465.683
G1 X81.326 Y123.713 E465.69
G1 F1800 E455.69
;rapid-dry
G1 F236
G0 X92.732 Y117.877
G1 F1800 E465.69
;bead-sparse_infill
G1 X93.326 Y117.847 F3600 E465.71
G1 X96.733 Y113.875 E465.884
G1 X97.112 Y114.105 E465.898
G1 F1800 E455.898
;rapid-dry
G1 F236
G0 X100.781 Y107.245
G1 F1800 E465.898
;bead-sparse_infill
G1 X101.106 Y107.262 F3600 E465.909
G1 X100.781 Y99.37 E466.172
G1 X101.106 Y99.211 E466.184
G1 X100.781 Y92.766 E466.399
G1 X101.409 Y92.798 E466.42
G1 X101.791 Y92.566 E466.434
G1 X113.791 E466.833
G1 X114.079 Y92.706 E466.844
G1 X115.888 Y92.798 E466.904
G1 X116.27 Y92.566 E466.919
G1 F1800 E456.919
;rapid-dry
G1 F236
G0 X119.331 Y96.193
G1 F1800 E466.919
;bead-sparse_infill
G1 X119.005 Y96.39 F3600 E466.932
G1 X119.331 Y104.483 E467.201
G1 X119.005 Y104.821 E467.217
G1 X119.438 Y110.607 E467.41
G1 X119.508 Y110.564 E467.413
G1 X120.098 Y110.594 E467.432
G1 X130.505 Y121.673 E467.938
G1 X130.923 Y121.419 E467.954
G1 X133.917 Y125.086 E468.112
G1 X133.987 Y125.043 E468.114
G1 X134.577 Y125.073 E468.134
;rapid-leaky
G1 F236
G0 X137.165 Y125.802
;bead-sparse_infill
G1 X136.152 Y125.308 F3600 E468.171
;rapid-leaky
G1 F236
G0 X138.531 Y123.642
;bead-solid_infill
G1 X138.452 Y123.721 F2400 E468.175
G1 X138.876 Y123.794 E468.189
G1 X138.938 Y123.801 E468.191
G1 X139.36 Y123.379 E468.211
;rapid-leaky
G1 F236
G0 X141.527 Y121.212
;bead-solid_infill
G1 X141.949 Y120.79 F2400 E468.231
G1 X141.942 Y120.728 E468.233
G1 X141.869 Y120.304 E468.248
G1 X141.79 Y120.383 E468.251
G1 F1800 E458.251
;Layer : 14 of 53
;rapid-leaky
G1 F236
G0 X141.677 Y120.073 Z2.9
G1 F1800 E468.251
;bead-perimeter_inner
G1 X141.85 Y119.577 F1560 E468.269
G1 X142.059 Y119.137 E468.285
G1 X142.315 Y118.741 E468.301
G1 X142.612 Y118.397 E468.316
G1 X142.875 Y118.133 E468.328
G1 X144.081 Y119.339 E468.385
G1 X141.216 Y122.204 E468.52
G1 X141.244 Y122.14 E468.522
G1 X141.261 Y122.004 E468.526
G1 X141.322 Y121.85 E468.532
G1 X141.411 Y121.43 E468.546
G1 X141.425 Y121.236 E468.553
G1 X141.464 Y121.093 E468.558
G1 X141.541 Y120.623 E468.573
G1 X141.677 Y120.073 E468.592
G1 F1800 E458.592
;rapid-dry
G1 F236
G0 X140.351 Y123.068
G1 F1800 E468.592
;bead-perimeter_inner
G1 X135.899 Y127.52 F1560 E468.802
G1 X117.606 Y109.227 E469.662
G1 Y107.803 E469.71
G1 X118.685 E469.745
G1 Y93.338 E470.227
G1 X101.426 E470.801
G1 Y107.803 E471.282
G1 X102.506 E471.318
G1 Y109.225 E471.365
G1 X84.102 Y127.41 E472.225
G1 X79.697 Y123.004 E472.433
G1 X80.259 Y123.169 E472.452
G1 X80.674 Y123.223 E472.466
G1 X81.036 Y123.303 E472.478
G1 X81.282 Y123.335 E472.487
G1 X81.836 Y123.474 E472.506
G1 X82.328 Y123.645 E472.523
G1 X82.771 Y123.856 E472.539
G1 X83.161 Y124.107 E472.555
G1 X83.512 Y124.409 E472.57
G1 X84.63 Y125.526 E472.623
G1 X100.461 Y109.695 E473.367
G1 Y92.246 E473.948
G1 X119.651 E474.586
G1 Y109.695 E475.166
G1 X135.482 Y125.526 E475.911
G1 X136.545 Y124.464 E475.961
G1 X136.889 Y124.167 E475.976
G1 X137.285 Y123.911 E475.992
G1 X137.725 Y123.702 E476.008
G1 X138.221 Y123.529 E476.025
G1 X138.771 Y123.393 E476.044
G1 X139.241 Y123.316 E476.06
G1 X139.384 Y123.277 E476.065
G1 X139.578 Y123.263 E476.071
G1 X139.998 Y123.174 E476.086
G1 X140.152 Y123.113 E476.091
G1 X140.288 Y123.096 E476.096
G1 X140.351 Y123.068 E476.098
G1 F1800 E466.098
;rapid-dry
G1 F236
G0 X81.481 Y122.015 Z3.2
G1 F1800 E476.098
;bead-support-structure
G1 X80.898 Y121.922 F4200 E476.113
G1 X80.586 Y121.61 E476.124
G1 F1800 E466.124
G1 F236
G0 X80.898 Y121.922
G0 X81.252 Y121.979
G0 X80.898 Y121.922
G0 X80.586 Y121.61
;rapid-dry
G1 F236
G0 Z2.9
G1 F1800 E476.124
;bead-support-structure
G1 X80.24 Y121.264 F4200 E476.136
G1 F1800 E466.136
G1 F236
G0 X80.586 Y121.61
G0 X80.24 Y121.264
;rapid-dry
G1 F236
G0 Z3.2
G1 F1800 E476.136
;bead-support-structure
G1 X79.93 Y120.954 F4200 E476.147
G1 X79.838 Y120.371 E476.162
G1 X79.75 Y120.641 E476.169
G1 F1800 E466.169
G1 F236
G0 X79.838 Y120.371
G0 X79.919 Y120.881
G0 X79.838 Y120.371
G0 X79.75 Y120.641
;rapid-dry
G1 F236
G0 X78.548 Y120.815 Z2.9
G1 F1800 E476.169
;bead-perimeter_inner
G1 X78.629 Y121.178 F1560 E476.181
G1 X78.683 Y121.592 E476.195
G1 X78.847 Y122.154 E476.215
G1 X75.919 Y119.226 E476.352
G1 X77.125 Y118.021 E476.409
G1 X77.444 Y118.341 E476.424
G1 X77.745 Y118.69 E476.439
G1 X77.995 Y119.079 E476.455
G1 X78.206 Y119.524 E476.471
G1 X78.378 Y120.017 E476.488
G1 X78.516 Y120.568 E476.507
G1 X78.548 Y120.815 E476.516
;rapid-leaky
G1 F236
G0 X78.244 Y120.924
;bead-solid_infill
G1 X77.936 Y120.616 F2400 E476.53
G1 X78.021 Y120.193 E476.544
G1 X78.09 Y120.204 E476.547
G1 X78.096 Y120.21
;rapid-leaky
G1 F236
G0 X78.729 Y119.915
;bead-perimeter_outer
G1 X78.875 Y120.492 F1080 E476.567
G1 X78.908 Y120.752 E476.576
G1 X78.989 Y121.115 E476.588
G1 X79.041 Y121.514 E476.601
G1 X79.224 Y122.156 E476.624
G1 X79.416 Y122.436 E476.635
G1 X79.695 Y122.627 E476.646
G1 X80.338 Y122.811 E476.668
G1 X80.737 Y122.863 E476.682
G1 X81.099 Y122.943 E476.694
G1 X81.358 Y122.977 E476.703
G1 X81.937 Y123.123 E476.723
G1 X82.467 Y123.306 E476.741
G1 X82.949 Y123.537 E476.759
G1 X83.38 Y123.814 E476.776
G1 X83.76 Y124.141 E476.793
G1 X84.63 Y125.01 E476.834
G1 X100.096 Y109.544 E477.561
G1 Y91.881 E478.149
G1 X120.016 E478.811
G1 Y109.544 E479.399
G1 X135.482 Y125.01 E480.126
G1 X136.296 Y124.197 E480.164
G1 X136.67 Y123.874 E480.181
G1 X137.107 Y123.592 E480.198
G1 X137.589 Y123.362 E480.216
G1 X138.121 Y123.177 E480.235
G1 X138.695 Y123.036 E480.254
G1 X139.163 Y122.959 E480.27
G1 X139.322 Y122.915 E480.275
G1 X139.527 Y122.901 E480.282
G1 X139.893 Y122.823 E480.295
G1 X140.061 Y122.757 E480.301
G1 X140.189 Y122.741 E480.305
G1 X140.509 Y122.6 E480.317
G1 X140.612 Y122.499 E480.321
G1 X140.748 Y122.361 E480.328
G1 X140.889 Y122.041 E480.34
G1 X140.905 Y121.913 E480.344
G1 X140.971 Y121.745 E480.35
G1 X141.049 Y121.379 E480.362
G1 X141.063 Y121.174 E480.369
G1 X141.107 Y121.015 E480.375
G1 X141.184 Y120.547 E480.39
G1 X141.325 Y119.973 E480.41
G1 X141.51 Y119.441 E480.429
G1 X141.74 Y118.959 E480.447
G1 X142.022 Y118.522 E480.464
G1 X142.345 Y118.148 E480.48
G1 X142.875 Y117.617 E480.505
G1 X144.597 Y119.339 E480.586
G1 X135.899 Y128.036 E480.995
G1 X117.241 Y109.378 E481.873
G1 Y107.438 E481.937
G1 X118.32 E481.973
G1 Y93.703 E482.43
G1 X101.791 E482.98
G1 Y107.438 E483.437
G1 X102.871 E483.473
G1 Y109.377 E483.537
G1 X84.101 Y127.925 E484.415
G1 X75.403 Y119.226 E484.824
G1 X77.125 Y117.505 E484.905
G1 X77.711 Y118.092 E484.933
G1 X78.038 Y118.471 E484.949
G1 X78.315 Y118.901 E484.966
G1 X78.545 Y119.385 E484.984
G1 X78.729 Y119.915 E485.003
G1 F1800 E475.003
;rapid-dry
G1 F236
G0 X80.927 Y123.607
G1 F1800 E485.003
;bead-solid_infill
G1 X81.236 Y123.916 F2400 E485.017
G1 F1800 E475.017
;rapid-dry
G1 F236
G0 X92.675 Y117.933
G1 F1800 E485.017
;bead-sparse_infill
G1 X93.229 Y117.942 F3600 E485.036
G1 X96.855 Y113.754 E485.22
G1 X97.224 Y113.994 E485.235
G1 F1800 E475.235
;rapid-dry
G1 F236
G0 X100.781 Y107.133
G1 F1800 E485.235
;bead-sparse_infill
G1 X101.106 Y107.128 F3600 E485.245
G1 X100.781 Y99.419 E485.502
G1 X101.106 Y99.283 E485.514
G1 X100.781 Y92.654 E485.734
G1 X101.409 Y92.644 E485.755
G1 X101.528 Y92.566 E485.76
G1 X113.821 E486.169
G1 X114.079 Y92.674 E486.178
G1 X115.888 Y92.644 E486.238
G1 X116.008 Y92.566 E486.243
G1 F1800 E476.243
;rapid-dry
G1 F236
G0 X119.331 Y96.355
G1 F1800 E486.243
;bead-sparse_infill
G1 X119.005 Y96.567 F3600 E486.256
G1 X119.331 Y104.376 E486.516
G1 X119.005 Y104.689 E486.531
G1 X119.549 Y110.718 E486.732
G1 X120.21 Y110.707 E486.754
G1 X130.408 Y121.576 E487.25
G1 X130.815 Y121.311 E487.266
G1 X134.029 Y125.197 E487.434
G1 X134.689 Y125.186 E487.456
;rapid-leaky
G1 F236
G0 X136.147 Y125.314
;bead-sparse_infill
G1 X137.208 Y125.758 F3600 E487.494
;rapid-leaky
G1 F236
G0 X138.749 Y123.728
;bead-solid_infill
G1 X138.994 Y123.973 F2400 E487.506
G1 X139.276 Y123.69 E487.519
G1 X139.228 Y123.642 E487.521
G1 F1800 E477.521
;rapid-dry
G1 F236
G0 X141.785 Y121.108
G1 F1800 E487.521
;bead-solid_infill
G1 X141.822 Y121.145 F2400 E487.523
G1 X141.979 Y120.988 E487.53
G1 X142.105 Y120.862 E487.536
G1 X141.87 Y120.627 E487.547
G1 F1800 E477.547
;Layer : 15 of 53
;rapid-leaky
G1 F236
G0 X141.742 Y120.379 Z3.1
G1 F1800 E487.547
;bead-perimeter_inner
G1 X141.837 Y119.894 F1560 E487.564
G1 X141.979 Y119.444 E487.58
G1 X142.169 Y119.024 E487.595
G1 X142.403 Y118.654 E487.609
G1 X142.696 Y118.313 E487.624
G1 X142.875 Y118.133 E487.633
G1 X144.081 Y119.339 E487.69
G1 X141.764 Y121.656 E487.799
G1 X141.712 Y121.395 E487.807
G1 X141.7 Y120.888 E487.824
G1 X141.742 Y120.379 E487.841
;rapid-leaky
G1 F236
G0 X142.217 Y120.522
;bead-solid_infill
G1 X142.036 Y120.702 F2400 E487.85
;rapid-leaky
G1 F236
G0 X141.378 Y120.336
;bead-perimeter_outer
G1 X141.48 Y119.811 F1080 E487.868
G1 X141.637 Y119.313 E487.885
G1 X141.847 Y118.85 E487.902
G1 X142.108 Y118.436 E487.918
G1 X142.428 Y118.065 E487.934
G1 X142.875 Y117.617 E487.955
G1 X144.597 Y119.339 E488.036
G1 X141.648 Y122.288 E488.175
G1 X141.603 Y122.243 E488.177
G1 X141.428 Y121.893 E488.19
G1 X141.344 Y121.418 E488.206
G1 X141.334 Y120.877 E488.224
G1 X141.378 Y120.336 E488.242
G1 F1800 E478.242
;rapid-dry
G1 F236
G0 X140.665 Y122.259 Z3.4
G1 F1800 E488.242
;bead-support-structure
G1 X140.567 Y122.417 F4200 E488.247
G1 X140.407 Y122.517 E488.252
G1 F1800 E478.252
G1 F236
G0 X140.567 Y122.417
G0 X140.665 Y122.259
G0 X140.567 Y122.417
G0 X140.407 Y122.517
;rapid-dry
G1 F236
G0 X139.804 Y123.616 Z3.1
G1 F1800 E488.252
;bead-perimeter_inner
G1 X135.899 Y127.52 F1560 E488.435
G1 X117.606 Y109.227 E489.296
G1 Y107.803 E489.343
G1 X118.685 E489.379
G1 Y93.338 E489.86
G1 X101.426 E490.434
G1 Y107.803 E490.915
G1 X102.506 E490.951
G1 Y109.225 E490.999
G1 X84.102 Y127.41 E491.859
G1 X80.249 Y123.557 E492.04
G1 X80.539 Y123.503 E492.05
G1 X80.79 Y123.508 E492.059
G1 X81.014 Y123.493 E492.066
G1 X81.511 Y123.536 E492.083
G1 X82.009 Y123.63 E492.099
G1 X82.462 Y123.772 E492.115
G1 X82.88 Y123.963 E492.131
G1 X83.258 Y124.203 E492.145
G1 X83.595 Y124.492 E492.16
G1 X84.63 Y125.526 E492.209
G1 X100.461 Y109.695 E492.953
G1 Y92.246 E493.534
G1 X119.651 E494.172
G1 Y109.695 E494.752
G1 X135.482 Y125.526 E495.497
G1 X136.461 Y124.548 E495.543
G1 X136.802 Y124.255 E495.558
G1 X137.172 Y124.021 E495.573
G1 X137.592 Y123.831 E495.588
G1 X138.042 Y123.689 E495.604
G1 X138.527 Y123.594 E495.62
G1 X139.036 Y123.552 E495.637
G1 X139.543 Y123.564 E495.654
G1 X139.804 Y123.616 E495.663
;rapid-leaky
G1 F236
G0 X140.034 Y123.279
;bead-perimeter_outer
G1 X140.299 Y123.435 F1080 E495.673
G1 X140.397 Y123.47 E495.676
G1 X140.432 Y123.504 E495.678
G1 X135.899 Y128.036 E495.891
G1 X117.241 Y109.378 E496.769
G1 Y107.438 E496.833
G1 X118.32 E496.869
G1 Y93.703 E497.326
G1 X101.791 E497.876
G1 Y107.438 E498.333
G1 X102.871 E498.369
G1 Y109.377 E498.433
G1 X84.101 Y127.925 E499.311
G1 X79.62 Y123.444 E499.522
G1 X79.663 Y123.401 E499.524
G1 X80.03 Y123.219 E499.537
G1 X80.498 Y123.137 E499.553
G1 X80.782 Y123.143 E499.563
G1 X81.025 Y123.127 E499.571
G1 X81.565 Y123.174 E499.589
G1 X82.095 Y123.275 E499.607
G1 X82.592 Y123.43 E499.624
G1 X83.054 Y123.641 E499.641
G1 X83.476 Y123.909 E499.657
