;1001
;Printer name: Creality Ender 3 V2
;Print time: 30m:41s
;Extruder 1 material used: 1206mm
;Extruder 1 material name: PVA 1.75mm
;Extruder 1 filament diameter: 1.75mm
;Extruder 1 nozzle diameter: 0.4mm
;Extruder 1 offset x: 0mm
;Extruder 1 offset y: 0mm
;Extruder 1 offset z: 0mm
;Extruder 1 max temp: 220
;Bed temp: 60
;Layer count: 53
;Width: 220mm
;Depth: 220mm
;Height: 250mm
;Center x: 110mm
;Center y: 110mm
;Center z: 0mm
;Count of bodies: 1
;Fusion version: 2.0.10148
;--------------------------------
;Selected Profile: PVA 1.75mm, 0.4mm Nozzle
;Selected Printer: Creality, Ender 3 V2
;--------------------------------
T0
M140 S60
M190 S60
M104 S220 T0
M105
M109 S220 T0
G1 F236
G21
G90
M82
;Reset multiplier
M220 S100
M221 S100
;Enable auto bed leveling
M420 S1 Z2
G28
G1 Z10
G92 E0
G0 X10 Y10 Z10
G92 E0
;--------------------------------
;Layer : 1 of 53
M107
;rapid-leaky
G0 X20 Y20.8 Z0.3
G1 F1800 E10
;bead-prime
G1 X200 F270 E45.921
G1 F1800 E35.921
;rapid-dry
G1 F236
G0 X124.016 Y87.881
G1 F1800 E45.921
;bead-skirt/brim
G1 Y107.887 F780 E46.919
G1 X135.482 Y119.353 E47.728
G1 X142.875 Y111.96 E48.25
G1 X150.254 Y119.339 E48.77
G1 X148.081 Y121.512 E48.924
G1 X148.993 Y122.424 E48.988
G1 X140.573 Y130.843 E49.582
G1 X139.661 Y129.931 E49.646
G1 X135.899 Y133.693 E49.912
G1 X113.241 Y111.035 E51.51
G1 Y103.438 E51.889
G1 X114.384 E51.946
G1 Y97.703 E52.233
G1 X105.728 E52.664
G1 Y103.438 E52.951
G1 X106.871 E53.008
G1 Y111.048 E53.387
G1 X84.084 Y133.565 E54.986
G1 X80.396 Y129.877 E55.246
G1 X79.483 Y130.789 E55.31
G1 X71.064 Y122.368 E55.904
G1 X71.976 Y121.456 E55.969
G1 X69.745 Y119.225 E56.126
G1 X77.126 Y111.849 E56.647
G1 X84.63 Y119.353 E57.176
G1 X96.096 Y107.887 E57.985
G1 Y87.881 E58.983
G1 X124.016 E60.376
;rapid-leaky
G1 F236
G0 X123.616 Y88.281
;bead-skirt/brim
G1 Y108.053 F780 E61.362
G1 X135.482 Y119.919 E62.2
G1 X142.875 Y112.526 E62.721
G1 X149.688 Y119.339 E63.202
G1 X147.515 Y121.512 E63.355
G1 X148.428 Y122.424 E63.42
G1 X140.573 Y130.278 E63.974
G1 X139.661 Y129.366 E64.038
G1 X135.899 Y133.127 E64.304
G1 X113.641 Y110.869 E65.874
G1 Y103.838 E66.225
G1 X114.784 E66.282
G1 Y97.303 E66.608
G1 X105.328 E67.08
G1 Y103.838 E67.406
G1 X106.471 E67.463
G1 Y110.881 E67.814
G1 X84.086 Y133.001 E69.384
G1 X80.396 Y129.311 E69.644
G1 X79.483 Y130.223 E69.709
G1 X71.63 Y122.368 E70.263
G1 X72.542 Y121.456 E70.327
G1 X70.311 Y119.225 E70.485
G1 X77.126 Y112.414 E70.965
G1 X84.63 Y119.919 E71.495
G1 X96.496 Y108.053 E72.332
G1 Y88.281 E73.319
G1 X123.616 E74.672
;rapid-leaky
G1 F236
G0 X123.216 Y88.681
;bead-skirt/brim
G1 Y108.218 F780 E75.646
G1 X135.482 Y120.484 E76.512
G1 X142.875 Y113.091 E77.033
G1 X149.123 Y119.339 E77.474
G1 X146.95 Y121.512 E77.627
G1 X147.862 Y122.424 E77.692
G1 X140.573 Y129.712 E78.206
G1 X139.661 Y128.8 E78.27
G1 X135.899 Y132.561 E78.536
G1 X114.041 Y110.704 E80.078
G1 Y104.238 E80.401
G1 X115.184 E80.458
G1 Y96.903 E80.824
G1 X104.928 E81.335
G1 Y104.238 E81.701
G1 X106.071 E81.758
G1 Y110.714 E82.081
G1 X84.087 Y132.437 E83.623
G1 X80.396 Y128.745 E83.884
G1 X79.483 Y129.657 E83.948
G1 X72.195 Y122.368 E84.462
G1 X73.108 Y121.456 E84.527
G1 X70.877 Y119.225 E84.684
G1 X77.126 Y112.98 E85.125
G1 X84.63 Y120.484 E85.654
G1 X96.896 Y108.218 E86.52
G1 Y88.681 E87.494
G1 X123.216 E88.808
;rapid-leaky
G1 F236
G0 X122.816 Y89.081
;bead-skirt/brim
G1 Y108.384 F780 E89.771
G1 X135.482 Y121.05 E90.664
G1 X142.875 Y113.657 E91.186
G1 X148.557 Y119.339 E91.587
G1 X146.384 Y121.512 E91.74
G1 X147.296 Y122.424 E91.804
G1 X140.573 Y129.146 E92.279
G1 X139.661 Y128.234 E92.343
G1 X135.899 Y131.996 E92.608
G1 X114.441 Y110.538 E94.122
G1 Y104.638 E94.417
G1 X115.584 E94.474
G1 Y96.503 E94.88
G1 X104.528 E95.431
G1 Y104.638 E95.837
G1 X105.671 E95.894
G1 Y110.547 E96.189
G1 X84.089 Y131.873 E97.703
G1 X80.396 Y128.179 E97.963
G1 X79.483 Y129.092 E98.028
G1 X72.761 Y122.368 E98.502
G1 X73.673 Y121.456 E98.566
G1 X71.443 Y119.225 E98.724
G1 X77.125 Y113.546 E99.125
G1 X84.63 Y121.05 E99.654
G1 X97.296 Y108.384 E100.548
G1 Y89.081 E101.511
G1 X122.816 E102.784
;rapid-leaky
G1 F236
G0 X122.416 Y89.481
;bead-skirt/brim
G1 Y108.55 F780 E103.735
G1 X135.482 Y121.616 E104.657
G1 X142.875 Y114.223 E105.179
G1 X147.991 Y119.339 E105.54
G1 X145.818 Y121.512 E105.693
G1 X146.73 Y122.424 E105.757
G1 X140.573 Y128.581 E106.192
G1 X139.661 Y127.669 E106.256
G1 X135.899 Y131.43 E106.522
G1 X114.841 Y110.372 E108.007
G1 Y105.038 E108.274
G1 X115.984 E108.331
G1 Y96.103 E108.776
G1 X104.128 E109.368
G1 Y105.038 E109.814
G1 X105.271 E109.871
G1 Y110.38 E110.137
G1 X84.091 Y131.309 E111.623
G1 X80.396 Y127.614 E111.883
G1 X79.483 Y128.526 E111.948
G1 X73.327 Y122.368 E112.382
G1 X74.239 Y121.456 E112.447
G1 X72.008 Y119.226 E112.604
G1 X77.125 Y114.111 E112.965
G1 X84.63 Y121.616 E113.494
G1 X97.696 Y108.55 E114.416
G1 Y89.481 E115.368
G1 X122.416 E116.601
;rapid-leaky
G1 F236
G0 X122.016 Y89.881
;bead-skirt/brim
G1 Y108.715 F780 E117.54
G1 X135.482 Y122.181 E118.491
G1 X142.875 Y114.788 E119.012
G1 X147.426 Y119.339 E119.333
G1 X145.252 Y121.512 E119.487
G1 X146.165 Y122.424 E119.551
G1 X140.573 Y128.015 E119.945
G1 X139.661 Y127.103 E120.01
G1 X135.899 Y130.864 E120.275
G1 X115.241 Y110.207 E121.733
G1 Y105.438 E121.971
G1 X116.384 E122.028
G1 Y95.703 E122.513
G1 X103.728 E123.145
G1 Y105.438 E123.63
G1 X104.871 E123.687
G1 Y110.213 E123.926
G1 X84.092 Y130.745 E125.383
G1 X80.396 Y127.048 E125.644
G1 X79.483 Y127.96 E125.708
G1 X73.892 Y122.368 E126.103
G1 X74.805 Y121.456 E126.167
G1 X72.574 Y119.226 E126.325
G1 X77.125 Y114.677 E126.646
G1 X84.63 Y122.181 E127.175
G1 X98.096 Y108.715 E128.125
G1 Y89.881 E129.065
G1 X122.016 E130.258
;rapid-leaky
G1 F236
G0 X121.616 Y90.281
;bead-skirt/brim
G1 Y108.881 F780 E131.186
G1 X135.482 Y122.747 E132.164
G1 X142.875 Y115.354 E132.686
G1 X146.86 Y119.339 E132.967
G1 X144.687 Y121.512 E133.121
G1 X145.599 Y122.424 E133.185
G1 X140.573 Y127.45 E133.539
G1 X139.661 Y126.538 E133.604
G1 X135.899 Y130.299 E133.869
G1 X115.641 Y110.041 E135.299
G1 Y105.838 E135.508
G1 X116.784 E135.565
G1 Y95.303 E136.091
G1 X103.328 E136.762
G1 Y105.838 E137.288
G1 X104.471 E137.345
G1 Y110.046 E137.555
G1 X84.094 Y130.181 E138.984
G1 X80.396 Y126.482 E139.245
G1 X79.484 Y127.395 E139.309
G1 X74.458 Y122.368 E139.664
G1 X75.37 Y121.456 E139.728
G1 X73.14 Y119.226 E139.886
G1 X77.125 Y115.242 E140.167
G1 X84.63 Y122.747 E140.696
G1 X98.496 Y108.881 E141.674
G1 Y90.281 E142.602
G1 X121.616 E143.756
;rapid-leaky
G1 F236
G0 X121.216 Y90.681
;bead-skirt/brim
G1 Y109.047 F780 E144.672
G1 X135.482 Y123.313 E145.679
G1 X142.875 Y115.92 E146.2
G1 X146.294 Y119.339 E146.442
G1 X144.121 Y121.512 E146.595
G1 X145.033 Y122.424 E146.659
G1 X140.573 Y126.884 E146.974
G1 X139.661 Y125.972 E147.038
G1 X135.899 Y129.733 E147.304
G1 X116.041 Y109.875 E148.705
G1 Y106.238 E148.886
G1 X117.184 E148.943
G1 Y94.903 E149.509
G1 X102.928 E150.22
G1 Y106.238 E150.786
G1 X104.071 E150.843
G1 Y109.879 E151.024
G1 X84.096 Y129.617 E152.425
G1 X80.396 Y125.917 E152.686
G1 X79.484 Y126.829 E152.751
G1 X75.024 Y122.368 E153.065
G1 X75.936 Y121.456 E153.13
G1 X73.706 Y119.226 E153.287
G1 X77.125 Y115.808 E153.528
G1 X84.63 Y123.313 E154.058
G1 X98.896 Y109.047 E155.064
G1 Y90.681 E155.981
G1 X121.216 E157.094
;rapid-leaky
G1 F236
G0 X120.816 Y91.081
;bead-skirt/brim
G1 Y109.212 F780 E157.999
G1 X135.482 Y123.878 E159.033
G1 X142.875 Y116.485 E159.555
G1 X145.729 Y119.339 E159.756
G1 X143.555 Y121.512 E159.91
G1 X144.467 Y122.424 E159.974
G1 X140.573 Y126.318 E160.249
G1 X139.661 Y125.406 E160.313
G1 X135.899 Y129.167 E160.579
G1 X116.441 Y109.71 E161.952
G1 Y106.638 E162.105
G1 X117.584 E162.162
G1 Y94.503 E162.767
G1 X102.528 E163.518
G1 Y106.638 E164.124
G1 X103.671 E164.181
G1 Y109.712 E164.334
G1 X84.097 Y129.053 E165.707
G1 X80.396 Y125.351 E165.968
G1 X79.484 Y126.263 E166.033
G1 X75.589 Y122.369 E166.307
G1 X76.502 Y121.456 E166.372
G1 X74.271 Y119.226 E166.529
G1 X77.125 Y116.374 E166.73
G1 X84.63 Y123.878 E167.26
G1 X99.296 Y109.212 E168.295
G1 Y91.081 E169.199
G1 X120.816 E170.273
;rapid-leaky
G1 F236
G0 X120.416 Y91.481
;bead-skirt/brim
G1 Y109.378 F780 E171.166
G1 X135.482 Y124.444 E172.229
G1 X142.875 Y117.051 E172.75
G1 X145.163 Y119.339 E172.912
G1 X135.899 Y128.602 E173.565
G1 X116.841 Y109.544 E174.91
G1 Y107.038 E175.035
G1 X117.984 E175.092
G1 Y94.103 E175.737
G1 X102.128 E176.528
G1 Y107.038 E177.174
G1 X103.271 E177.231
G1 Y109.545 E177.356
G1 X84.099 Y128.489 E178.7
G1 X74.837 Y119.226 E179.354
G1 X77.125 Y116.939 E179.515
G1 X84.63 Y124.444 E180.045
G1 X99.696 Y109.378 E181.108
G1 Y91.481 E182.001
G1 X120.416 E183.035
;rapid-leaky
G1 F236
G0 X143.163 Y121.686
;bead-skirt/brim
G1 X143.902 Y122.424 F780 E183.087
G1 X140.573 Y125.753 E183.321
G1 X139.834 Y125.014 E183.374
G1 X140.933 Y123.915 E183.451
G1 X143.163 Y121.686 E183.608
;rapid-leaky
G1 F236
G0 X80.222 Y124.959
;bead-skirt/brim
G1 X79.484 Y125.698 F780 E183.661
G1 X76.155 Y122.369 E183.895
G1 X76.894 Y121.63 E183.948
G1 X77.526 Y122.262 E183.992
G1 X80.222 Y124.959 E184.182
G1 F1800 E174.182
;rapid-dry
G1 F236
G0 X84.63 Y125.526
G1 F1800 E184.182
;bead-perimeter_inner
G1 X100.461 Y109.695 F780 E185.299
G1 Y92.246 E186.17
G1 X119.651 E187.127
G1 Y109.695 E187.998
G1 X135.482 Y125.526 E189.115
G1 X142.875 Y118.133 E189.636
G1 X144.081 Y119.339 E189.721
G1 X135.899 Y127.52 E190.299
G1 X117.606 Y109.227 E191.589
G1 Y107.803 E191.66
G1 X118.749 E191.717
G1 Y93.338 E192.439
G1 X101.363 E193.307
G1 Y107.803 E194.028
G1 X102.506 E194.085
G1 Y109.225 E194.156
G1 X84.102 Y127.41 E195.447
G1 X75.919 Y119.226 E196.024
G1 X77.125 Y118.021 E196.109
G1 X84.63 Y125.526 E196.639
;rapid-leaky
G1 F236
G0 Y125.01
;bead-perimeter_outer
G1 X100.096 Y109.544 F540 E197.73
G1 Y91.881 E198.611
G1 X120.016 E199.605
G1 Y109.544 E200.486
G1 X135.482 Y125.01 E201.578
G1 X142.875 Y117.617 E202.099
G1 X144.597 Y119.339 E202.221
G1 X135.899 Y128.036 E202.834
G1 X117.241 Y109.378 E204.151
G1 Y107.438 E204.248
G1 X118.384 E204.305
G1 Y93.703 E204.99
G1 X101.728 E205.821
G1 Y107.438 E206.506
G1 X102.871 E206.563
G1 Y109.377 E206.66
G1 X84.101 Y127.925 E207.976
G1 X75.403 Y119.226 E208.59
G1 X77.125 Y117.505 E208.712
G1 X84.63 Y125.01 E209.241
G1 F1800 E199.241
;rapid-dry
G1 F236
G0 X76.567 Y119.421
G1 F1800 E209.241
;bead-solid_infill
G1 X77.32 Y118.668 F1200 E209.294
G1 X77.603 Y118.951 E209.314
G1 X76.85 Y119.704 E209.367
G1 X77.132 Y119.987 E209.387
G1 X77.885 Y119.234 E209.44
G1 X78.168 Y119.517 E209.46
G1 X77.415 Y120.27 E209.513
G1 X77.698 Y120.553 E209.533
G1 X78.451 Y119.8 E209.587
G1 X78.734 Y120.082 E209.607
G1 X77.981 Y120.836 E209.66
G1 X78.264 Y121.118 E209.68
G1 X79.017 Y120.365 E209.733
G1 X79.3 Y120.648 E209.753
G1 X78.547 Y121.401 E209.806
G1 X78.829 Y121.684 E209.826
G1 X79.582 Y120.931 E209.879
G1 X79.865 Y121.214 E209.899
G1 X79.112 Y121.967 E209.952
G1 X79.395 Y122.25 E209.972
G1 X80.148 Y121.497 E210.025
G1 X80.431 Y121.78 E210.045
G1 X79.678 Y122.533 E210.098
G1 X79.961 Y122.816 E210.118
G1 X80.714 Y122.062 E210.171
G1 X80.736 Y122.085 E210.173
G1 X80.997 Y122.345 E210.191
G1 X80.243 Y123.098 E210.244
G1 X80.526 Y123.381 E210.264
G1 X81.279 Y122.628 E210.317
G1 X81.562 Y122.911 E210.337
G1 X80.809 Y123.664 E210.391
G1 X81.092 Y123.947 E210.411
G1 X81.845 Y123.194 E210.464
G1 X82.128 Y123.477 E210.484
G1 X81.375 Y124.23 E210.537
G1 X81.658 Y124.513 E210.557
G1 X82.411 Y123.759 E210.61
G1 X82.694 Y124.042 E210.63
G1 X81.94 Y124.796 E210.683
G1 X82.223 Y125.078 E210.703
G1 X82.977 Y124.325 E210.756
G1 X83.259 Y124.608 E210.776
G1 X82.506 Y125.361 E210.829
G1 X82.789 Y125.644 E210.849
G1 X83.542 Y124.891 E210.902
G1 X83.825 Y125.174 E210.922
G1 X83.072 Y125.927 E210.975
G1 X83.355 Y126.21 E210.995
G1 X84.108 Y125.456 E211.049
G1 X84.391 Y125.739 E211.068
G1 X83.637 Y126.493 E211.122
G1 X83.92 Y126.776 E211.142
G1 X102.186 Y108.51 E212.43
G1 Y108.123 E212.45
G1 X102.007 E212.459
G1 X100.781 Y109.349 E212.545
G1 Y108.783 E212.573
G1 X101.441 Y108.123 E212.62
G1 X101.043 E212.64
G1 Y107.956 E212.648
G1 X100.781 Y108.218 E212.667
G1 Y107.652 E212.695
G1 X101.043 Y107.39 E212.713
G1 Y106.824 E212.742
G1 X100.781 Y107.086 E212.76
G1 Y106.521 E212.788
G1 X101.043 Y106.259 E212.807
G1 Y105.693 E212.835
G1 X100.781 Y105.955 E212.853
G1 Y105.389 E212.882
G1 X101.043 Y105.127 E212.9
G1 Y104.562 E212.928
G1 X100.781 Y104.824 E212.947
G1 Y104.258 E212.975
G1 X101.043 Y103.996 E212.994
G1 Y103.43 E213.022
G1 X100.781 Y103.692 E213.04
G1 Y103.127 E213.068
G1 X101.043 Y102.865 E213.087
G1 Y102.299 E213.115
G1 X100.781 Y102.561 E213.134
G1 Y101.995 E213.162
G1 X101.043 Y101.733 E213.18
G1 Y101.167 E213.209
G1 X100.781 Y101.429 E213.227
G1 Y100.864 E213.255
G1 X101.043 Y100.602 E213.274
G1 Y100.036 E213.302
G1 X100.781 Y100.298 E213.32
G1 Y99.732 E213.349
G1 X101.043 Y99.47 E213.367
G1 Y98.905 E213.395
G1 X100.781 Y99.167 E213.414
G1 Y98.601 E213.442
G1 X101.043 Y98.339 E213.461
G1 Y97.773 E213.489
G1 X100.781 Y98.035 E213.507
G1 Y97.47 E213.536
G1 X101.043 Y97.208 E213.554
G1 Y96.642 E213.582
G1 X100.781 Y96.904 E213.601
G1 Y96.338 E213.629
G1 X101.043 Y96.076 E213.647
G1 Y95.511 E213.676
G1 X100.781 Y95.773 E213.694
G1 Y95.207 E213.722
G1 X101.043 Y94.945 E213.741
G1 Y94.379 E213.769
G1 X100.781 Y94.641 E213.788
G1 Y94.076 E213.816
G1 X101.043 Y93.814 E213.834
G1 F1800 E203.834
;rapid-dry
G1 F236
G0 X101.159 Y92.566
G1 F1800 E213.834
;bead-solid_infill
G1 X100.781 Y92.944 F1200 E213.861
G1 Y93.51 E213.889
G1 X101.043 Y93.248 E213.908
G1 Y93.018 E213.919
G1 X101.273 E213.931
G1 X101.725 Y92.566 E213.962
G1 X102.291 E213.991
G1 X101.839 Y93.018 E214.023
G1 X102.404 E214.051
G1 X102.856 Y92.566 E214.083
G1 X103.422 E214.111
G1 X102.97 Y93.018 E214.143
G1 X103.536 E214.171
G1 X103.988 Y92.566 E214.203
G1 X104.553 E214.231
G1 X104.101 Y93.018 E214.263
G1 X104.667 E214.291
G1 X105.119 Y92.566 E214.323
G1 X105.685 E214.351
G1 X105.233 Y93.018 E214.383
G1 X105.798 E214.411
G1 X106.25 Y92.566 E214.443
G1 X106.816 E214.472
G1 X106.364 Y93.018 E214.504
G1 X106.93 E214.532
G1 X107.382 Y92.566 E214.564
G1 X107.947 E214.592
G1 X107.495 Y93.018 E214.624
G1 X108.061 E214.652
G1 X108.513 Y92.566 E214.684
G1 X109.079 E214.712
G1 X108.627 Y93.018 E214.744
G1 X109.192 E214.772
G1 X109.644 Y92.566 E214.804
G1 X110.21 E214.832
G1 X109.758 Y93.018 E214.864
G1 X110.324 E214.892
G1 X110.776 Y92.566 E214.924
G1 X111.342 E214.953
G1 X110.89 Y93.018 E214.984
G1 X111.455 E215.013
G1 X111.907 Y92.566 E215.045
G1 X112.473 E215.073
G1 X112.021 Y93.018 E215.105
G1 X112.587 E215.133
G1 X113.039 Y92.566 E215.165
G1 X113.604 E215.193
G1 X113.152 Y93.018 E215.225
G1 X113.718 E215.253
G1 X114.17 Y92.566 E215.285
G1 X114.736 E215.313
G1 X114.284 Y93.018 E215.345
G1 X114.849 E215.373
G1 X115.301 Y92.566 E215.405
G1 X115.867 E215.433
G1 X115.415 Y93.018 E215.465
G1 X115.981 E215.494
G1 X116.433 Y92.566 E215.525
G1 X116.998 E215.554
G1 X116.546 Y93.018 E215.586
G1 X117.112 E215.614
G1 X117.564 Y92.566 E215.646
G1 X118.13 E215.674
G1 X117.678 Y93.018 E215.706
G1 X118.243 E215.734
G1 X118.695 Y92.566 E215.766
G1 X119.261 E215.794
G1 X118.809 Y93.018 E215.826
G1 X119.069 E215.839
G1 Y93.324 E215.854
G1 X119.331 Y93.062 E215.873
G1 Y93.627 E215.901
G1 X119.069 Y93.889 E215.919
G1 Y94.455 E215.948
G1 X119.331 Y94.193 E215.966
G1 Y94.759 E215.994
G1 X119.069 Y95.021 E216.013
G1 Y95.587 E216.041
G1 X119.331 Y95.325 E216.06
G1 Y95.89 E216.088
G1 X119.069 Y96.152 E216.106
G1 Y96.718 E216.134
G1 X119.331 Y96.456 E216.153
G1 Y97.022 E216.181
G1 X119.069 Y97.284 E216.2
G1 Y97.849 E216.228
G1 X119.331 Y97.587 E216.246
G1 Y98.153 E216.275
G1 X119.069 Y98.415 E216.293
G1 Y98.981 E216.321
G1 X119.331 Y98.719 E216.34
G1 Y99.284 E216.368
G1 X119.069 Y99.546 E216.386
G1 Y100.112 E216.415
G1 X119.331 Y99.85 E216.433
G1 Y100.416 E216.461
G1 X119.069 Y100.678 E216.48
G1 Y101.243 E216.508
G1 X119.331 Y100.981 E216.527
G1 Y101.547 E216.555
G1 X119.069 Y101.809 E216.573
G1 Y102.375 E216.602
G1 X119.331 Y102.113 E216.62
G1 Y102.678 E216.648
G1 X119.069 Y102.94 E216.667
G1 Y103.506 E216.695
G1 X119.331 Y103.244 E216.713
G1 Y103.81 E216.742
G1 X119.069 Y104.072 E216.76
G1 Y104.637 E216.788
G1 X119.331 Y104.376 E216.807
G1 Y104.941 E216.835
G1 X119.069 Y105.203 E216.854
G1 Y105.769 E216.882
G1 X119.331 Y105.507 E216.9
G1 Y106.073 E216.928
G1 X119.069 Y106.335 E216.947
G1 Y106.9 E216.975
G1 X119.331 Y106.638 E216.994
G1 Y107.204 E217.022
G1 X119.069 Y107.466 E217.04
G1 Y108.032 E217.069
G1 X119.331 Y107.77 E217.087
G1 Y108.335 E217.115
G1 X118.249 Y109.417 E217.192
G1 X118.532 Y109.7 E217.212
G1 X119.331 Y108.901 E217.268
G1 Y109.467 E217.296
G1 X118.815 Y109.983 E217.333
G1 X119.097 Y110.266 E217.353
G1 X119.433 Y109.93 E217.376
G1 X119.716 Y110.213 E217.396
G1 X119.38 Y110.549 E217.42
G1 X119.663 Y110.832 E217.44
G1 X119.999 Y110.496 E217.464
G1 X120.282 Y110.779 E217.484
G1 X119.946 Y111.114 E217.507
G1 X120.229 Y111.397 E217.527
G1 X120.565 Y111.061 E217.551
G1 X120.848 Y111.344 E217.571
G1 X120.512 Y111.68 E217.595
G1 X120.795 Y111.963 E217.615
G1 X121.13 Y111.627 E217.638
G1 X121.413 Y111.91 E217.658
G1 X121.077 Y112.246 E217.682
G1 X121.36 Y112.529 E217.702
G1 X121.696 Y112.193 E217.726
G1 X121.979 Y112.476 E217.746
G1 X121.643 Y112.811 E217.769
G1 X121.926 Y113.094 E217.789
G1 X122.262 Y112.758 E217.813
G1 X122.545 Y113.041 E217.833
G1 X122.209 Y113.377 E217.857
G1 X122.492 Y113.66 E217.876
G1 X122.827 Y113.324 E217.9
G1 X123.11 Y113.607 E217.92
G1 X122.774 Y113.943 E217.944
G1 X123.057 Y114.226 E217.964
G1 X123.393 Y113.89 E217.988
G1 X123.676 Y114.173 E218.007
G1 X123.34 Y114.509 E218.031
G1 X123.623 Y114.791 E218.051
G1 X123.959 Y114.455 E218.075
G1 X124.242 Y114.738 E218.095
G1 X123.906 Y115.074 E218.118
G1 X124.189 Y115.357 E218.138
G1 X124.525 Y115.021 E218.162
G1 X124.807 Y115.304 E218.182
G1 X124.471 Y115.64 E218.206
G1 X124.754 Y115.923 E218.226
G1 X125.09 Y115.587 E218.249
G1 X125.373 Y115.87 E218.269
G1 X125.037 Y116.206 E218.293
G1 X125.32 Y116.488 E218.313
G1 X125.656 Y116.153 E218.337
G1 X125.939 Y116.435 E218.357
G1 X125.603 Y116.771 E218.38
G1 X125.886 Y117.054 E218.4
G1 X126.222 Y116.718 E218.424
G1 X126.504 Y117.001 E218.444
G1 X126.169 Y117.337 E218.468
G1 X126.451 Y117.62 E218.488
G1 X126.787 Y117.284 E218.511
G1 X127.07 Y117.567 E218.531
G1 X126.734 Y117.903 E218.555
G1 X127.017 Y118.185 E218.575
G1 X127.353 Y117.85 E218.599
G1 X127.636 Y118.132 E218.619
G1 X127.3 Y118.468 E218.642
G1 X127.583 Y118.751 E218.662
G1 X127.919 Y118.415 E218.686
G1 X128.202 Y118.698 E218.706
G1 X127.866 Y119.034 E218.73
G1 X128.148 Y119.317 E218.75
G1 X128.484 Y118.981 E218.773
G1 X128.767 Y119.264 E218.793
G1 X128.431 Y119.6 E218.817
G1 X128.714 Y119.883 E218.837
G1 X129.05 Y119.547 E218.861
G1 X129.333 Y119.829 E218.881
G1 X128.997 Y120.165 E218.904
G1 X129.28 Y120.448 E218.924
G1 X129.616 Y120.112 E218.948
G1 X129.899 Y120.395 E218.968
G1 X129.563 Y120.731 E218.992
G1 X129.845 Y121.014 E219.012
G1 X130.181 Y120.678 E219.035
G1 X130.464 Y120.961 E219.055
G1 X130.128 Y121.297 E219.079
G1 X130.411 Y121.58 E219.099
G1 X130.747 Y121.244 E219.123
G1 X131.03 Y121.527 E219.143
G1 X130.694 Y121.862 E219.166
G1 X130.977 Y122.145 E219.186
G1 X131.313 Y121.809 E219.21
G1 X131.596 Y122.092 E219.23
G1 X131.26 Y122.428 E219.254
G1 X131.543 Y122.711 E219.274
G1 X131.878 Y122.375 E219.297
G1 X132.161 Y122.658 E219.317
G1 X131.825 Y122.994 E219.341
G1 X132.108 Y123.277 E219.361
G1 X132.444 Y122.941 E219.385
G1 X132.727 Y123.224 E219.405
G1 X132.391 Y123.56 E219.428
G1 X132.674 Y123.842 E219.448
G1 X133.01 Y123.506 E219.472
G1 X133.293 Y123.789 E219.492
G1 X132.957 Y124.125 E219.516
G1 X133.24 Y124.408 E219.535
G1 X133.576 Y124.072 E219.559
G1 X133.858 Y124.355 E219.579
G1 X133.522 Y124.691 E219.603
G1 X133.805 Y124.974 E219.623
G1 X134.141 Y124.638 E219.646
G1 X134.424 Y124.921 E219.666
G1 X134.088 Y125.257 E219.69
G1 X134.371 Y125.539 E219.71
G1 X134.707 Y125.203 E219.734
G1 X134.99 Y125.486 E219.754
G1 X134.654 Y125.822 E219.777
G1 X134.937 Y126.105 E219.797
G1 X135.273 Y125.769 E219.821
G1 X135.482 Y125.979 E219.836
G1 X142.875 Y118.586 E220.358
G1 X142.948 Y118.659 E220.363
G1 X135.219 Y126.388 E220.908
G1 X135.502 Y126.671 E220.928
G1 X143.231 Y118.942 E221.473
G1 X143.514 Y119.225 E221.493
G1 X135.785 Y126.954 E222.039
G1 F1800 E212.039
;rapid-dry
G1 F236
G0 X117.966 Y109.135
G1 F1800 E222.039
;bead-solid_infill
G1 X118.978 Y108.123 F1200 E222.11
G1 X118.412 E222.138
G1 X117.926 Y108.609 E222.172
G1 F1800 E212.172
;rapid-dry
G1 F236
G0 X102.186 Y109.075
G1 F1800 E222.172
;bead-solid_infill
G1 X100.844 Y110.417 F1200 E222.267
G1 F1800 E212.267
;Layer : 2 of 53
M106 S255
;rapid-leaky
G1 F236
G0 X100.461 Y109.695 Z0.5
G1 F1800 E222.267
;bead-perimeter_inner
G1 Y92.246 F1560 E222.847
G1 X119.651 E223.486
G1 Y109.695 E224.066
G1 X135.482 Y125.526 E224.811
G1 X142.875 Y118.133 E225.158
G1 X144.081 Y119.339 E225.215
G1 X135.899 Y127.52 E225.6
G1 X117.606 Y109.227 E226.46
G1 Y107.803 E226.508
G1 X118.749 E226.546
G1 Y93.338 E227.027
G1 X101.363 E227.605
G1 Y107.803 E228.086
G1 X102.506 E228.124
G1 Y109.225 E228.172
G1 X84.102 Y127.41 E229.032
G1 X75.919 Y119.226 E229.417
G1 X77.125 Y118.021 E229.474
G1 X84.63 Y125.526 E229.827
G1 X100.461 Y109.695 E230.571
;rapid-leaky
G1 F236
G0 X100.096 Y109.544
;bead-perimeter_outer
G1 Y91.881 F1080 E231.159
G1 X120.016 E231.822
G1 Y109.544 E232.409
G1 X135.482 Y125.01 E233.136
G1 X142.875 Y117.617 E233.484
G1 X144.597 Y119.339 E233.565
G1 X135.899 Y128.036 E233.974
G1 X117.241 Y109.378 E234.852
G1 Y107.438 E234.916
G1 X118.384 E234.954
G1 Y93.703 E235.411
G1 X101.728 E235.965
G1 Y107.438 E236.422
G1 X102.871 E236.46
G1 Y109.377 E236.525
G1 X84.101 Y127.925 E237.402
G1 X75.403 Y119.226 E237.811
G1 X77.125 Y117.505 E237.892
G1 X84.63 Y125.01 E238.245
G1 X100.096 Y109.544 E238.973
G1 F1800 E228.973
;rapid-dry
G1 F236
G0 X102.186 Y108.662
G1 F1800 E238.973
;bead-solid_infill
G1 X101.647 Y108.123 F2400 E238.998
G1 F1800 E228.998
;rapid-dry
G1 F236
G0 X76.459 Y119.139
G1 F1800 E238.998
;bead-solid_infill
G1 X84.192 Y126.872 F2400 E239.362
G1 X84.477 Y126.591 E239.375
G1 X76.742 Y118.856 E239.739
G1 X76.748 Y118.85
G1 X77.025 Y118.573 E239.752
G1 X84.761 Y126.31 E240.116
G1 X85.046 Y126.028 E240.13
G1 X84.813 Y125.796 E240.141
G1 X85.096 Y125.513 E240.154
G1 X85.33 Y125.747 E240.165
G1 X85.615 Y125.466 E240.178
G1 X85.379 Y125.23 E240.189
G1 X85.661 Y124.947 E240.203
G1 X85.899 Y125.185 E240.214
G1 X86.184 Y124.904 E240.227
G1 X85.944 Y124.664 E240.238
G1 X86.227 Y124.381 E240.252
G1 X86.468 Y124.623 E240.263
G1 X86.753 Y124.341 E240.276
G1 X86.51 Y124.099 E240.288
G1 X86.793 Y123.816 E240.301
G1 X87.037 Y124.06 E240.313
G1 X87.322 Y123.779 E240.326
G1 X87.076 Y123.533 E240.337
G1 X87.359 Y123.25 E240.351
G1 X87.606 Y123.498 E240.362
G1 X87.891 Y123.217 E240.376
G1 X87.641 Y122.967 E240.387
G1 X87.924 Y122.684 E240.401
G1 X88.176 Y122.936 E240.413
G1 X88.46 Y122.654 E240.426
G1 X88.207 Y122.401 E240.438
G1 X88.49 Y122.119 E240.451
G1 X88.745 Y122.373 E240.463
G1 X89.029 Y122.092 E240.476
G1 X88.773 Y121.836 E240.488
G1 X89.056 Y121.553 E240.502
G1 X89.314 Y121.811 E240.514
G1 X89.598 Y121.53 E240.527
G1 X89.338 Y121.27 E240.539
G1 X89.621 Y120.987 E240.553
G1 X89.883 Y121.249 E240.565
G1 X90.167 Y120.968 E240.578
G1 X89.904 Y120.704 E240.591
G1 X90.187 Y120.422 E240.604
G1 X90.452 Y120.686 E240.616
G1 X90.736 Y120.405 E240.63
G1 X90.47 Y120.139 E240.642
G1 X90.753 Y119.856 E240.656
G1 X91.021 Y120.124 E240.668
G1 X91.305 Y119.843 E240.681
G1 X91.036 Y119.573 E240.694
G1 X91.318 Y119.29 E240.707
G1 X91.59 Y119.562 E240.72
G1 X91.874 Y119.281 E240.734
G1 X91.601 Y119.007 E240.746
G1 X91.884 Y118.725 E240.76
G1 X92.159 Y118.999 E240.773
G1 X92.443 Y118.718 E240.786
G1 X92.167 Y118.442 E240.799
G1 X92.45 Y118.159 E240.812
G1 X92.728 Y118.437 E240.825
G1 X93.013 Y118.156 E240.839
G1 X92.733 Y117.876 E240.852
G1 X93.015 Y117.593 E240.865
G1 X93.297 Y117.875 E240.878
G1 X93.582 Y117.594 E240.892
G1 X93.298 Y117.31 E240.905
G1 X93.581 Y117.027 E240.918
G1 X93.866 Y117.313 E240.932
G1 X94.151 Y117.031 E240.945
G1 X93.864 Y116.745 E240.958
G1 X94.147 Y116.462 E240.972
G1 X94.435 Y116.75 E240.985
G1 X94.72 Y116.469 E240.999
G1 X94.43 Y116.179 E241.012
G1 X94.712 Y115.896 E241.026
G1 X95.004 Y116.188 E241.039
G1 X95.289 Y115.907 E241.053
G1 X94.995 Y115.613 E241.066
G1 X95.278 Y115.33 E241.08
G1 X95.573 Y115.626 E241.094
G1 X95.858 Y115.344 E241.107
G1 X95.561 Y115.048 E241.121
G1 X95.844 Y114.765 E241.134
G1 X96.142 Y115.063 E241.148
G1 X96.427 Y114.782 E241.162
G1 X96.127 Y114.482 E241.176
G1 X96.41 Y114.199 E241.189
G1 X96.711 Y114.501 E241.203
G1 X96.996 Y114.22 E241.216
G1 X96.692 Y113.916 E241.231
G1 X96.975 Y113.633 E241.244
G1 X97.28 Y113.939 E241.258
G1 X97.565 Y113.658 E241.272
G1 X97.258 Y113.351 E241.286
G1 X97.541 Y113.068 E241.299
G1 X97.85 Y113.376 E241.314
G1 X98.134 Y113.095 E241.327
G1 X97.824 Y112.785 E241.342
G1 X98.107 Y112.502 E241.355
G1 X98.419 Y112.814 E241.37
G1 X98.703 Y112.533 E241.383
G1 X98.389 Y112.219 E241.398
G1 X98.672 Y111.936 E241.411
G1 X98.988 Y112.252 E241.426
G1 X99.272 Y111.971 E241.439
G1 X98.955 Y111.653 E241.454
G1 X99.238 Y111.371 E241.468
G1 X99.557 Y111.689 E241.483
G1 X99.841 Y111.408 E241.496
G1 X99.521 Y111.088 E241.511
G1 X99.804 Y110.805 E241.524
G1 X100.126 Y111.127 E241.539
G1 X100.41 Y110.846 E241.553
G1 X100.086 Y110.522 E241.568
G1 X100.369 Y110.239 E241.581
G1 X100.695 Y110.565 E241.597
G1 X100.979 Y110.284 E241.61
G1 X100.652 Y109.956 E241.625
G1 X100.781 Y109.828 E241.631
G1 Y109.52 E241.642
G1 X101.264 Y110.002 E241.664
G1 X101.548 Y109.721 E241.678
G1 X100.781 Y108.954 E241.714
G1 Y108.388 E241.733
G1 X101.833 Y109.44 E241.782
G1 X102.118 Y109.159 E241.795
G1 X101.081 Y108.123 E241.844
G1 X101.043 E241.845
G1 Y108.085 E241.847
G1 X100.781 Y107.823 E241.859
G1 Y107.257 E241.878
G1 X101.043 Y107.519 E241.89
G1 Y106.953 E241.909
G1 X100.781 Y106.691 E241.921
G1 Y106.125 E241.94
G1 X101.043 Y106.387 E241.952
G1 Y105.822 E241.971
G1 X100.781 Y105.56 E241.983
G1 Y104.994 E242.002
G1 X101.043 Y105.256 E242.015
G1 Y104.69 E242.033
G1 X100.781 Y104.428 E242.046
G1 Y103.863 E242.065
G1 X101.043 Y104.125 E242.077
G1 Y103.559 E242.096
G1 X100.781 Y103.297 E242.108
G1 Y102.731 E242.127
G1 X101.043 Y102.993 E242.139
G1 Y102.428 E242.158
G1 X100.781 Y102.166 E242.17
G1 Y101.6 E242.189
G1 X101.043 Y101.862 E242.201
G1 Y101.296 E242.22
G1 X100.781 Y101.034 E242.233
G1 Y100.469 E242.251
G1 X101.043 Y100.731 E242.264
G1 Y100.165 E242.283
G1 X100.781 Y99.903 E242.295
G1 Y99.337 E242.314
G1 X101.043 Y99.599 E242.326
G1 Y99.034 E242.345
G1 X100.781 Y98.772 E242.357
G1 Y98.206 E242.376
G1 X101.043 Y98.468 E242.388
G1 Y97.902 E242.407
G1 X100.781 Y97.64 E242.419
G1 Y97.075 E242.438
G1 X101.043 Y97.337 E242.451
G1 Y96.771 E242.469
G1 X100.781 Y96.509 E242.482
G1 Y95.943 E242.501
G1 X101.043 Y96.205 E242.513
G1 Y95.639 E242.532
G1 X100.781 Y95.377 E242.544
G1 Y94.812 E242.563
G1 X101.043 Y95.074 E242.575
G1 Y94.508 E242.594
G1 X100.781 Y94.246 E242.606
G1 Y93.68 E242.625
G1 X101.043 Y93.942 E242.637
G1 Y93.377 E242.656
G1 X100.781 Y93.115 E242.669
G1 Y92.566 E242.687
G1 X100.798
G1 X101.25 Y93.018 E242.709
G1 X101.816 E242.727
G1 X101.364 Y92.566 E242.749
G1 X101.929 E242.767
G1 X102.381 Y93.018 E242.789
G1 X102.947 E242.808
G1 X102.495 Y92.566 E242.829
G1 X103.061 E242.848
G1 X103.513 Y93.018 E242.869
G1 X104.078 E242.888
G1 X103.626 Y92.566 E242.909
G1 X104.192 E242.928
G1 X104.644 Y93.018 E242.949
G1 X105.21 E242.968
G1 X104.758 Y92.566 E242.989
G1 X105.323 E243.008
G1 X105.775 Y93.018 E243.029
G1 X106.341 E243.048
G1 X105.889 Y92.566 E243.069
G1 X106.455 E243.088
G1 X106.907 Y93.018 E243.109
G1 X107.473 E243.128
G1 X107.021 Y92.566 E243.149
G1 X107.586 E243.168
G1 X108.038 Y93.018 E243.189
G1 X108.604 E243.208
G1 X108.152 Y92.566 E243.23
G1 X108.718 E243.248
G1 X109.17 Y93.018 E243.27
G1 X109.735 E243.288
G1 X109.283 Y92.566 E243.31
G1 X109.849 E243.329
G1 X110.301 Y93.018 E243.35
G1 X110.867 E243.369
G1 X110.415 Y92.566 E243.39
G1 X110.98 E243.409
G1 X111.432 Y93.018 E243.43
G1 X111.998 E243.449
G1 X111.546 Y92.566 E243.47
G1 X112.112 E243.489
G1 X112.564 Y93.018 E243.51
G1 X113.129 E243.529
G1 X112.677 Y92.566 E243.55
G1 X113.243 E243.569
G1 X113.695 Y93.018 E243.59
G1 X114.261 E243.609
G1 X113.809 Y92.566 E243.63
G1 X114.374 E243.649
G1 X114.826 Y93.018 E243.67
G1 X115.392 E243.689
G1 X114.94 Y92.566 E243.71
G1 X115.506 E243.729
G1 X115.958 Y93.018 E243.751
G1 X116.523 E243.769
G1 X116.072 Y92.566 E243.791
G1 X116.637 E243.809
G1 X117.089 Y93.018 E243.831
G1 X117.655 E243.85
G1 X117.203 Y92.566 E243.871
G1 X117.769 E243.89
G1 X118.221 Y93.018 E243.911
G1 X118.786 E243.93
G1 X118.334 Y92.566 E243.951
G1 X118.9 E243.97
G1 X119.331 Y92.997 E243.99
G1 Y93.563 E244.009
G1 X119.069 Y93.301 E244.021
G1 Y93.866 E244.04
G1 X119.331 Y94.128 E244.052
G1 Y94.694 E244.071
G1 X119.069 Y94.432 E244.083
G1 Y94.998 E244.102
G1 X119.331 Y95.26 E244.115
G1 Y95.826 E244.133
G1 X119.069 Y95.564 E244.146
G1 Y96.129 E244.165
G1 X119.331 Y96.391 E244.177
G1 Y96.957 E244.196
G1 X119.069 Y96.695 E244.208
G1 Y97.261 E244.227
G1 X119.331 Y97.523 E244.239
G1 Y98.088 E244.258
G1 X119.069 Y97.826 E244.27
G1 Y98.392 E244.289
G1 X119.331 Y98.654 E244.301
G1 Y99.22 E244.32
G1 X119.069 Y98.958 E244.333
G1 Y99.523 E244.351
G1 X119.331 Y99.785 E244.364
G1 Y100.351 E244.382
G1 X119.069 Y100.089 E244.395
G1 Y100.655 E244.414
G1 X119.331 Y100.917 E244.426
G1 Y101.482 E244.445
G1 X119.069 Y101.22 E244.457
G1 Y101.786 E244.476
G1 X119.331 Y102.048 E244.488
G1 Y102.614 E244.507
G1 X119.069 Y102.352 E244.519
G1 Y102.917 E244.538
G1 X119.331 Y103.179 E244.551
G1 Y103.745 E244.569
G1 X119.069 Y103.483 E244.582
G1 Y104.049 E244.6
G1 X119.331 Y104.311 E244.613
G1 Y104.876 E244.632
G1 X119.069 Y104.614 E244.644
G1 Y105.18 E244.663
G1 X119.331 Y105.442 E244.675
G1 Y106.008 E244.694
G1 X119.069 Y105.746 E244.706
G1 Y106.312 E244.725
G1 X119.331 Y106.574 E244.737
G1 Y107.139 E244.756
G1 X119.069 Y106.877 E244.768
G1 Y107.443 E244.787
G1 X119.331 Y107.705 E244.8
G1 Y108.271 E244.818
G1 X119.069 Y108.009 E244.831
G1 Y108.123 E244.835
G1 X118.618 E244.85
G1 X119.331 Y108.836 E244.883
G1 Y109.402 E244.902
G1 X118.052 Y108.123 E244.962
G1 X117.926 E244.966
G1 Y108.563 E244.981
G1 X136.165 Y126.802 E245.839
G1 X136.448 Y126.519 E245.852
G1 X135.695 Y125.766 E245.888
G1 X135.978 Y125.483 E245.901
G1 X136.731 Y126.236 E245.936
G1 X137.014 Y125.953 E245.95
G1 X136.26 Y125.2 E245.985
G1 X136.543 Y124.917 E245.998
G1 X137.296 Y125.67 E246.034
G1 X137.579 Y125.387 E246.047
G1 X136.826 Y124.634 E246.082
G1 X137.109 Y124.352 E246.096
G1 X137.862 Y125.105 E246.131
G1 X138.145 Y124.822 E246.144
G1 X137.392 Y124.069 E246.18
G1 X137.675 Y123.786 E246.193
G1 X138.428 Y124.539 E246.229
G1 X138.711 Y124.256 E246.242
G1 X137.958 Y123.503 E246.277
G1 X138.24 Y123.22 E246.291
G1 X138.994 Y123.973 E246.326
G1 X139.276 Y123.69 E246.339
G1 X138.523 Y122.937 E246.375
G1 X138.806 Y122.655 E246.388
G1 X139.559 Y123.408 E246.424
G1 X139.842 Y123.125 E246.437
G1 X139.089 Y122.372 E246.472
G1 X139.372 Y122.089 E246.486
G1 X140.125 Y122.842 E246.521
G1 X140.408 Y122.559 E246.534
G1 X139.655 Y121.806 E246.57
G1 X139.937 Y121.523 E246.583
G1 X140.691 Y122.276 E246.618
G1 X140.974 Y121.994 E246.632
G1 X140.22 Y121.24 E246.667
G1 X140.503 Y120.957 E246.68
G1 X141.256 Y121.711 E246.716
G1 X141.539 Y121.428 E246.729
G1 X140.786 Y120.675 E246.765
G1 X141.069 Y120.392 E246.778
G1 X141.822 Y121.145 E246.813
G1 X142.105 Y120.862 E246.827
G1 X141.352 Y120.109 E246.862
G1 X141.635 Y119.826 E246.875
G1 X142.388 Y120.579 E246.911
G1 X142.671 Y120.297 E246.924
G1 X141.917 Y119.543 E246.96
G1 X142.2 Y119.26 E246.973
G1 X142.954 Y120.014 E247.008
G1 X143.236 Y119.731 E247.022
G1 X142.483 Y118.978 E247.057
G1 X142.766 Y118.695 E247.07
G1 X143.519 Y119.448 E247.106
G1 F1800 E237.106
;Layer : 3 of 53
;rapid-leaky
G1 F236
G0 X144.081 Y119.339 Z0.7
G1 F1800 E247.106
;bead-perimeter_inner
G1 X135.899 Y127.52 F1560 E247.491
G1 X117.606 Y109.227 E248.351
G1 Y107.803 E248.398
G1 X118.749 E248.436
G1 Y93.338 E248.918
G1 X101.363 E249.496
G1 Y107.803 E249.977
G1 X102.506 E250.015
G1 Y109.225 E250.062
G1 X84.102 Y127.41 E250.923
G1 X75.919 Y119.226 E251.308
G1 X77.125 Y118.021 E251.364
G1 X79.404 Y120.3 E251.472
G1 X80.357 Y121.283 E251.517
G1 X81.551 Y122.448 E251.573
G1 X84.63 Y125.526 E251.717
G1 X100.461 Y109.695 E252.462
G1 Y92.246 E253.042
G1 X119.651 E253.681
G1 Y109.695 E254.261
G1 X135.482 Y125.526 E255.006
G1 X138.504 Y122.504 E255.148
G1 X139.398 Y121.639 E255.189
G1 X140.652 Y120.356 E255.249
G1 X142.875 Y118.133 E255.353
G1 X144.081 Y119.339 E255.41
;rapid-leaky
G1 F236
G0 X144.597
;bead-perimeter_outer
G1 X135.899 Y128.036 F1080 E255.819
G1 X117.241 Y109.378 E256.697
G1 Y107.438 E256.761
G1 X118.384 E256.799
G1 Y93.703 E257.256
G1 X101.728 E257.81
G1 Y107.438 E258.267
G1 X102.871 E258.305
G1 Y109.377 E258.37
G1 X84.101 Y127.925 E259.247
G1 X75.403 Y119.226 E259.656
G1 X77.125 Y117.505 E259.737
G1 X79.665 Y120.044 E259.857
G1 X80.616 Y121.026 E259.902
G1 X81.807 Y122.188 E259.958
G1 X84.63 Y125.01 E260.09
G1 X100.096 Y109.544 E260.818
G1 Y91.881 E261.405
G1 X120.016 E262.068
G1 Y109.544 E262.655
G1 X135.482 Y125.01 E263.383
G1 X138.248 Y122.244 E263.513
G1 X139.141 Y121.379 E263.554
G1 X140.392 Y120.1 E263.614
G1 X142.875 Y117.617 E263.731
G1 X144.597 Y119.339 E263.812
;rapid-leaky
G1 F236
G0 X135.785 Y126.954
;bead-solid_infill
G1 X143.514 Y119.225 F2400 E264.175
G1 X143.231 Y118.942 E264.188
G1 X135.502 Y126.671 E264.552
G1 X135.219 Y126.388 E264.565
G1 X142.948 Y118.659 E264.929
G1 X142.875 Y118.586 E264.932
G1 X140.88 Y120.581 E265.026
G1 X139.623 Y121.866 E265.086
G1 X138.729 Y122.732 E265.127
G1 X135.482 Y125.979 E265.28
G1 X135.273 Y125.769 E265.29
G1 X134.937 Y126.105 E265.306
G1 X134.654 Y125.822 E265.319
G1 X134.99 Y125.486 E265.335
G1 X134.707 Y125.203 E265.348
G1 X134.371 Y125.539 E265.364
G1 X134.088 Y125.257 E265.377
G1 X134.424 Y124.921 E265.393
G1 X134.141 Y124.638 E265.406
G1 X133.805 Y124.974 E265.422
G1 X133.522 Y124.691 E265.435
G1 X133.858 Y124.355 E265.451
G1 X133.576 Y124.072 E265.465
G1 X133.24 Y124.408 E265.48
G1 X132.957 Y124.125 E265.494
G1 X133.293 Y123.789 E265.509
G1 X133.01 Y123.506 E265.523
G1 X132.674 Y123.842 E265.539
G1 X132.391 Y123.56 E265.552
G1 X132.727 Y123.224 E265.568
G1 X132.444 Y122.941 E265.581
G1 X132.108 Y123.277 E265.597
G1 X131.825 Y122.994 E265.61
G1 X132.161 Y122.658 E265.626
G1 X131.878 Y122.375 E265.639
G1 X131.543 Y122.711 E265.655
G1 X131.26 Y122.428 E265.668
G1 X131.596 Y122.092 E265.684
G1 X131.313 Y121.809 E265.697
G1 X130.977 Y122.145 E265.713
G1 X130.694 Y121.862 E265.727
G1 X131.03 Y121.527 E265.742
G1 X130.747 Y121.244 E265.756
G1 X130.411 Y121.58 E265.771
G1 X130.128 Y121.297 E265.785
G1 X130.464 Y120.961 E265.801
G1 X130.181 Y120.678 E265.814
G1 X129.845 Y121.014 E265.83
G1 X129.563 Y120.731 E265.843
G1 X129.899 Y120.395 E265.859
G1 X129.616 Y120.112 E265.872
G1 X129.28 Y120.448 E265.888
G1 X128.997 Y120.165 E265.901
G1 X129.333 Y119.829 E265.917
G1 X129.05 Y119.547 E265.93
G1 X128.714 Y119.883 E265.946
G1 X128.431 Y119.6 E265.959
G1 X128.767 Y119.264 E265.975
G1 X128.484 Y118.981 E265.988
G1 X128.148 Y119.317 E266.004
G1 X127.866 Y119.034 E266.018
G1 X128.202 Y118.698 E266.033
G1 X127.919 Y118.415 E266.047
G1 X127.583 Y118.751 E266.062
G1 X127.3 Y118.468 E266.076
G1 X127.636 Y118.132 E266.092
G1 X127.353 Y117.85 E266.105
G1 X127.017 Y118.185 E266.121
G1 X126.734 Y117.903 E266.134
G1 X127.07 Y117.567 E266.15
G1 X126.787 Y117.284 E266.163
G1 X126.451 Y117.62 E266.179
G1 X126.169 Y117.337 E266.192
G1 X126.504 Y117.001 E266.208
G1 X126.222 Y116.718 E266.221
G1 X125.886 Y117.054 E266.237
G1 X125.603 Y116.771 E266.25
G1 X125.939 Y116.435 E266.266
G1 X125.656 Y116.153 E266.28
G1 X125.32 Y116.488 E266.295
G1 X125.037 Y116.206 E266.309
G1 X125.373 Y115.87 E266.324
G1 X125.09 Y115.587 E266.338
G1 X124.754 Y115.923 E266.354
G1 X124.471 Y115.64 E266.367
G1 X124.807 Y115.304 E266.383
G1 X124.525 Y115.021 E266.396
G1 X124.189 Y115.357 E266.412
G1 X123.906 Y115.074 E266.425
G1 X124.242 Y114.738 E266.441
G1 X123.959 Y114.455 E266.454
G1 X123.623 Y114.791 E266.47
G1 X123.34 Y114.509 E266.483
G1 X123.676 Y114.173 E266.499
G1 X123.393 Y113.89 E266.512
G1 X123.057 Y114.226 E266.528
G1 X122.774 Y113.943 E266.541
G1 X123.11 Y113.607 E266.557
G1 X122.827 Y113.324 E266.571
G1 X122.492 Y113.66 E266.586
G1 X122.209 Y113.377 E266.6
G1 X122.545 Y113.041 E266.615
G1 X122.262 Y112.758 E266.629
G1 X121.926 Y113.094 E266.645
G1 X121.643 Y112.811 E266.658
G1 X121.979 Y112.476 E266.674
G1 X121.696 Y112.193 E266.687
G1 X121.36 Y112.529 E266.703
G1 X121.077 Y112.246 E266.716
G1 X121.413 Y111.91 E266.732
G1 X121.13 Y111.627 E266.745
G1 X120.795 Y111.963 E266.761
G1 X120.512 Y111.68 E266.774
G1 X120.848 Y111.344 E266.79
G1 X120.565 Y111.061 E266.803
G1 X120.229 Y111.397 E266.819
G1 X119.946 Y111.114 E266.832
G1 X120.282 Y110.779 E266.848
G1 X119.999 Y110.496 E266.862
G1 X119.663 Y110.832 E266.877
G1 X119.38 Y110.549 E266.891
G1 X119.716 Y110.213 E266.906
G1 X119.433 Y109.93 E266.92
G1 X119.097 Y110.266 E266.936
G1 X118.815 Y109.983 E266.949
G1 X119.331 Y109.467 E266.973
G1 Y108.901 E266.992
G1 X118.532 Y109.7 E267.03
G1 X118.249 Y109.417 E267.043
G1 X119.331 Y108.335 E267.094
G1 Y107.77 E267.113
G1 X119.069 Y108.032 E267.125
G1 Y107.466 E267.144
G1 X119.331 Y107.204 E267.156
G1 Y106.638 E267.175
G1 X119.069 Y106.9 E267.187
G1 Y106.335 E267.206
G1 X119.331 Y106.073 E267.218
G1 Y105.507 E267.237
G1 X119.069 Y105.769 E267.25
G1 Y105.203 E267.268
G1 X119.331 Y104.941 E267.281
G1 Y104.376 E267.299
G1 X119.069 Y104.637 E267.312
G1 Y104.072 E267.331
G1 X119.331 Y103.81 E267.343
G1 Y103.244 E267.362
G1 X119.069 Y103.506 E267.374
G1 Y102.94 E267.393
G1 X119.331 Y102.678 E267.405
G1 Y102.113 E267.424
G1 X119.069 Y102.375 E267.436
G1 Y101.809 E267.455
G1 X119.331 Y101.547 E267.467
G1 Y100.981 E267.486
G1 X119.069 Y101.243 E267.499
G1 Y100.678 E267.517
G1 X119.331 Y100.416 E267.53
G1 Y99.85 E267.549
G1 X119.069 Y100.112 E267.561
G1 Y99.546 E267.58
G1 X119.331 Y99.284 E267.592
G1 Y98.719 E267.611
G1 X119.069 Y98.981 E267.623
G1 Y98.415 E267.642
G1 X119.331 Y98.153 E267.654
G1 Y97.587 E267.673
G1 X119.069 Y97.849 E267.685
G1 Y97.284 E267.704
G1 X119.331 Y97.022 E267.717
G1 Y96.456 E267.735
G1 X119.069 Y96.718 E267.748
G1 Y96.152 E267.767
G1 X119.331 Y95.89 E267.779
G1 Y95.325 E267.798
G1 X119.069 Y95.587 E267.81
G1 Y95.021 E267.829
G1 X119.331 Y94.759 E267.841
G1 Y94.193 E267.86
G1 X119.069 Y94.455 E267.872
G1 Y93.889 E267.891
G1 X119.331 Y93.627 E267.903
G1 Y93.062 E267.922
G1 X119.069 Y93.324 E267.935
G1 Y93.018 E267.945
G1 X118.809 E267.953
G1 X119.261 Y92.566 E267.975
G1 X118.695 E267.993
G1 X118.243 Y93.018 E268.015
G1 X117.678 E268.034
G1 X118.13 Y92.566 E268.055
G1 X117.564 E268.074
G1 X117.112 Y93.018 E268.095
G1 X116.546 E268.114
G1 X116.998 Y92.566 E268.135
G1 X116.433 E268.154
G1 X115.981 Y93.018 E268.175
G1 X115.415 E268.194
G1 X115.867 Y92.566 E268.215
G1 X115.301 E268.234
G1 X114.849 Y93.018 E268.255
G1 X114.284 E268.274
G1 X114.736 Y92.566 E268.295
G1 X114.17 E268.314
G1 X113.718 Y93.018 E268.335
G1 X113.152 E268.354
G1 X113.604 Y92.566 E268.375
G1 X113.039 E268.394
G1 X112.587 Y93.018 E268.415
G1 X112.021 E268.434
G1 X112.473 Y92.566 E268.456
G1 X111.907 E268.474
G1 X111.455 Y93.018 E268.496
G1 X110.89 E268.514
G1 X111.342 Y92.566 E268.536
G1 X110.776 E268.554
G1 X110.324 Y93.018 E268.576
G1 X109.758 E268.595
G1 X110.21 Y92.566 E268.616
G1 X109.644 E268.635
G1 X109.192 Y93.018 E268.656
G1 X108.627 E268.675
G1 X109.079 Y92.566 E268.696
G1 X108.513 E268.715
G1 X108.061 Y93.018 E268.736
G1 X107.495 E268.755
G1 X107.947 Y92.566 E268.776
G1 X107.382 E268.795
G1 X106.93 Y93.018 E268.816
G1 X106.364 E268.835
G1 X106.816 Y92.566 E268.856
G1 X106.25 E268.875
G1 X105.798 Y93.018 E268.896
G1 X105.233 E268.915
G1 X105.685 Y92.566 E268.936
G1 X105.119 E268.955
G1 X104.667 Y93.018 E268.977
G1 X104.101 E268.995
G1 X104.553 Y92.566 E269.017
G1 X103.988 E269.035
G1 X103.536 Y93.018 E269.057
G1 X102.97 E269.075
G1 X103.422 Y92.566 E269.097
G1 X102.856 E269.116
G1 X102.404 Y93.018 E269.137
G1 X101.839 E269.156
G1 X102.291 Y92.566 E269.177
G1 X101.725 E269.196
G1 X101.273 Y93.018 E269.217
G1 X101.043 E269.225
G1 Y93.248 E269.232
G1 X100.781 Y93.51 E269.245
G1 Y92.944 E269.263
G1 X101.159 Y92.566 E269.281
G1 F1800 E259.281
;rapid-dry
G1 F236
G0 X101.043 Y93.814
G1 F1800 E269.281
;bead-solid_infill
G1 X100.781 Y94.076 F2400 E269.293
G1 Y94.641 E269.312
G1 X101.043 Y94.379 E269.325
G1 Y94.945 E269.343
G1 X100.781 Y95.207 E269.356
G1 Y95.773 E269.375
G1 X101.043 Y95.511 E269.387
G1 Y96.076 E269.406
G1 X100.781 Y96.338 E269.418
G1 Y96.904 E269.437
G1 X101.043 Y96.642 E269.449
G1 Y97.208 E269.468
G1 X100.781 Y97.47 E269.48
G1 Y98.035 E269.499
G1 X101.043 Y97.773 E269.511
G1 Y98.339 E269.53
G1 X100.781 Y98.601 E269.543
G1 Y99.167 E269.561
G1 X101.043 Y98.905 E269.574
G1 Y99.47 E269.593
G1 X100.781 Y99.732 E269.605
G1 Y100.298 E269.624
G1 X101.043 Y100.036 E269.636
G1 Y100.602 E269.655
G1 X100.781 Y100.864 E269.667
G1 Y101.429 E269.686
G1 X101.043 Y101.167 E269.698
G1 Y101.733 E269.717
G1 X100.781 Y101.995 E269.729
G1 Y102.561 E269.748
G1 X101.043 Y102.299 E269.761
G1 Y102.865 E269.779
G1 X100.781 Y103.127 E269.792
G1 Y103.692 E269.811
G1 X101.043 Y103.43 E269.823
G1 Y103.996 E269.842
G1 X100.781 Y104.258 E269.854
G1 Y104.824 E269.873
G1 X101.043 Y104.562 E269.885
G1 Y105.127 E269.904
G1 X100.781 Y105.389 E269.916
G1 Y105.955 E269.935
G1 X101.043 Y105.693 E269.947
G1 Y106.259 E269.966
G1 X100.781 Y106.521 E269.979
G1 Y107.086 E269.997
G1 X101.043 Y106.824 E270.01
G1 Y107.39 E270.029
G1 X100.781 Y107.652 E270.041
G1 Y108.218 E270.06
G1 X101.043 Y107.956 E270.072
G1 Y108.123 E270.078
G1 X101.441 E270.091
G1 X100.781 Y108.783 E270.122
G1 Y109.349 E270.141
G1 X102.007 Y108.123 E270.198
G1 X102.186 E270.204
G1 Y108.51 E270.217
G1 X83.92 Y126.776 E271.076
G1 X83.637 Y126.493 E271.09
G1 X84.391 Y125.739 E271.125
G1 X84.108 Y125.456 E271.138
G1 X83.355 Y126.21 E271.174
G1 X83.072 Y125.927 E271.187
G1 X83.825 Y125.174 E271.223
G1 X83.542 Y124.891 E271.236
G1 X82.789 Y125.644 E271.271
G1 X82.506 Y125.361 E271.285
G1 X83.259 Y124.608 E271.32
G1 X82.976 Y124.325 E271.333
G1 X82.223 Y125.078 E271.369
G1 X81.94 Y124.796 E271.382
G1 X82.693 Y124.042 E271.417
G1 X82.411 Y123.76 E271.431
G1 X81.658 Y124.513 E271.466
G1 X81.375 Y124.23 E271.479
G1 X82.128 Y123.477 E271.515
G1 X81.845 Y123.194 E271.528
G1 X81.092 Y123.947 E271.564
G1 X80.809 Y123.664 E271.577
G1 X81.562 Y122.911 E271.612
G1 X81.327 Y122.676 E271.623
G1 X81.278 Y122.629 E271.626
G1 X80.526 Y123.381 E271.661
G1 X80.243 Y123.098 E271.674
G1 X80.992 Y122.35 E271.71
G1 X80.706 Y122.07 E271.723
G1 X79.961 Y122.816 E271.758
G1 X79.678 Y122.533 E271.771
G1 X80.419 Y121.791 E271.806
G1 X80.133 Y121.512 E271.819
G1 X79.395 Y122.25 E271.854
G1 X79.112 Y121.967 E271.867
G1 X79.855 Y121.225 E271.902
G1 X79.576 Y120.937 E271.916
G1 X78.829 Y121.684 E271.951
G1 X78.546 Y121.401 E271.964
G1 X79.298 Y120.65 E271.999
G1 X79.176 Y120.525 E272.005
G1 X79.017 Y120.365 E272.013
G1 X78.264 Y121.118 E272.048
G1 X77.981 Y120.836 E272.061
G1 X78.734 Y120.082 E272.097
G1 X78.451 Y119.8 E272.11
G1 X77.698 Y120.553 E272.146
G1 X77.415 Y120.27 E272.159
G1 X78.168 Y119.517 E272.194
G1 X77.885 Y119.234 E272.208
G1 X77.132 Y119.987 E272.243
G1 X76.85 Y119.704 E272.256
G1 X77.603 Y118.951 E272.292
G1 X77.32 Y118.668 E272.305
G1 X76.567 Y119.421 E272.34
G1 F1800 E262.34
;rapid-dry
G1 F236
G0 X100.844 Y110.417
G1 F1800 E272.34
;bead-solid_infill
G1 X102.186 Y109.075 F2400 E272.404
G1 F1800 E262.404
;rapid-dry
G1 F236
G0 X117.926 Y108.609
G1 F1800 E272.404
;bead-solid_infill
G1 X118.412 Y108.123 F2400 E272.426
G1 X118.978 E272.445
G1 X117.966 Y109.135 E272.493
G1 F1800 E262.493
;Layer : 4 of 53
;rapid-leaky
G1 F236
G0 X117.606 Y109.227 Z0.9
G1 F1800 E272.493
;bead-perimeter_inner
G1 Y107.803 F1560 E272.54
G1 X118.749 E272.578
G1 Y93.338 E273.059
G1 X101.363 E273.638
G1 Y107.803 E274.119
G1 X102.506 E274.157
G1 Y109.225 E274.204
G1 X84.102 Y127.41 E275.065
G1 X75.919 Y119.226 E275.449
G1 X77.125 Y118.021 E275.506
G1 X79.039 Y119.936 E275.596
G1 X80.449 Y121.4 E275.664
G1 X81.916 Y122.813 E275.732
G1 X84.63 Y125.526 E275.859
G1 X100.461 Y109.695 E276.604
G1 Y92.246 E277.184
G1 X119.651 E277.822
G1 Y109.695 E278.403
G1 X135.482 Y125.526 E279.147
G1 X138.14 Y122.869 E279.272
G1 X139.447 Y121.615 E279.333
G1 X140.124 Y120.931 E279.365
G1 X141.017 Y119.993 E279.408
G1 X142.875 Y118.133 E279.495
G1 X144.081 Y119.339 E279.552
G1 X135.899 Y127.52 E279.937
G1 X117.606 Y109.227 E280.797
;rapid-leaky
G1 F236
G0 X117.241 Y109.378
;bead-perimeter_outer
G1 Y107.438 F1080 E280.862
G1 X118.384 E280.9
G1 Y93.703 E281.357
G1 X101.728 E281.911
G1 Y107.438 E282.367
G1 X102.871 E282.405
G1 Y109.377 E282.47
G1 X84.101 Y127.925 E283.348
G1 X75.403 Y119.226 E283.757
G1 X77.125 Y117.505 E283.838
G1 X79.301 Y119.681 E283.94
G1 X80.707 Y121.141 E284.007
G1 X82.17 Y122.551 E284.075
G1 X84.63 Y125.01 E284.191
G1 X100.096 Y109.544 E284.918
G1 Y91.881 E285.506
G1 X120.016 E286.168
G1 Y109.544 E286.756
G1 X135.482 Y125.01 E287.483
G1 X137.885 Y122.607 E287.596
G1 X139.19 Y121.356 E287.656
G1 X139.862 Y120.677 E287.688
G1 X140.755 Y119.738 E287.731
G1 X142.875 Y117.617 E287.831
G1 X144.597 Y119.339 E287.912
G1 X135.899 Y128.036 E288.321
G1 X117.241 Y109.378 E289.199
;rapid-leaky
G1 F236
G0 X123.394 Y113.89
;bead-sparse_infill
G1 X123.446 Y114.35 F3600 E289.214
G1 X123.351 Y114.519 E289.221
G1 X126.805 Y117.302 E289.368
G1 X126.564 Y117.732 E289.384
G1 F1800 E279.384
;rapid-dry
G1 F236
G0 X136.472 Y124.989
G1 F1800 E289.384
;bead-sparse_infill
G1 X136.721 Y125.21 F3600 E289.396
G1 X137.089 Y125.878 E289.421
G1 X141.852 Y121.115 E289.645
G1 X141.317 Y120.145 E289.682
G1 F1800 E279.682
;rapid-dry
G1 F236
G0 X119.331 Y107.361
G1 F1800 E289.682
;bead-sparse_infill
G1 X119.19 Y107.111 F3600 E289.691
G1 X119.331 Y105.874 E289.733
G1 Y92.882 E290.165
G1 X119.19 Y92.631 E290.174
G1 X119.198 Y92.566 E290.177
G1 X113.59 Y93.018 E290.364
G1 X113.155 Y92.631 E290.383
G1 X113.119 Y92.566 E290.386
G1 X104.928 Y93.018 E290.658
G1 X104.711 Y92.631 E290.673
G1 X104.718 Y92.566 E290.675
G1 F1800 E280.675
;rapid-dry
G1 F236
G0 X100.781 Y94.568
G1 F1800 E290.675
;bead-sparse_infill
G1 X101.043 Y95.034 F3600 E290.693
G1 Y98.928 E290.823
G1 X100.781 Y99.402 E290.841
G1 Y109.048 E291.161
G1 X101.299 Y109.968 E291.197
G1 X90.388 Y120.221 E291.695
G1 X90.32 Y120.817 E291.715
G1 X86.582 Y124.026 E291.878
G1 X86.757 Y124.337 E291.89
G1 F1800 E281.89
;Layer : 5 of 53
;rapid-leaky
G1 F236
G0 X84.63 Y125.526 Z1.1
G1 F1800 E291.89
;bead-perimeter_inner
G1 X100.461 Y109.695 F1560 E292.635
G1 Y92.246 E293.215
G1 X119.651 E293.853
G1 Y109.695 E294.434
G1 X135.482 Y125.526 E295.178
G1 X137.863 Y123.146 E295.29
G1 X138.664 Y122.398 E295.327
G1 X139.139 Y121.978 E295.348
G1 X139.616 Y121.519 E295.37
G1 X140.126 Y120.992 E295.394
G1 X140.546 Y120.516 E295.415
G1 X141.294 Y119.715 E295.452
G1 X142.875 Y118.133 E295.526
G1 X144.081 Y119.339 E295.583
G1 X135.899 Y127.52 E295.968
G1 X117.606 Y109.227 E296.828
G1 Y107.803 E296.876
G1 X118.749 E296.914
G1 Y93.338 E297.395
G1 X101.363 E297.973
G1 Y107.803 E298.454
G1 X102.506 E298.492
G1 Y109.225 E298.54
G1 X84.102 Y127.41 E299.4
G1 X75.919 Y119.226 E299.785
G1 X77.125 Y118.021 E299.842
G1 X78.761 Y119.658 E299.919
G1 X80.09 Y121.107 E299.984
G1 X80.414 Y121.439 E299.999
G1 X80.745 Y121.761 E300.015
G1 X82.194 Y123.09 E300.08
G1 X84.63 Y125.526 E300.195
;rapid-leaky
G1 F236
G0 Y125.01
;bead-perimeter_outer
G1 X100.096 Y109.544 F1080 E300.922
G1 Y91.881 E301.51
G1 X120.016 E302.172
G1 Y109.544 E302.76
G1 X135.482 Y125.01 E303.487
G1 X137.609 Y122.884 E303.587
G1 X138.418 Y122.128 E303.624
G1 X138.892 Y121.71 E303.645
G1 X139.358 Y121.261 E303.667
G1 X139.858 Y120.744 E303.691
G1 X140.276 Y120.27 E303.712
G1 X141.032 Y119.461 E303.748
G1 X142.875 Y117.617 E303.835
G1 X144.597 Y119.339 E303.916
G1 X135.899 Y128.036 E304.325
G1 X117.241 Y109.378 E305.203
G1 Y107.438 E305.267
G1 X118.384 E305.305
G1 Y93.703 E305.762
G1 X101.728 E306.316
G1 Y107.438 E306.773
G1 X102.871 E306.811
G1 Y109.377 E306.876
G1 X84.101 Y127.925 E307.753
G1 X75.403 Y119.226 E308.162
G1 X77.125 Y117.505 E308.243
G1 X79.024 Y119.405 E308.333
G1 X80.355 Y120.856 E308.398
G1 X80.672 Y121.181 E308.413
G1 X80.996 Y121.496 E308.428
G1 X82.447 Y122.827 E308.494
G1 X84.63 Y125.01 E308.596
;rapid-leaky
G1 F236
G0 X86.917 Y124.179
;bead-sparse_infill
G1 X86.755 Y123.854 F3600 E308.609
G1 X90.163 Y120.972 E308.757
G1 X90.284 Y120.324 E308.779
G1 X101.454 Y109.815 E309.289
G1 X101.007 Y108.921 E309.322
G1 X100.781 Y108.739 E309.332
G1 Y99.324 E309.645
G1 X101.043 Y98.906 E309.661
G1 Y94.514 E309.808
G1 X101.007 Y94.441 E309.81
G1 X100.781 Y94.259 E309.82
G1 F1800 E299.82
;rapid-dry
G1 F236
G0 X104.538 Y92.566
G1 F1800 E309.82
;bead-sparse_infill
G1 X104.526 Y92.631 F3600 E309.822
G1 X104.719 Y93.018 E309.836
G1 X113.198 Y92.566 E310.119
G1 X113.239 Y92.631 E310.121
G1 X113.719 Y93.018 E310.142
G1 X119.018 Y92.566 E310.319
G1 X119.005 Y92.631 E310.321
G1 X119.331 Y93.283 E310.345
G1 Y105.375 E310.747
G1 X119.069 Y106.771 E310.795
G1 Y107.238 E310.81
G1 X119.331 Y107.762 E310.83
G1 F1800 E300.83
;rapid-dry
G1 F236
G0 X123.58 Y114.076
G1 F1800 E310.83
;bead-sparse_infill
G1 X123.631 Y114.35 F3600 E310.839
G1 X123.481 Y114.65 E310.85
G1 X126.655 Y117.151 E310.985
G1 X126.431 Y117.599 E311.001
G1 F1800 E301.001
;rapid-dry
G1 F236
G0 X136.423 Y125.038
G1 F1800 E311.001
;bead-sparse_infill
G1 X136.637 Y125.21 F3600 E311.01
G1 X137.068 Y125.899 E311.037
G1 X141.882 Y121.085 E311.264
G1 X141.308 Y120.169 E311.3
G1 F1800 E301.3
;Layer : 6 of 53
;rapid-leaky
G1 F236
G0 X140.931 Y120.13 Z1.3
G1 F1800 E311.3
;bead-perimeter_inner
G1 X141.533 Y119.476 F1560 E311.329
G1 X142.875 Y118.133 E311.392
G1 X144.081 Y119.339 E311.449
G1 X135.899 Y127.52 E311.834
G1 X117.606 Y109.227 E312.694
G1 Y107.803 E312.742
G1 X118.749 E312.78
G1 Y93.338 E313.261
G1 X101.363 E313.839
G1 Y107.803 E314.32
G1 X102.506 E314.358
G1 Y109.225 E314.406
G1 X84.102 Y127.41 E315.266
G1 X75.919 Y119.226 E315.651
G1 X77.125 Y118.021 E315.708
G1 X78.523 Y119.42 E315.774
G1 X79.115 Y120.064 E315.803
G1 X79.759 Y120.826 E315.836
G1 X80.35 Y121.451 E315.864
G1 X81.025 Y122.092 E315.895
G1 X81.788 Y122.737 E315.929
G1 X82.432 Y123.329 E315.958
G1 X84.63 Y125.526 E316.061
G1 X100.461 Y109.695 E316.806
G1 Y92.246 E317.386
G1 X119.651 E318.024
G1 Y109.695 E318.605
G1 X135.482 Y125.526 E319.349
G1 X137.624 Y123.385 E319.45
G1 X138.278 Y122.784 E319.48
G1 X138.854 Y122.304 E319.505
G1 X139.524 Y121.688 E319.535
G1 X140.142 Y121.052 E319.564
G1 X140.452 Y120.706 E319.58
G1 X140.931 Y120.13 E319.605
;rapid-leaky
G1 F236
G0 X140.657 Y119.89
;bead-perimeter_outer
G1 X141.269 Y119.223 F1080 E319.635
G1 X142.875 Y117.617 E319.71
G1 X144.597 Y119.339 E319.791
G1 X135.899 Y128.036 E320.2
G1 X117.241 Y109.378 E321.078
G1 Y107.438 E321.143
G1 X118.384 E321.181
G1 Y93.703 E321.637
G1 X101.728 E322.191
G1 Y107.438 E322.648
G1 X102.871 E322.686
G1 Y109.377 E322.751
G1 X84.101 Y127.925 E323.628
G1 X75.403 Y119.226 E324.038
G1 X77.125 Y117.505 E324.119
G1 X78.787 Y119.167 E324.197
G1 X79.39 Y119.824 E324.226
G1 X80.031 Y120.582 E324.259
G1 X80.609 Y121.193 E324.287
G1 X81.269 Y121.82 E324.318
G1 X82.028 Y122.462 E324.351
G1 X82.685 Y123.065 E324.38
G1 X84.63 Y125.01 E324.472
G1 X100.096 Y109.544 E325.199
G1 Y91.881 E325.787
G1 X120.016 E326.449
G1 Y109.544 E327.037
G1 X135.482 Y125.01 E327.764
G1 X137.371 Y123.121 E327.853
G1 X138.038 Y122.51 E327.883
G1 X138.616 Y122.027 E327.908
G1 X139.269 Y121.426 E327.938
G1 X139.874 Y120.805 E327.967
G1 X140.175 Y120.468 E327.982
G1 X140.657 Y119.89 E328.007
;rapid-leaky
G1 F236
G0 X141.299 Y120.203
;bead-sparse_infill
G1 X141.906 Y121.062 F3600 E328.042
G1 X137.053 Y125.914 E328.27
G1 X136.556 Y125.21 E328.299
G1 X136.378 Y125.083 E328.306
G1 F1800 E318.306
;rapid-dry
G1 F236
G0 X126.262 Y117.431
G1 F1800 E328.306
;bead-sparse_infill
G1 X126.458 Y116.955 F3600 E328.323
G1 X123.645 Y114.814 E328.441
G1 X123.836 Y114.35 E328.457
G1 X123.83 Y114.326 E328.458
G1 F1800 E318.458
;rapid-dry
G1 F236
G0 X119.331 Y108.398
G1 F1800 E328.458
;bead-sparse_infill
G1 X119.069 Y107.763 F3600 E328.481
G1 Y106.102 E328.536
G1 X119.283 Y105.301 E328.564
G1 X119.331 Y105.232 E328.566
G1 Y93.919 E328.943
G1 X119.069 Y93.283 E328.966
G1 X118.96 Y93.018 E328.975
G1 X118.8 Y92.631 E328.989
G1 X118.818 Y92.566 E328.991
G1 X113.86 Y93.018 E329.157
G1 X113.32 Y92.631 E329.179
G1 X113.274 Y92.566 E329.182
G1 X104.48 Y93.018 E329.475
G1 X104.321 Y92.631 E329.488
G1 X104.338 Y92.566 E329.491
;rapid-leaky
G1 F236
G0 X100.781 Y94.02
;bead-sparse_infill
G1 X101.043 Y94.207 F3600 E329.501
G1 Y98.9 E329.658
G1 X100.781 Y99.272 E329.673
G1 Y108.499 E329.979
G1 X101.371 Y108.921 E330.004
G1 X101.657 Y109.614 E330.029
G1 X90.141 Y120.468 E330.555
G1 X89.95 Y121.182 E330.579
G1 X86.984 Y123.624 E330.707
G1 X87.127 Y123.971 E330.72
G1 F1800 E320.72
;Layer : 7 of 53
;rapid-leaky
G1 F236
G0 X84.63 Y125.526 Z1.5
G1 F1800 E330.72
;bead-perimeter_inner
G1 X100.461 Y109.695 F1560 E331.464
G1 Y92.246 E332.045
G1 X119.651 E332.683
G1 Y109.695 E333.263
G1 X135.482 Y125.526 E334.008
G1 X137.427 Y123.582 E334.099
G1 X137.99 Y123.07 E334.125
G1 X139.267 Y122.038 E334.179
G1 X139.702 Y121.632 E334.199
G1 X140.188 Y121.116 E334.223
G1 X141.218 Y119.842 E334.277
G1 X141.73 Y119.279 E334.303
G1 X142.875 Y118.133 E334.356
G1 X144.081 Y119.339 E334.413
G1 X135.899 Y127.52 E334.798
G1 X117.606 Y109.227 E335.658
G1 Y107.803 E335.706
G1 X118.749 E335.744
G1 Y93.338 E336.225
G1 X101.363 E336.803
G1 Y107.803 E337.284
G1 X102.506 E337.322
G1 Y109.225 E337.37
G1 X84.102 Y127.41 E338.23
G1 X75.919 Y119.226 E338.615
G1 X77.125 Y118.021 E338.672
G1 X78.326 Y119.223 E338.728
G1 X78.829 Y119.778 E338.753
G1 X79.724 Y120.888 E338.801
G1 X80.013 Y121.225 E338.815
G1 X80.314 Y121.539 E338.83
G1 X80.627 Y121.837 E338.844
G1 X80.963 Y122.128 E338.859
G1 X82.075 Y123.023 E338.906
G1 X82.629 Y123.525 E338.931
G1 X84.63 Y125.526 E339.025
;rapid-leaky
G1 F236
G0 Y125.01
;bead-perimeter_outer
G1 X100.096 Y109.544 F1080 E339.753
G1 Y91.881 E340.34
G1 X120.016 E341.003
G1 Y109.544 E341.59
G1 X135.482 Y125.01 E342.318
G1 X137.175 Y123.318 E342.398
G1 X137.754 Y122.792 E342.424
G1 X139.026 Y121.763 E342.478
G1 X139.448 Y121.37 E342.497
G1 X139.912 Y120.877 E342.52
G1 X140.94 Y119.606 E342.574
G1 X141.466 Y119.027 E342.6
G1 X142.875 Y117.617 E342.666
G1 X144.597 Y119.339 E342.747
G1 X135.899 Y128.036 E343.156
G1 X117.241 Y109.378 E344.034
G1 Y107.438 E344.099
G1 X118.384 E344.137
G1 Y93.703 E344.593
G1 X101.728 E345.147
G1 Y107.438 E345.604
G1 X102.871 E345.642
G1 Y109.377 E345.707
G1 X84.101 Y127.925 E346.584
G1 X75.403 Y119.226 E346.994
G1 X77.125 Y117.505 E347.075
G1 X78.59 Y118.971 E347.144
G1 X79.108 Y119.542 E347.169
G1 X80.006 Y120.656 E347.217
G1 X80.284 Y120.979 E347.231
G1 X80.572 Y121.281 E347.245
G1 X81.195 Y121.846 E347.273
G1 X82.31 Y122.744 E347.32
G1 X82.881 Y123.261 E347.346
G1 X84.63 Y125.01 E347.428
;rapid-leaky
G1 F236
G0 X87.453 Y123.649
;bead-sparse_infill
G1 X87.387 Y123.4 F3600 E347.437
G1 X87.277 Y123.332 E347.441
G1 X89.653 Y121.475 E347.542
G1 X89.936 Y120.673 E347.57
G1 X94.165 Y116.444 E347.769
G1 X94.627 Y116.16 E347.787
G1 X94.691 Y115.918 E347.795
G1 X101.969 Y109.306 E348.122
G1 X101.866 Y108.921 E348.135
G1 X100.781 Y108.254 E348.178
G1 Y99.237 E348.478
G1 X101.043 Y98.905 E348.492
G1 Y93.936 E348.657
G1 X100.781 Y93.775 E348.667
;rapid-leaky
G1 F236
G0 X104.115 Y92.566
;bead-sparse_infill
G1 X104.092 Y92.631 F3600 E348.67
G1 X104.195 Y93.018 E348.683
G1 X113.345 Y92.566 E348.988
G1 X113.397 Y92.631 E348.99
G1 X114.027 Y93.018 E349.015
G1 X118.594 Y92.566 E349.168
G1 X118.571 Y92.631 E349.17
G1 X118.674 Y93.018 E349.183
G1 X119.069 Y94.452 E349.233
G1 X119.331 Y94.613 E349.243
G1 Y105.145 E349.593
G1 X119.208 Y105.301 E349.6
G1 X119.069 Y105.697 E349.614
G1 X118.84 Y108.123 E349.695
G1 X119.051 Y108.921 E349.722
G1 X119.331 Y109.092 E349.733
;rapid-leaky
G1 F236
G0 X124.021 Y114.517
;bead-sparse_infill
G1 X123.88 Y115.048 F3600 E349.751
G1 X126.159 Y116.656 E349.844
G1 X126.019 Y117.187 E349.862
G1 F1800 E339.862
;rapid-dry
G1 F236
G0 X136.338 Y125.123
G1 F1800 E349.862
;bead-sparse_infill
G1 X136.479 Y125.21 F3600 E349.868
G1 X137.043 Y125.924 E349.898
G1 X141.924 Y121.043 E350.128
G1 X141.299 Y120.251 E350.161
G1 F1800 E340.161
;Layer : 8 of 53
;rapid-leaky
G1 F236
G0 X140.939 Y120.276 Z1.7
G1 F1800 E350.161
;bead-perimeter_inner
G1 X141.449 Y119.611 F1560 E350.189
G1 X141.904 Y119.105 E350.212
G1 X142.875 Y118.133 E350.258
G1 X144.081 Y119.339 E350.314
G1 X135.899 Y127.52 E350.699
G1 X117.606 Y109.227 E351.56
G1 Y107.803 E351.607
G1 X118.749 E351.645
G1 Y93.338 E352.126
G1 X101.363 E352.704
G1 Y107.803 E353.185
G1 X102.506 E353.223
G1 Y109.225 E353.271
G1 X84.102 Y127.41 E354.131
G1 X75.919 Y119.226 E354.516
G1 X77.125 Y118.021 E354.573
G1 X78.152 Y119.049 E354.621
G1 X78.603 Y119.55 E354.644
G1 X79.686 Y120.986 E354.704
G1 X80.222 Y121.578 E354.73
G1 X80.546 Y121.889 E354.745
G1 X80.865 Y122.166 E354.759
G1 X82.302 Y123.249 E354.819
G1 X82.803 Y123.7 E354.841
G1 X84.63 Y125.526 E354.927
G1 X100.461 Y109.695 E355.672
G1 Y92.246 E356.252
G1 X119.651 E356.891
G1 Y109.695 E357.471
G1 X135.482 Y125.526 E358.215
G1 X137.253 Y123.756 E358.299
G1 X137.759 Y123.301 E358.321
G1 X138.424 Y122.791 E358.349
G1 X139.022 Y122.358 E358.374
G1 X139.353 Y122.084 E358.388
G1 X139.925 Y121.542 E358.414
G1 X140.232 Y121.205 E358.429
G1 X140.506 Y120.874 E358.444
G1 X140.939 Y120.276 E358.468
;rapid-leaky
G1 F236
G0 X140.643 Y120.062
;bead-perimeter_outer
G1 X141.168 Y119.378 F1080 E358.497
G1 X141.639 Y118.854 E358.52
G1 X142.875 Y117.617 E358.579
G1 X144.597 Y119.339 E358.66
G1 X135.899 Y128.036 E359.069
G1 X117.241 Y109.378 E359.946
G1 Y107.438 E360.011
G1 X118.384 E360.049
G1 Y93.703 E360.506
G1 X101.728 E361.06
G1 Y107.438 E361.517
G1 X102.871 E361.555
G1 Y109.377 E361.619
G1 X84.101 Y127.925 E362.497
G1 X75.403 Y119.226 E362.906
G1 X77.125 Y117.505 E362.987
G1 X78.417 Y118.798 E363.048
G1 X78.885 Y119.319 E363.071
G1 X79.968 Y120.753 E363.131
G1 X80.48 Y121.32 E363.156
G1 X80.792 Y121.619 E363.171
G1 X81.098 Y121.884 E363.184
G1 X82.533 Y122.967 E363.244
G1 X83.054 Y123.435 E363.267
G1 X84.63 Y125.01 E363.341
G1 X100.096 Y109.544 E364.069
G1 Y91.881 E364.656
G1 X120.016 E365.319
G1 Y109.544 E365.906
G1 X135.482 Y125.01 E366.634
G1 X137.002 Y123.491 E366.705
G1 X137.526 Y123.02 E366.728
G1 X138.21 Y122.495 E366.757
G1 X138.796 Y122.071 E366.781
G1 X139.114 Y121.808 E366.795
G1 X139.662 Y121.289 E366.82
G1 X139.956 Y120.966 E366.835
G1 X140.219 Y120.648 E366.848
G1 X140.643 Y120.062 E366.872
;rapid-leaky
G1 F236
G0 X141.311 Y120.316
;bead-sparse_infill
G1 X141.938 Y121.029 F3600 E366.904
;rapid-leaky
G1 F236
G0 X140.553 Y121.573
;bead-solid_infill
G1 X140.436 Y121.456 F2400 E366.909
G1 X140.307 Y121.598 E366.916
G1 X140.167 Y121.752 E366.923
G1 X140.297 Y121.883 E366.929
G1 X140.03 Y122.151 E366.941
G1 X140.014 Y122.165 E366.942
G1 X139.877 Y122.028 E366.949
G1 X139.587 Y122.304 E366.962
G1 X139.703 Y122.42 E366.967
;rapid-leaky
G1 F236
G0 X136.299 Y125.161
;bead-sparse_infill
G1 X136.404 Y125.21 F3600 E366.971
G1 X137.037 Y125.93 E367.003
;rapid-leaky
G1 F236
G0 X133.266 Y123.763
;bead-sparse_infill
G1 X132.479 Y123.4 F3600 E367.032
G1 X132.542 Y123.039 E367.044
G1 X125.292 Y116.46 E367.37
G1 X125.24 Y116.16 E367.38
G1 X125.53 Y116.026 E367.391
G1 X124.561 Y115.73 E367.424
G1 X124.42 Y114.916 E367.452
G1 X118.139 Y108.123 E367.759
G1 X118 Y108.921 E367.786
G1 X119.331 Y109.534 E367.835
;rapid-leaky
G1 F236
G0 X119.069 Y105.418
;bead-sparse_infill
G1 X119.121 Y105.301 F3600 E367.839
G1 X119.331 Y105.062 E367.85
G1 Y95.055 E368.183
G1 X119.069 Y94.934 E368.192
;rapid-leaky
G1 F236
G0 X118.248 Y93.018
;bead-sparse_infill
G1 X118.315 Y92.631 F3600 E368.205
G1 X118.344 Y92.566 E368.208
G1 X114.31 Y93.018 E368.343
G1 X113.472 Y92.631 E368.374
G1 X113.414 Y92.566 E368.376
G1 X103.865 E368.694
G1 X103.836 Y92.631 E368.696
G1 X103.769 Y93.018 E368.709
;rapid-leaky
G1 F236
G0 X101.043 Y93.577
;bead-sparse_infill
G1 X100.781 Y93.456 F3600 E368.719
G1 X101.043 Y98.918 E368.901
G1 X100.781 Y99.217 E368.914
G1 Y107.936 E369.204
G1 X101.043 Y108.056 E369.214
G1 X101.188 Y108.123 E369.219
G1 X102.186 Y108.583 E369.256
G1 X95.495 Y115.113 E369.566
G1 X95.583 Y115.616 E369.583
G1 X94.467 Y116.718 E369.636
G1 X93.396 Y117.212 E369.675
G1 X89.628 Y120.98 E369.852
G1 X89.357 Y121.59 E369.874
G1 X89.319 Y121.806 E369.882
G1 X87.939 Y123.17 E369.946
G1 X87.597 Y123.012 E369.959
G1 F1800 E359.959
;Layer : 9 of 53
;rapid-leaky
G1 F236
G0 X84.63 Y125.526 Z1.9
G1 F1800 E369.959
;bead-perimeter_inner
G1 X100.461 Y109.695 F1560 E370.703
G1 Y92.246 E371.284
G1 X119.651 E371.922
G1 Y109.695 E372.502
G1 X135.482 Y125.526 E373.247
G1 X137.102 Y123.907 E373.323
G1 X137.56 Y123.499 E373.343
G1 X138.138 Y123.073 E373.367
G1 X138.397 Y122.911 E373.378
G1 X139.109 Y122.416 E373.406
G1 X139.448 Y122.162 E373.42
G1 X139.756 Y121.895 E373.434
G1 X140.043 Y121.608 E373.448
G1 X140.31 Y121.3 E373.461
G1 X140.796 Y120.635 E373.488
G1 X141.219 Y119.993 E373.514
G1 X141.647 Y119.412 E373.538
G1 X142.055 Y118.954 E373.558
G1 X142.875 Y118.133 E373.597
G1 X144.081 Y119.339 E373.654
G1 X135.899 Y127.52 E374.039
G1 X117.606 Y109.227 E374.899
G1 Y107.803 E374.946
G1 X118.749 E374.984
G1 Y93.338 E375.466
G1 X101.363 E376.044
G1 Y107.803 E376.525
G1 X102.506 E376.563
G1 Y109.225 E376.61
G1 X84.103 Y127.41 E377.471
G1 X75.919 Y119.226 E377.856
G1 X77.125 Y118.021 E377.912
G1 X78.001 Y118.898 E377.954
G1 X78.411 Y119.36 E377.974
G1 X78.833 Y119.933 E377.998
G1 X79.127 Y120.389 E378.016
G1 X79.618 Y121.08 E378.044
G1 X79.876 Y121.401 E378.058
G1 X80.154 Y121.699 E378.071
G1 X80.451 Y121.975 E378.085
G1 X80.771 Y122.233 E378.098
G1 X81.463 Y122.725 E378.127
G1 X81.919 Y123.02 E378.145
G1 X82.492 Y123.44 E378.168
G1 X82.954 Y123.851 E378.189
G1 X84.63 Y125.526 E378.268
;rapid-leaky
G1 F236
G0 X80.614 Y122.728
;bead-solid_infill
G1 X80.739 Y122.603 F2400 E378.274
G1 X80.578 Y122.489 E378.28
G1 X80.521 Y122.442 E378.283
G1 X80.417 Y122.359 E378.287
G1 X80.24 Y122.536 E378.295
G1 X80.012 Y122.39 E378.304
G1 X79.909 Y122.301 E378.309
G1 X80.113 Y122.098 E378.319
G1 X80.07 Y122.058 E378.32
G1 X79.927 Y121.926 E378.327
G1 X79.827 Y121.818 E378.332
G1 X79.621 Y122.024 E378.341
G1 X79.461 Y121.838 E378.35
G1 X79.375 Y121.704 E378.355
G1 X79.56 Y121.519 E378.364
G1 X79.363 Y121.273 E378.374
G1 X79.312 Y121.201 E378.377
G1 X79.172 Y121.342 E378.384
G1 X78.993 Y120.955 E378.398
G1 X79.059 Y120.888 E378.401
;rapid-leaky
G1 F236
G0 X84.63 Y125.01
;bead-perimeter_outer
G1 X100.096 Y109.544 F1080 E379.128
G1 Y91.881 E379.716
G1 X120.016 E380.378
G1 Y109.544 E380.966
G1 X135.482 Y125.01 E381.693
G1 X136.851 Y123.642 E381.758
G1 X137.33 Y123.216 E381.779
G1 X137.933 Y122.771 E381.804
G1 X138.57 Y122.352 E381.829
G1 X139.219 Y121.878 E381.856
G1 X139.507 Y121.627 E381.869
G1 X139.775 Y121.359 E381.881
G1 X140.026 Y121.071 E381.894
G1 X140.265 Y120.752 E381.907
G1 X140.639 Y120.218 E381.929
G1 X140.919 Y119.786 E381.946
G1 X141.364 Y119.182 E381.971
G1 X141.79 Y118.703 E381.992
G1 X142.875 Y117.617 E382.044
G1 X144.597 Y119.339 E382.125
G1 X135.899 Y128.036 E382.534
G1 X117.241 Y109.378 E383.411
G1 Y107.438 E383.476
G1 X118.384 E383.514
G1 Y93.703 E383.971
G1 X101.728 E384.525
G1 Y107.438 E384.981
G1 X102.871 E385.019
G1 Y109.377 E385.084
G1 X84.101 Y127.925 E385.962
G1 X75.403 Y119.226 E386.371
G1 X77.125 Y117.505 E386.452
G1 X78.266 Y118.647 E386.505
G1 X78.695 Y119.13 E386.527
G1 X79.133 Y119.726 E386.552
G1 X79.429 Y120.184 E386.57
G1 X79.909 Y120.86 E386.597
G1 X80.153 Y121.162 E386.61
G1 X80.412 Y121.441 E386.623
G1 X80.69 Y121.698 E386.635
G1 X80.992 Y121.942 E386.648
G1 X81.668 Y122.423 E386.676
G1 X82.126 Y122.719 E386.694
G1 X82.722 Y123.156 E386.719
G1 X83.205 Y123.586 E386.74
G1 X84.63 Y125.01 E386.807
;rapid-leaky
G1 F236
G0 X88.422 Y122.187
;bead-sparse_infill
G1 X88.74 Y122.109 F3600 E386.818
G1 X89.105 Y121.504 E386.842
G1 X93.278 Y117.331 E387.038
G1 X94.17 Y117.009 E387.069
G1 X94.172 Y117.01
G1 X95.889 Y114.72 E387.165
G1 X95.979 Y114.87 E387.171
G1 X96.267 Y114.94 E387.18
G1 F1800 E377.18
;rapid-dry
G1 F236
G0 X101.043 Y107.94
G1 F1800 E387.18
;bead-sparse_infill
G1 X100.781 Y107.845 F3600 E387.19
G1 Y99.236 E387.476
G1 X101.043 Y99.027 E387.487
G1 Y93.46 E387.672
G1 X100.781 Y93.366 E387.682
G1 X103.299 Y93.018 E387.766
G1 X103.572 Y92.566 E387.784
G1 X113.61 E388.118
G1 X114.079 Y92.939 E388.137
G1 X114.296 Y93.018 E388.145
G1 X117.778 E388.261
G1 X118.051 Y92.566 E388.279
;rapid-leaky
G1 F236
G0 X119.331 Y95.334
;bead-sparse_infill
G1 X119.069 Y95.398 F3600 E388.287
G1 X119.331 Y104.921 E388.604
G1 X119.069 Y105.356 E388.621
G1 X119.331 Y109.813 E388.77
G1 X118.779 Y109.947 E388.789
G1 X131.183 Y122.352 E389.372
G1 X131.724 Y122.22 E389.391
G1 X133.798 Y124.295 E389.488
G1 X133.258 Y124.427 E389.507
;rapid-leaky
G1 F236
G0 X136.221 Y125.24
;bead-sparse_infill
G1 X137.059 Y125.908 F3600 E389.542
;rapid-leaky
G1 F236
G0 X139.295 Y122.878
;bead-solid_infill
G1 X141.026 Y121.147 F2400 E389.624
;rapid-leaky
G1 F236
G0 X141.274 Y120.491
;bead-sparse_infill
G1 X141.942 Y121.025 F3600 E389.652
G1 F1800 E379.652
;Layer : 10 of 53
;rapid-leaky
G1 F236
G0 X141.448 Y119.759 Z2.1
G1 F1800 E389.652
;bead-perimeter_inner
G1 X141.813 Y119.246 F1560 E389.673
G1 X142.195 Y118.814 E389.692
G1 X142.875 Y118.133 E389.724
G1 X144.081 Y119.339 E389.781
G1 X135.899 Y127.52 E390.166
G1 X117.606 Y109.227 E391.026
G1 Y107.803 E391.074
G1 X118.749 E391.112
G1 Y93.338 E391.593
G1 X101.363 E392.171
G1 Y107.803 E392.652
G1 X102.506 E392.69
G1 Y109.225 E392.737
G1 X84.102 Y127.41 E393.598
G1 X75.919 Y119.226 E393.983
G1 X77.125 Y118.021 E394.04
G1 X77.861 Y118.758 E394.074
G1 X78.241 Y119.188 E394.093
G1 X78.605 Y119.702 E394.114
G1 X79.31 Y120.871 E394.16
G1 X79.546 Y121.208 E394.173
G1 X79.79 Y121.513 E394.186
G1 X80.053 Y121.799 E394.199
G1 X80.339 Y122.062 E394.212
G1 X80.851 Y122.453 E394.234
G1 X82.15 Y123.247 E394.284
G1 X82.664 Y123.611 E394.305
G1 X83.094 Y123.991 E394.324
G1 X84.63 Y125.526 E394.397
G1 X100.461 Y109.695 E395.141
G1 Y92.246 E395.722
G1 X119.651 E396.36
G1 Y109.695 E396.94
G1 X135.482 Y125.526 E397.685
G1 X136.962 Y124.047 E397.754
G1 X137.394 Y123.665 E397.774
G1 X137.907 Y123.3 E397.795
G1 X138.891 Y122.713 E397.833
G1 X139.248 Y122.482 E397.847
G1 X139.571 Y122.24 E397.86
G1 X139.86 Y121.987 E397.873
G1 X140.133 Y121.714 E397.886
G1 X140.388 Y121.423 E397.899
G1 X140.63 Y121.1 E397.912
G1 X140.861 Y120.743 E397.926
G1 X141.448 Y119.759 E397.964
;rapid-leaky
G1 F236
G0 X141.141 Y119.562
;bead-perimeter_outer
G1 X141.527 Y119.019 F1080 E397.987
G1 X141.929 Y118.564 E398.007
G1 X142.875 Y117.617 E398.051
G1 X144.597 Y119.339 E398.132
G1 X135.899 Y128.036 E398.541
G1 X117.241 Y109.378 E399.419
G1 Y107.438 E399.484
G1 X118.384 E399.522
G1 Y93.703 E399.978
G1 X101.728 E400.532
G1 Y107.438 E400.989
G1 X102.871 E401.027
G1 Y109.377 E401.092
G1 X84.101 Y127.925 E401.969
G1 X75.403 Y119.226 E402.379
G1 X77.125 Y117.505 E402.46
G1 X78.127 Y118.508 E402.507
G1 X78.527 Y118.96 E402.527
G1 X78.911 Y119.502 E402.549
G1 X79.616 Y120.672 E402.594
G1 X79.838 Y120.989 E402.607
G1 X80.067 Y121.275 E402.619
G1 X80.311 Y121.541 E402.631
G1 X80.577 Y121.785 E402.643
G1 X81.06 Y122.153 E402.664
G1 X82.35 Y122.941 E402.714
G1 X82.892 Y123.325 E402.736
G1 X83.344 Y123.725 E402.756
G1 X84.63 Y125.01 E402.816
G1 X100.096 Y109.544 E403.544
G1 Y91.881 E404.131
G1 X120.016 E404.794
G1 Y109.544 E405.381
G1 X135.482 Y125.01 E406.109
G1 X136.712 Y123.781 E406.167
G1 X137.167 Y123.379 E406.187
G1 X137.71 Y122.993 E406.209
G1 X138.703 Y122.4 E406.247
G1 X139.039 Y122.182 E406.261
G1 X139.341 Y121.956 E406.273
G1 X139.611 Y121.72 E406.285
G1 X139.866 Y121.465 E406.297
G1 X140.104 Y121.193 E406.309
G1 X140.33 Y120.891 E406.322
G1 X140.548 Y120.555 E406.335
G1 X141.141 Y119.562 E406.374
;rapid-leaky
G1 F236
G0 X141.933 Y121.034
;bead-sparse_infill
G1 X141.733 Y120.892 F3600 E406.382
;rapid-leaky
G1 F236
G0 X141.372 Y120.695
;bead-solid_infill
G1 X141.303 Y120.626 F2400 E406.385
G1 X141.132 Y120.913 E406.396
G1 X141.09 Y120.978 E406.399
G1 X141.251 Y121.14 E406.406
G1 X141.224 Y121.238 E406.41
G1 X141.1 Y121.554 E406.421
G1 X140.865 Y121.32 E406.432
G1 X140.637 Y121.625 E406.445
G1 X140.622 Y121.642
G1 X140.911 Y121.931 E406.459
G1 X140.906 Y121.94
G1 X140.698 Y122.26 E406.472
G1 X140.686 Y122.272 E406.473
G1 X140.357 Y121.943 E406.488
G1 X140.079 Y122.22 E406.501
G1 X140.074 Y122.225
G1 X140.403 Y122.554 E406.517
G1 X140.087 Y122.758 E406.529
G1 X140.057 Y122.774 E406.531
G1 X139.772 Y122.489 E406.544
G1 X139.449 Y122.731 E406.557
G1 X139.678 Y122.961 E406.568
G1 X139.386 Y123.076 E406.579
G1 X139.262 Y123.11 E406.583
G1 X139.106 Y122.955 E406.59
G1 X139.06 Y122.984 E406.592
G1 X138.754 Y123.168 E406.604
G1 X138.817 Y123.231 E406.607
;rapid-leaky
G1 F236
G0 X136.198 Y125.263
;bead-sparse_infill
G1 X137.077 Y125.89 F3600 E406.643
;rapid-leaky
G1 F236
G0 X133.505 Y124.674
;bead-sparse_infill
G1 X133.985 Y124.481 F3600 E406.66
G1 X131.406 Y121.903 E406.781
G1 X130.927 Y122.095 E406.798
G1 X119.505 Y110.002 E407.352
G1 X119.026 Y110.194 E407.369
G1 X119.069 Y105.172 E407.536
G1 X119.331 Y104.801 E407.551
G1 X119.069 Y95.698 E407.854
G1 X119.331 Y95.593 E407.863
G1 F1800 E397.863
;rapid-dry
G1 F236
G0 X117.747 Y92.566
G1 F1800 E407.863
;bead-sparse_infill
G1 X117.698 Y92.635 F3600 E407.866
G1 X116.743 Y93.018 E407.9
G1 X114.639 E407.97
G1 X114.079 Y92.864 E407.99
G1 X113.661 Y92.566 E408.007
G1 X103.267 E408.352
G1 X103.219 Y92.635 E408.355
G1 X102.264 Y93.018 E408.389
G1 X101.043 Y93.261 E408.431
G1 X100.781 Y93.189 E408.44
G1 X101.043 Y99.073 E408.636
G1 X100.781 Y99.26 E408.646
G1 X101.043 Y107.74 E408.929
G1 X100.781 Y107.668 E408.938
G1 F1800 E398.938
;rapid-dry
G1 F236
G0 X96.606 Y114.605
G1 F1800 E408.938
;bead-sparse_infill
G1 X96.176 Y114.432 F3600 E408.953
G1 X93.85 Y117.328 E409.077
G1 X93.065 Y117.544 E409.104
G1 F1800 E399.104
;rapid-dry
G1 F236
G0 X81.016 Y123.13
G1 F1800 E409.104
;bead-solid_infill
G1 X80.388 Y122.502 F2400 E409.133
G1 X80.133 Y122.307 E409.144
G1 X79.827 Y122.025 E409.158
G1 X79.547 Y121.722 E409.172
G1 X79.303 Y121.417 E409.185
G1 X78.722 Y120.836 E409.212
G1 X78.901 Y121.379 E409.231
G1 X79.068 Y121.736 E409.244
G1 X79.089 Y121.768 E409.245
G1 X80.083 Y122.763 E409.292
G1 F1800 E399.292
;Layer : 11 of 53
;rapid-leaky
G1 F236
G0 X80.511 Y122.427 Z2.3
G1 F1800 E409.292
;bead-perimeter_inner
G1 X80.862 Y122.637 F1560 E409.306
G1 X81.762 Y123.105 E409.339
G1 X82.34 Y123.433 E409.362
G1 X82.812 Y123.758 E409.381
G1 X83.211 Y124.108 E409.398
G1 X84.63 Y125.526 E409.465
G1 X100.461 Y109.695 E410.21
G1 Y92.246 E410.79
G1 X119.651 E411.428
G1 Y109.695 E412.009
G1 X135.482 Y125.526 E412.753
G1 X136.844 Y124.164 E412.817
G1 X137.245 Y123.813 E412.835
G1 X137.719 Y123.487 E412.854
G1 X138.288 Y123.166 E412.876
G1 X138.675 Y122.978 E412.89
G1 X139.373 Y122.591 E412.917
G1 X139.708 Y122.371 E412.93
G1 X140.007 Y122.126 E412.943
G1 X140.273 Y121.858 E412.955
G1 X140.518 Y121.561 E412.968
G1 X140.739 Y121.225 E412.982
G1 X141.126 Y120.527 E413.008
G1 X141.314 Y120.14 E413.022
G1 X141.635 Y119.571 E413.044
G1 X141.961 Y119.097 E413.063
G1 X142.312 Y118.696 E413.081
G1 X142.875 Y118.133 E413.108
G1 X144.081 Y119.339 E413.164
G1 X135.899 Y127.52 E413.549
G1 X117.606 Y109.227 E414.41
G1 Y107.803 E414.457
G1 X118.749 E414.495
G1 Y93.338 E414.976
G1 X101.363 E415.554
G1 Y107.803 E416.035
G1 X102.506 E416.073
G1 Y109.225 E416.121
G1 X84.102 Y127.41 E416.981
G1 X75.919 Y119.226 E417.366
G1 X77.125 Y118.021 E417.423
G1 X77.744 Y118.64 E417.452
G1 X78.092 Y119.039 E417.47
G1 X78.419 Y119.512 E417.489
G1 X78.747 Y120.09 E417.511
G1 X79.035 Y120.663 E417.532
G1 X79.425 Y121.341 E417.558
G1 X79.655 Y121.655 E417.571
G1 X79.911 Y121.94 E417.584
G1 X80.195 Y122.196 E417.597
G1 X80.511 Y122.427 E417.61
;rapid-leaky
G1 F236
G0 X80.712 Y122.122
;bead-perimeter_outer
G1 X81.367 Y122.497 F1080 E417.635
G1 X81.931 Y122.781 E417.656
G1 X82.533 Y123.122 E417.679
G1 X83.037 Y123.47 E417.699
G1 X83.46 Y123.841 E417.718
G1 X84.63 Y125.01 E417.773
G1 X100.096 Y109.544 E418.5
G1 Y91.881 E419.088
G1 X120.016 E419.75
G1 Y109.544 E420.338
G1 X135.482 Y125.01 E421.065
G1 X136.595 Y123.897 E421.118
G1 X137.021 Y123.524 E421.136
G1 X137.525 Y123.177 E421.157
G1 X138.119 Y122.842 E421.179
G1 X138.505 Y122.655 E421.194
G1 X139.187 Y122.276 E421.22
G1 X139.492 Y122.076 E421.232
G1 X139.761 Y121.855 E421.243
G1 X140.002 Y121.613 E421.255
G1 X140.224 Y121.344 E421.266
G1 X140.424 Y121.039 E421.278
G1 X140.803 Y120.357 E421.304
G1 X140.99 Y119.971 E421.319
G1 X141.325 Y119.377 E421.341
G1 X141.672 Y118.873 E421.362
G1 X142.045 Y118.447 E421.381
G1 X142.875 Y117.617 E421.42
G1 X144.597 Y119.339 E421.501
G1 X135.899 Y128.036 E421.91
G1 X117.241 Y109.378 E422.787
G1 Y107.438 E422.852
G1 X118.384 E422.89
G1 Y93.703 E423.347
G1 X101.728 E423.901
G1 Y107.438 E424.357
G1 X102.871 E424.396
G1 Y109.377 E424.46
G1 X84.101 Y127.925 E425.338
G1 X75.403 Y119.226 E425.747
G1 X77.125 Y117.505 E425.828
G1 X78.011 Y118.391 E425.869
G1 X78.381 Y118.815 E425.888
G1 X78.73 Y119.319 E425.909
G1 X79.071 Y119.921 E425.932
G1 X79.354 Y120.484 E425.953
G1 X79.73 Y121.14 E425.978
G1 X79.938 Y121.425 E425.989
G1 X80.169 Y121.682 E426.001
G1 X80.426 Y121.912 E426.012
G1 X80.712 Y122.122 E426.024
;rapid-leaky
G1 F236
G0 X81.266 Y123.207
;bead-solid_infill
G1 X81.123 Y123.35 F2400 E426.031
G1 X81.03 Y123.337 E426.034
G1 X80.668 Y123.258 E426.046
G1 X80.652 Y123.255 E426.047
G1 X80.894 Y123.014 E426.058
G1 X80.706 Y122.916 E426.065
G1 X80.574 Y122.837 E426.07
G1 X80.531 Y122.811 E426.072
G1 X80.243 Y123.098 E426.086
G1 X79.961 Y122.816 E426.099
G1 X80.189 Y122.588 E426.11
G1 X79.993 Y122.445 E426.118
G1 X79.903 Y122.363 E426.122
G1 X79.874 Y122.337 E426.123
G1 X79.678 Y122.533 E426.132
G1 X79.395 Y122.25 E426.146
G1 X79.587 Y122.058 E426.155
G1 X79.406 Y121.857 E426.164
G1 X79.328 Y121.751 E426.168
G1 X79.112 Y121.967 E426.178
G1 X78.829 Y121.684 E426.191
G1 X79.099 Y121.415 E426.204
G1 X78.892 Y121.056 E426.218
G1 X78.614 Y121.334 E426.231
G1 X78.595 Y121.184 E426.236
G1 X78.522 Y120.86 E426.247
G1 X78.691 Y120.691 E426.255
G1 X78.502 Y120.314 E426.269
G1 X78.455 Y120.362 E426.271
G1 F1800 E416.271
;rapid-dry
G1 F236
G0 X92.916 Y117.693
G1 F1800 E426.271
;bead-sparse_infill
G1 X93.621 Y117.555 F3600 E426.295
G1 X96.414 Y114.195 E426.44
G1 X96.819 Y114.394 E426.455
G1 F1800 E416.455
;rapid-dry
G1 F236
G0 X100.781 Y107.51
G1 F1800 E426.455
;bead-sparse_infill
G1 X101.043 Y107.562 F3600 E426.464
G1 X100.781 Y99.291 E426.74
G1 X101.043 Y99.124 E426.75
G1 Y93.082 E426.951
G1 X100.781 Y93.031 E426.96
G1 X101.685 Y93.018 E426.99
G1 X102.602 Y92.566 E427.024
G1 X113.709 E427.393
G1 X114.079 Y92.8 E427.408
G1 X115.193 Y93.018 E427.446
G1 X116.164 E427.478
G1 X117.081 Y92.566 E427.512
G1 F1800 E417.512
;rapid-dry
G1 F236
G0 X119.331 Y95.816
G1 F1800 E427.512
;bead-sparse_infill
G1 X119.069 Y95.945 F3600 E427.522
G1 X119.331 Y104.692 E427.813
G1 X119.069 Y105.021 E427.827
G1 X119.194 Y110.363 E428.004
G1 X119.508 Y110.208 E428.016
G1 X119.761 Y110.257 E428.024
G1 X130.754 Y121.922 E428.558
G1 X131.204 Y121.7 E428.574
G1 X133.674 Y124.842 E428.707
G1 X133.987 Y124.687 E428.719
G1 X134.24 Y124.737 E428.727
;rapid-leaky
G1 F236
G0 X137.1 Y125.867
;bead-sparse_infill
G1 X136.178 Y125.282 F3600 E428.764
;rapid-leaky
G1 F236
G0 X139.021 Y123.152
;bead-solid_infill
G1 X138.739 Y123.434 F2400 E428.777
G1 X139.248 Y123.35 E428.794
G1 X139.389 Y123.311 E428.799
G1 X139.43 Y123.308 E428.8
G1 X141.456 Y121.282 E428.896
G1 X141.459 Y121.241 E428.897
G1 X141.498 Y121.1 E428.902
G1 X141.582 Y120.591 E428.919
G1 X141.3 Y120.873 E428.932
G1 F1800 E418.932
;Layer : 12 of 53
;rapid-leaky
G1 F236
G0 X141.034 Y121.06 Z2.5
G1 F1800 E428.932
;bead-perimeter_inner
G1 X141.523 Y119.922 F1560 E428.974
G1 X141.8 Y119.402 E428.993
G1 X142.094 Y118.963 E429.011
G1 X142.429 Y118.579 E429.028
G1 X142.875 Y118.133 E429.049
G1 X144.081 Y119.339 E429.105
G1 X135.899 Y127.52 E429.49
G1 X117.606 Y109.227 E430.351
G1 Y107.803 E430.398
G1 X118.749 E430.436
G1 Y93.338 E430.917
G1 X101.363 E431.495
G1 Y107.803 E431.976
G1 X102.506 E432.014
G1 Y109.225 E432.062
G1 X84.103 Y127.41 E432.922
G1 X75.919 Y119.226 E433.307
G1 X77.125 Y118.021 E433.364
G1 X77.627 Y118.523 E433.388
G1 X77.964 Y118.91 E433.405
G1 X78.26 Y119.351 E433.422
G1 X78.531 Y119.861 E433.442
G1 X78.812 Y120.49 E433.464
G1 X78.934 Y120.81 E433.476
G1 X79.113 Y121.181 E433.49
G1 X79.276 Y121.484 E433.501
G1 X79.489 Y121.817 E433.514
G1 X79.741 Y122.11 E433.527
G1 X80.033 Y122.362 E433.54
G1 X80.368 Y122.576 E433.553
G1 X81.042 Y122.919 E433.578
G1 X81.361 Y123.039 E433.59
G1 X81.987 Y123.319 E433.612
G1 X82.505 Y123.594 E433.632
G1 X82.941 Y123.887 E433.649
G1 X83.328 Y124.225 E433.666
G1 X84.63 Y125.526 E433.728
G1 X100.461 Y109.695 E434.472
G1 Y92.246 E435.053
G1 X119.651 E435.691
G1 Y109.695 E436.271
G1 X135.482 Y125.526 E437.016
G1 X136.727 Y124.281 E437.074
G1 X137.111 Y123.946 E437.091
G1 X137.55 Y123.652 E437.109
G1 X138.07 Y123.375 E437.129
G1 X139.208 Y122.886 E437.17
G1 X139.861 Y122.53 E437.194
G1 X140.173 Y122.297 E437.207
G1 X140.444 Y122.024 E437.22
G1 X140.678 Y121.713 E437.233
G1 X141.034 Y121.06 E437.258
;rapid-leaky
G1 F236
G0 X140.705 Y120.9
;bead-perimeter_outer
G1 X140.907 Y120.404 F1080 E437.276
G1 X141.193 Y119.765 E437.299
G1 X141.487 Y119.214 E437.32
G1 X141.804 Y118.741 E437.339
G1 X142.162 Y118.33 E437.357
G1 X142.875 Y117.617 E437.39
G1 X144.597 Y119.339 E437.471
G1 X135.899 Y128.036 E437.88
G1 X117.241 Y109.378 E438.758
G1 Y107.438 E438.823
G1 X118.384 E438.861
G1 Y93.703 E439.317
G1 X101.728 E439.871
G1 Y107.438 E440.328
G1 X102.871 E440.366
G1 Y109.377 E440.431
G1 X84.101 Y127.925 E441.308
G1 X75.403 Y119.226 E441.718
G1 X77.125 Y117.505 E441.799
G1 X77.894 Y118.273 E441.835
G1 X78.254 Y118.688 E441.853
G1 X78.573 Y119.163 E441.872
G1 X78.863 Y119.708 E441.893
G1 X79.149 Y120.349 E441.916
G1 X79.269 Y120.665 E441.927
G1 X79.435 Y121.009 E441.94
G1 X79.597 Y121.308 E441.951
G1 X79.782 Y121.599 E441.963
G1 X80 Y121.851 E441.974
G1 X80.252 Y122.069 E441.985
G1 X80.544 Y122.255 E441.996
G1 X81.186 Y122.583 E442.02
G1 X81.502 Y122.702 E442.032
G1 X82.142 Y122.988 E442.055
G1 X82.69 Y123.279 E442.076
G1 X83.164 Y123.597 E442.094
G1 X83.577 Y123.958 E442.113
G1 X84.63 Y125.01 E442.162
G1 X100.096 Y109.544 E442.89
G1 Y91.881 E443.477
G1 X120.016 E444.14
G1 Y109.544 E444.727
G1 X135.482 Y125.01 E445.455
G1 X136.478 Y124.014 E445.501
G1 X136.889 Y123.656 E445.52
G1 X137.362 Y123.339 E445.539
G1 X137.913 Y123.045 E445.559
G1 X138.552 Y122.759 E445.583
G1 X139.048 Y122.557 E445.6
G1 X139.663 Y122.222 E445.624
G1 X139.933 Y122.021 E445.635
G1 X140.168 Y121.785 E445.646
G1 X140.37 Y121.515 E445.657
G1 X140.705 Y120.9 E445.681
G1 F1800 E435.681
;rapid-dry
G1 F236
G0 X141.768 Y120.526
G1 F1800 E445.681
;bead-solid_infill
G1 X141.659 Y120.416 F2400 E445.686
G1 X141.489 Y120.812 E445.7
G1 X141.74 Y121.063 E445.712
G1 X141.745 Y121.222 E445.717
G1 X141.566 Y121.402 E445.726
G1 X141.539 Y121.428 E445.727
G1 X141.318 Y121.207 E445.737
G1 X141.119 Y121.573 E445.751
G1 X141.256 Y121.711 E445.758
G1 X140.974 Y121.994 E445.771
G1 X140.913 Y121.933 E445.774
G1 X140.687 Y122.234 E445.786
G1 X140.668 Y122.254 E445.787
G1 X140.691 Y122.276 E445.788
G1 X140.408 Y122.559 E445.801
G1 X140.386 Y122.537 E445.803
G1 X140.383 Y122.54
G1 X140.062 Y122.779 E445.816
G1 X140.125 Y122.842 E445.819
G1 X139.842 Y123.125 E445.832
G1 X139.7 Y122.982 E445.839
G1 X139.348 Y123.174 E445.852
G1 X139.332 Y123.181 E445.853
G1 X139.559 Y123.408 E445.863
G1 X139.37 Y123.597 E445.872
G1 X139.177 Y123.591 E445.879
G1 X138.937 Y123.351 E445.89
G1 X138.541 Y123.521 E445.904
G1 X138.643 Y123.623 E445.909
;rapid-leaky
G1 F236
G0 X137.129 Y125.838
;bead-sparse_infill
G1 X136.163 Y125.298 F3600 E445.946
;rapid-leaky
G1 F236
G0 X134.431 Y124.928
;bead-sparse_infill
G1 X133.987 Y124.874 F3600 E445.961
G1 X133.807 Y124.975 E445.968
G1 X131.049 Y121.546 E446.114
G1 X130.618 Y121.786 E446.131
G1 X119.952 Y110.449 E446.648
G1 X119.508 Y110.395 E446.663
G1 X119.327 Y110.496 E446.67
G1 X119.069 Y104.884 E446.857
G1 X119.331 Y104.587 E446.87
G1 X119.069 Y96.16 E447.151
G1 X119.331 Y96.014 E447.161
G1 F1800 E437.161
;rapid-dry
G1 F236
G0 X116.609 Y92.566
G1 F1800 E447.161
;bead-sparse_infill
G1 X115.888 Y92.967 F3600 E447.188
G1 X114.079 Y92.748 E447.249
G1 X113.753 Y92.566 E447.261
G1 X102.129 E447.648
G1 X101.409 Y92.967 E447.675
G1 X100.781 Y92.891 E447.696
G1 X101.043 Y99.181 E447.905
G1 X100.781 Y99.327 E447.915
G1 X101.043 Y107.402 E448.184
G1 X100.781 Y107.37 E448.193
G1 F1800 E438.193
;rapid-dry
G1 F236
G0 X96.98 Y114.235
G1 F1800 E448.193
;bead-sparse_infill
G1 X96.59 Y114.018 F3600 E448.208
G1 X93.452 Y117.721 E448.369
G1 X92.809 Y117.799 E448.391
G1 F1800 E438.391
;rapid-dry
G1 F236
G0 X81.21 Y123.324
G1 F1800 E448.391
;bead-solid_infill
G1 X81.389 Y123.503 F2400 E448.399
G1 X80.859 Y123.539 E448.417
G1 X80.113 Y122.792 E448.452
G1 X79.06 Y121.739 E448.501
G1 X78.312 Y120.992 E448.537
G1 X78.35 Y120.464 E448.554
G1 X78.527 Y120.641 E448.563
G1 F1800 E438.563
;Layer : 13 of 53
;rapid-leaky
G1 F236
G0 X78.567 Y120.224 Z2.7
G1 F1800 E448.563
;bead-perimeter_inner
G1 X78.934 Y121.366 F1560 E448.602
G1 X79.099 Y121.72 E448.615
G1 X79.264 Y122.017 E448.627
G1 X79.52 Y122.333 E448.64
G1 X79.836 Y122.587 E448.654
G1 X80.131 Y122.752 E448.665
G1 X80.485 Y122.918 E448.678
G1 X81.628 Y123.285 E448.718
G1 X82.169 Y123.493 E448.737
G1 X82.646 Y123.734 E448.755
G1 X83.062 Y124.008 E448.772
G1 X83.421 Y124.318 E448.787
G1 X84.63 Y125.526 E448.844
G1 X100.461 Y109.695 E449.589
G1 Y92.246 E450.169
G1 X119.651 E450.807
G1 Y109.695 E451.388
G1 X135.482 Y125.526 E452.132
G1 X136.635 Y124.374 E452.187
G1 X136.999 Y124.059 E452.203
G1 X137.41 Y123.788 E452.219
G1 X137.884 Y123.551 E452.237
G1 X138.432 Y123.337 E452.256
G1 X138.605 Y123.291 E452.262
G1 X139.095 Y123.119 E452.279
G1 X139.375 Y123.043 E452.289
G1 X139.746 Y122.897 E452.302
G1 X140.07 Y122.728 E452.314
G1 X140.386 Y122.523 E452.327
G1 X140.671 Y122.238 E452.34
G1 X140.876 Y121.922 E452.353
G1 X141.045 Y121.598 E452.365
G1 X141.191 Y121.227 E452.378
G1 X141.267 Y120.947 E452.388
G1 X141.439 Y120.457 E452.405
G1 X141.485 Y120.284 E452.411
G1 X141.699 Y119.736 E452.431
G1 X141.936 Y119.262 E452.448
G1 X142.207 Y118.851 E452.465
G1 X142.522 Y118.487 E452.481
G1 X142.875 Y118.133 E452.497
G1 X144.081 Y119.339 E452.554
G1 X135.899 Y127.52 E452.939
G1 X117.606 Y109.227 E453.799
G1 Y107.803 E453.847
G1 X118.749 E453.885
G1 Y93.338 E454.366
G1 X101.363 E454.944
G1 Y107.803 E455.425
G1 X102.506 E455.463
G1 Y109.225 E455.511
G1 X84.102 Y127.41 E456.371
G1 X75.919 Y119.226 E456.756
G1 X77.125 Y118.021 E456.813
G1 X77.534 Y118.431 E456.832
G1 X77.843 Y118.788 E456.848
G1 X78.117 Y119.205 E456.864
G1 X78.358 Y119.684 E456.882
G1 X78.567 Y120.224 E456.901
;rapid-leaky
G1 F236
G0 X78.913 Y120.105
;bead-perimeter_outer
G1 X79.274 Y121.231 F1080 E456.941
G1 X79.42 Y121.544 E456.952
G1 X79.573 Y121.818 E456.963
G1 X79.779 Y122.073 E456.974
G1 X80.034 Y122.278 E456.984
G1 X80.307 Y122.432 E456.995
G1 X80.62 Y122.578 E457.006
G1 X81.747 Y122.939 E457.046
G1 X82.317 Y123.159 E457.066
G1 X82.83 Y123.417 E457.085
G1 X83.283 Y123.717 E457.103
G1 X83.67 Y124.051 E457.12
G1 X84.63 Y125.01 E457.165
G1 X100.096 Y109.544 E457.893
G1 Y91.881 E458.48
G1 X120.016 E459.143
G1 Y109.544 E459.73
G1 X135.482 Y125.01 E460.458
G1 X136.386 Y124.106 E460.5
G1 X136.778 Y123.767 E460.518
G1 X137.228 Y123.472 E460.535
G1 X137.739 Y123.216 E460.554
G1 X138.314 Y122.991 E460.575
G1 X138.499 Y122.942 E460.581
G1 X138.975 Y122.773 E460.598
G1 X139.26 Y122.696 E460.608
G1 X139.594 Y122.564 E460.62
G1 X139.886 Y122.412 E460.631
G1 X140.155 Y122.237 E460.642
G1 X140.385 Y122.007 E460.652
G1 X140.56 Y121.738 E460.663
G1 X140.712 Y121.446 E460.674
G1 X140.844 Y121.112 E460.686
G1 X140.921 Y120.827 E460.696
G1 X141.09 Y120.351 E460.713
G1 X141.139 Y120.166 E460.719
G1 X141.364 Y119.591 E460.739
G1 X141.62 Y119.08 E460.758
G1 X141.915 Y118.63 E460.776
G1 X142.254 Y118.238 E460.794
G1 X142.875 Y117.617 E460.823
G1 X144.597 Y119.339 E460.904
G1 X135.899 Y128.036 E461.313
G1 X117.241 Y109.378 E462.191
G1 Y107.438 E462.255
G1 X118.384 E462.293
G1 Y93.703 E462.75
G1 X101.728 E463.304
G1 Y107.438 E463.761
G1 X102.871 E463.799
G1 Y109.377 E463.863
G1 X84.101 Y127.925 E464.741
G1 X75.403 Y119.226 E465.15
G1 X77.125 Y117.505 E465.231
G1 X77.801 Y118.182 E465.263
G1 X78.135 Y118.568 E465.28
G1 X78.434 Y119.022 E465.298
G1 X78.692 Y119.535 E465.317
G1 X78.913 Y120.105 E465.337
;rapid-leaky
G1 F236
G0 X78.594 Y121.354
;bead-solid_infill
G1 X78.546 Y121.401 F2400 E465.34
G1 X78.264 Y121.118 E465.353
G1 X78.457 Y120.926 E465.362
G1 X78.319 Y120.497 E465.377
G1 X78.113 Y120.703 E465.387
G1 F1800 E455.387
;rapid-dry
G1 F236
G0 X80.243 Y121.267 Z3
G1 F1800 E465.387
;bead-support-structure
G1 X80.583 Y121.607 F4200 E465.399
G1 F1800 E455.399
G1 F236
G0 X80.243 Y121.267
G0 X80.583 Y121.607
;rapid-dry
G1 F236
G0 X80.613 Y123.295 Z2.7
G1 F1800 E465.399
;bead-solid_infill
G1 X80.526 Y123.381 F2400 E465.403
G1 X80.809 Y123.664 E465.416
G1 X81.041 Y123.432 E465.427
G1 X81.469 Y123.57 E465.442
G1 X81.326 Y123.713 E465.449
G1 F1800 E455.449
;rapid-dry
G1 F236
G0 X92.732 Y117.877
G1 F1800 E465.449
;bead-sparse_infill
G1 X93.326 Y117.847 F3600 E465.468
G1 X96.733 Y113.875 E465.642
G1 X97.112 Y114.105 E465.657
G1 F1800 E455.657
;rapid-dry
G1 F236
G0 X100.781 Y107.245
G1 F1800 E465.657
;bead-sparse_infill
G1 X101.043 Y107.258 F3600 E465.666
G1 X100.781 Y99.37 E465.928
G1 X101.043 Y99.242 E465.938
G1 X100.781 Y92.766 E466.154
G1 X101.409 Y92.798 E466.175
G1 X101.791 Y92.566 E466.189
G1 X113.791 E466.589
G1 X114.079 Y92.706 E466.599
G1 X115.888 Y92.798 E466.659
G1 X116.27 Y92.566 E466.674
G1 F1800 E456.674
;rapid-dry
G1 F236
G0 X119.331 Y96.193
G1 F1800 E466.674
;bead-sparse_infill
G1 X119.069 Y96.352 F3600 E466.685
G1 X119.331 Y104.483 E466.955
G1 X119.069 Y104.755 E466.968
G1 X119.438 Y110.607 E467.163
G1 X119.508 Y110.564 E467.165
G1 X120.098 Y110.594 E467.185
G1 X130.505 Y121.673 E467.691
G1 X130.923 Y121.419 E467.707
G1 X133.917 Y125.086 E467.864
G1 X133.987 Y125.043 E467.867
G1 X134.577 Y125.073 E467.887
;rapid-leaky
G1 F236
G0 X137.165 Y125.802
;bead-sparse_infill
G1 X136.152 Y125.308 F3600 E467.924
;rapid-leaky
G1 F236
G0 X138.531 Y123.642
;bead-solid_infill
G1 X138.452 Y123.721 F2400 E467.928
G1 X138.876 Y123.794 E467.942
G1 X138.938 Y123.801 E467.944
G1 X139.36 Y123.379 E467.964
;rapid-leaky
G1 F236
G0 X141.527 Y121.212
;bead-solid_infill
G1 X141.949 Y120.79 F2400 E467.984
G1 X141.942 Y120.728 E467.986
G1 X141.869 Y120.304 E468
G1 X141.79 Y120.383 E468.004
G1 F1800 E458.004
;Layer : 14 of 53
;rapid-leaky
G1 F236
G0 X141.677 Y120.073 Z2.9
G1 F1800 E468.004
;bead-perimeter_inner
G1 X141.85 Y119.577 F1560 E468.021
G1 X142.059 Y119.137 E468.038
G1 X142.315 Y118.741 E468.053
G1 X142.612 Y118.397 E468.068
G1 X142.875 Y118.133 E468.081
G1 X144.081 Y119.339 E468.138
G1 X141.216 Y122.204 E468.272
G1 X141.244 Y122.14 E468.275
G1 X141.261 Y122.004 E468.279
G1 X141.322 Y121.85 E468.285
G1 X141.411 Y121.43 E468.299
G1 X141.425 Y121.236 E468.305
G1 X141.464 Y121.093 E468.31
G1 X141.541 Y120.623 E468.326
G1 X141.677 Y120.073 E468.345
G1 F1800 E458.345
;rapid-dry
G1 F236
G0 X140.351 Y123.068
G1 F1800 E468.345
;bead-perimeter_inner
G1 X135.899 Y127.52 F1560 E468.555
G1 X117.606 Y109.227 E469.415
G1 Y107.803 E469.462
G1 X118.749 E469.5
G1 Y93.338 E469.981
G1 X101.363 E470.56
G1 Y107.803 E471.041
G1 X102.506 E471.079
G1 Y109.225 E471.126
G1 X84.102 Y127.41 E471.987
G1 X79.697 Y123.004 E472.194
G1 X80.259 Y123.169 E472.213
G1 X80.674 Y123.223 E472.227
G1 X81.036 Y123.303 E472.24
G1 X81.282 Y123.335 E472.248
G1 X81.836 Y123.474 E472.267
G1 X82.328 Y123.645 E472.284
G1 X82.771 Y123.856 E472.301
G1 X83.161 Y124.107 E472.316
G1 X83.512 Y124.409 E472.331
G1 X84.63 Y125.526 E472.384
G1 X100.461 Y109.695 E473.129
G1 Y92.246 E473.709
G1 X119.651 E474.347
G1 Y109.695 E474.928
G1 X135.482 Y125.526 E475.672
G1 X136.545 Y124.464 E475.722
G1 X136.889 Y124.167 E475.737
G1 X137.285 Y123.911 E475.753
G1 X137.725 Y123.702 E475.769
G1 X138.221 Y123.529 E475.787
G1 X138.771 Y123.393 E475.805
G1 X139.241 Y123.316 E475.821
G1 X139.384 Y123.277 E475.826
G1 X139.578 Y123.263 E475.833
G1 X139.998 Y123.174 E475.847
G1 X140.152 Y123.113 E475.852
G1 X140.288 Y123.096 E475.857
G1 X140.351 Y123.068 E475.859
G1 F1800 E465.859
;rapid-dry
G1 F236
G0 X81.481 Y122.015 Z3.2
G1 F1800 E475.859
;bead-support-structure
G1 X80.898 Y121.922 F4200 E475.874
G1 X80.586 Y121.61 E475.885
G1 F1800 E465.885
G1 F236
G0 X80.898 Y121.922
G0 X81.252 Y121.979
G0 X80.898 Y121.922
G0 X80.586 Y121.61
;rapid-dry
G1 F236
G0 Z2.9
G1 F1800 E475.885
;bead-support-structure
G1 X80.24 Y121.264 F4200 E475.897
G1 F1800 E465.897
G1 F236
G0 X80.586 Y121.61
G0 X80.24 Y121.264
;rapid-dry
G1 F236
G0 Z3.2
G1 F1800 E475.897
;bead-support-structure
G1 X79.93 Y120.954 F4200 E475.908
G1 X79.838 Y120.371 E475.923
G1 X79.75 Y120.641 E475.93
G1 F1800 E465.93
G1 F236
G0 X79.838 Y120.371
G0 X79.919 Y120.881
G0 X79.838 Y120.371
G0 X79.75 Y120.641
;rapid-dry
G1 F236
G0 X78.548 Y120.815 Z2.9
G1 F1800 E475.93
;bead-perimeter_inner
G1 X78.629 Y121.178 F1560 E475.942
G1 X78.683 Y121.592 E475.956
G1 X78.847 Y122.154 E475.976
G1 X75.919 Y119.226 E476.113
G1 X77.125 Y118.021 E476.17
G1 X77.444 Y118.341 E476.185
G1 X77.745 Y118.69 E476.201
G1 X77.995 Y119.079 E476.216
G1 X78.206 Y119.524 E476.232
G1 X78.378 Y120.017 E476.25
G1 X78.516 Y120.568 E476.269
G1 X78.548 Y120.815 E476.277
;rapid-leaky
G1 F236
G0 X78.244 Y120.924
;bead-solid_infill
G1 X77.936 Y120.616 F2400 E476.291
G1 X78.021 Y120.193 E476.306
G1 X78.09 Y120.204 E476.308
G1 X78.096 Y120.21
;rapid-leaky
G1 F236
G0 X78.729 Y119.915
;bead-perimeter_outer
G1 X78.875 Y120.492 F1080 E476.328
G1 X78.908 Y120.752 E476.337
G1 X78.989 Y121.115 E476.349
G1 X79.041 Y121.514 E476.363
G1 X79.224 Y122.156 E476.385
G1 X79.416 Y122.436 E476.396
G1 X79.695 Y122.627 E476.407
G1 X80.338 Y122.811 E476.43
G1 X80.737 Y122.863 E476.443
G1 X81.099 Y122.943 E476.455
G1 X81.358 Y122.977 E476.464
G1 X81.937 Y123.123 E476.484
G1 X82.467 Y123.306 E476.502
G1 X82.949 Y123.537 E476.52
G1 X83.38 Y123.814 E476.537
G1 X83.76 Y124.141 E476.554
G1 X84.63 Y125.01 E476.595
G1 X100.096 Y109.544 E477.322
G1 Y91.881 E477.91
G1 X120.016 E478.572
G1 Y109.544 E479.16
G1 X135.482 Y125.01 E479.887
G1 X136.296 Y124.197 E479.926
G1 X136.67 Y123.874 E479.942
G1 X137.107 Y123.592 E479.959
G1 X137.589 Y123.362 E479.977
G1 X138.121 Y123.177 E479.996
G1 X138.695 Y123.036 E480.015
G1 X139.163 Y122.959 E480.031
G1 X139.322 Y122.915 E480.037
G1 X139.527 Y122.901 E480.043
G1 X139.893 Y122.823 E480.056
G1 X140.061 Y122.757 E480.062
G1 X140.189 Y122.741 E480.066
G1 X140.509 Y122.6 E480.078
G1 X140.612 Y122.499 E480.083
G1 X140.748 Y122.361 E480.089
G1 X140.889 Y122.041 E480.101
G1 X140.905 Y121.913 E480.105
G1 X140.971 Y121.745 E480.111
G1 X141.049 Y121.379 E480.123
G1 X141.063 Y121.174 E480.13
G1 X141.107 Y121.015 E480.136
G1 X141.184 Y120.547 E480.152
G1 X141.325 Y119.973 E480.171
G1 X141.51 Y119.441 E480.19
G1 X141.74 Y118.959 E480.208
G1 X142.022 Y118.522 E480.225
G1 X142.345 Y118.148 E480.241
G1 X142.875 Y117.617 E480.266
G1 X144.597 Y119.339 E480.347
G1 X135.899 Y128.036 E480.757
G1 X117.241 Y109.378 E481.634
G1 Y107.438 E481.699
G1 X118.384 E481.737
G1 Y93.703 E482.194
G1 X101.728 E482.747
G1 Y107.438 E483.204
G1 X102.871 E483.242
G1 Y109.377 E483.307
G1 X84.101 Y127.925 E484.185
G1 X75.403 Y119.226 E484.594
G1 X77.125 Y117.505 E484.675
G1 X77.711 Y118.092 E484.702
G1 X78.038 Y118.471 E484.719
G1 X78.315 Y118.901 E484.736
G1 X78.545 Y119.385 E484.754
G1 X78.729 Y119.915 E484.772
G1 F1800 E474.772
;rapid-dry
G1 F236
G0 X80.927 Y123.607
G1 F1800 E484.772
;bead-solid_infill
G1 X81.236 Y123.916 F2400 E484.787
G1 F1800 E474.787
;rapid-dry
G1 F236
G0 X92.675 Y117.933
G1 F1800 E484.787
;bead-sparse_infill
G1 X93.229 Y117.942 F3600 E484.805
G1 X96.855 Y113.754 E484.99
G1 X97.224 Y113.994 E485.004
G1 F1800 E475.004
;rapid-dry
G1 F236
G0 X100.781 Y107.133
G1 F1800 E485.004
;bead-sparse_infill
G1 X101.043 Y107.129 F3600 E485.013
G1 X100.781 Y99.419 E485.27
G1 X101.043 Y99.309 E485.279
G1 X100.781 Y92.654 E485.501
G1 X101.409 Y92.644 E485.521
G1 X101.528 Y92.566 E485.526
G1 X113.821 E485.935
G1 X114.079 Y92.674 E485.944
G1 X115.888 Y92.644 E486.004
G1 X116.008 Y92.566 E486.009
G1 F1800 E476.009
;rapid-dry
G1 F236
G0 X119.331 Y96.355
G1 F1800 E486.009
;bead-sparse_infill
G1 X119.069 Y96.525 F3600 E486.02
G1 X119.331 Y104.376 E486.281
G1 X119.069 Y104.628 E486.293
G1 X119.549 Y110.718 E486.496
G1 X120.21 Y110.707 E486.518
G1 X130.408 Y121.576 E487.014
G1 X130.815 Y121.311 E487.03
G1 X134.029 Y125.197 E487.198
G1 X134.689 Y125.186 E487.22
;rapid-leaky
G1 F236
G0 X136.147 Y125.314
;bead-sparse_infill
G1 X137.208 Y125.758 F3600 E487.258
;rapid-leaky
G1 F236
G0 X138.749 Y123.728
;bead-solid_infill
G1 X138.994 Y123.973 F2400 E487.27
G1 X139.276 Y123.69 E487.283
G1 X139.228 Y123.642 E487.285
G1 F1800 E477.285
;rapid-dry
G1 F236
G0 X141.785 Y121.108
G1 F1800 E487.285
;bead-solid_infill
G1 X141.822 Y121.145 F2400 E487.287
G1 X141.979 Y120.988 E487.294
G1 X142.105 Y120.862 E487.3
G1 X141.87 Y120.627 E487.311
G1 F1800 E477.311
;Layer : 15 of 53
;rapid-leaky
G1 F236
G0 X141.742 Y120.379 Z3.1
G1 F1800 E487.311
;bead-perimeter_inner
G1 X141.837 Y119.894 F1560 E487.328
G1 X141.979 Y119.444 E487.343
G1 X142.169 Y119.024 E487.359
G1 X142.403 Y118.654 E487.373
G1 X142.696 Y118.313 E487.388
G1 X142.875 Y118.133 E487.397
G1 X144.081 Y119.339 E487.453
G1 X141.764 Y121.656 E487.562
G1 X141.712 Y121.395 E487.571
G1 X141.7 Y120.888 E487.588
G1 X141.742 Y120.379 E487.605
;rapid-leaky
G1 F236
G0 X142.217 Y120.522
;bead-solid_infill
G1 X142.036 Y120.702 F2400 E487.613
;rapid-leaky
G1 F236
G0 X141.378 Y120.336
;bead-perimeter_outer
G1 X141.48 Y119.811 F1080 E487.631
G1 X141.637 Y119.313 E487.649
G1 X141.847 Y118.85 E487.666
G1 X142.108 Y118.436 E487.682
G1 X142.428 Y118.065 E487.698
G1 X142.875 Y117.617 E487.719
G1 X144.597 Y119.339 E487.8
G1 X141.648 Y122.288 E487.939
G1 X141.603 Y122.243 E487.941
G1 X141.428 Y121.893 E487.954
G1 X141.344 Y121.418 E487.97
G1 X141.334 Y120.877 E487.988
G1 X141.378 Y120.336 E488.006
G1 F1800 E478.006
;rapid-dry
G1 F236
G0 X140.665 Y122.259 Z3.4
G1 F1800 E488.006
;bead-support-structure
G1 X140.567 Y122.417 F4200 E488.011
G1 X140.407 Y122.517 E488.015
G1 F1800 E478.015
G1 F236
G0 X140.567 Y122.417
G0 X140.665 Y122.259
G0 X140.567 Y122.417
G0 X140.407 Y122.517
;rapid-dry
G1 F236
G0 X139.804 Y123.616 Z3.1
G1 F1800 E488.015
;bead-perimeter_inner
G1 X135.899 Y127.52 F1560 E488.199
G1 X117.606 Y109.227 E489.06
G1 Y107.803 E489.107
G1 X118.749 E489.145
G1 Y93.338 E489.626
G1 X101.363 E490.204
G1 Y107.803 E490.685
G1 X102.506 E490.723
G1 Y109.225 E490.771
G1 X84.102 Y127.41 E491.631
G1 X80.249 Y123.557 E491.813
G1 X80.539 Y123.503 E491.822
G1 X80.79 Y123.508 E491.831
G1 X81.014 Y123.493 E491.838
G1 X81.511 Y123.536 E491.855
G1 X82.009 Y123.63 E491.872
G1 X82.462 Y123.772 E491.887
G1 X82.88 Y123.963 E491.903
G1 X83.258 Y124.203 E491.918
G1 X83.595 Y124.492 E491.932
G1 X84.63 Y125.526 E491.981
G1 X100.461 Y109.695 E492.726
G1 Y92.246 E493.306
G1 X119.651 E493.944
G1 Y109.695 E494.525
G1 X135.482 Y125.526 E495.269
G1 X136.461 Y124.548 E495.315
G1 X136.802 Y124.255 E495.33
G1 X137.172 Y124.021 E495.345
G1 X137.592 Y123.831 E495.36
G1 X138.042 Y123.689 E495.376
G1 X138.527 Y123.594 E495.392
G1 X139.036 Y123.552 E495.409
G1 X139.543 Y123.564 E495.426
G1 X139.804 Y123.616 E495.435
;rapid-leaky
G1 F236
G0 X140.034 Y123.279
;bead-perimeter_outer
G1 X140.299 Y123.435 F1080 E495.445
G1 X140.397 Y123.47 E495.449
G1 X140.432 Y123.504 E495.45
G1 X135.899 Y128.036 E495.663
G1 X117.241 Y109.378 E496.541
G1 Y107.438 E496.606
G1 X118.384 E496.644
G1 Y93.703 E497.1
G1 X101.728 E497.654
G1 Y107.438 E498.111
G1 X102.871 E498.149
G1 Y109.377 E498.214
G1 X84.101 Y127.925 E499.091
G1 X79.62 Y123.444 E499.302
G1 X79.663 Y123.401 E499.304
G1 X80.03 Y123.219 E499.318
G1 X80.498 Y123.137 E499.334
G1 X80.782 Y123.143 E499.343
G1 X81.025 Y123.127 E499.351
G1 X81.565 Y123.174 E499.369
