;1001
;Printer name: Creality Ender 3 V2
;Print time: 1h:38m:29s
;Extruder 1 material used: 3297mm
;Extruder 1 material name: PVA 1.75mm
;Extruder 1 filament diameter: 1.75mm
;Extruder 1 nozzle diameter: 0.4mm
;Extruder 1 offset x: 0mm
;Extruder 1 offset y: 0mm
;Extruder 1 offset z: 0mm
;Extruder 1 max temp: 220
;Bed temp: 60
;Layer count: 180
;Width: 220mm
;Depth: 220mm
;Height: 250mm
;Center x: 110mm
;Center y: 110mm
;Center z: 0mm
;Count of bodies: 1
;Fusion version: 2.0.10148
;--------------------------------
;Selected Profile: PVA 1.75mm, 0.4mm Nozzle
;Selected Printer: Creality, Ender 3 V2
;--------------------------------
T0
M140 S60
M190 S60
M104 S220 T0
M105
M109 S220 T0
G1 F236
G21
G90
M82
;Reset multiplier
M220 S100
M221 S100
;Enable auto bed leveling
M420 S1 Z2
G28
G1 Z10
G92 E0
G0 X10 Y10 Z10
G92 E0
;--------------------------------
;Layer : 1 of 180
M107
;rapid-leaky
G0 X20 Y20.8 Z0.3
G1 F1800 E10
;bead-prime
G1 X200 F270 E45.921
G1 F1800 E35.921
;rapid-dry
G1 F236
G0 X98.991 Y81.165
G1 F1800 E45.921
;bead-perimeter_outer
G1 X99.285 Y80.596 F540 E45.953
G1 Y80.995 E45.973
G1 X98.991 Y81.165 E45.99
G1 F1800 E35.99
;rapid-dry
G1 F236
G0 X95.925 Y75.006
G1 F1800 E45.99
;bead-skirt/brim
G1 X95.094 Y75.488 F780 E46.038
G1 X94.759 Y75.347 E46.056
G1 X93.297 E46.129
G1 X93.599 Y73.663 E46.214
G1 X93.174 E46.235
G1 X92.036 Y74.322 E46.301
G1 X89.656 Y72.481 E46.451
G1 X90.597 Y71.936 E46.505
G1 X90.496 Y71.831 E46.512
G1 X93.941 Y69.835 E46.711
G1 X97.058 Y68.033 E46.891
G1 X97.093 Y68.176 E46.898
G1 X97.995 Y67.654 E46.95
G1 X98.324 Y70.683 E47.102
G1 X97.09 Y71.397 E47.173
G1 Y71.763 E47.191
G1 X98.004 Y72.113 E47.24
G1 Y73.64 E47.316
G1 X97.813 Y73.75 E47.327
G1 X97.706 Y74.357 E47.358
G1 X96.763 Y74.316 E47.405
G1 X96.327 Y74.412 E47.427
G1 X95.925 Y75.006 E47.463
;rapid-leaky
G1 F236
G0 X95.645 Y74.706
;bead-skirt/brim
G1 X95.066 Y75.042 F780 E47.497
G1 X94.839 Y74.947 E47.509
G1 X93.775 E47.562
G1 X94.077 Y73.263 E47.647
G1 X93.067 E47.698
G1 X92.068 Y73.841 E47.755
G1 X90.372 Y72.529 E47.862
G1 X91.238 Y72.027 E47.912
G1 X91.137 Y71.922 E47.919
G1 X94.142 Y70.182 E48.093
G1 X96.796 Y68.646 E48.246
G1 X96.831 Y68.789 E48.253
G1 X97.663 Y68.308 E48.301
G1 X97.898 Y70.467 E48.409
G1 X96.69 Y71.166 E48.479
G1 Y72.039 E48.522
G1 X97.604 Y72.389 E48.571
G1 Y73.409 E48.622
G1 X97.451 Y73.497 E48.631
G1 X97.373 Y73.942 E48.654
G1 X96.728 Y73.914 E48.686
G1 X96.085 Y74.056 E48.719
G1 X95.645 Y74.706 E48.758
;rapid-leaky
G1 F236
G0 X95.366 Y74.406
;bead-skirt/brim
G1 X95.038 Y74.596 F780 E48.777
G1 X94.874 Y74.527 E48.786
G1 X94.84 Y74.547 E48.787
G1 X94.253 E48.817
G1 X94.555 Y72.863 E48.902
G1 X92.959 E48.982
G1 X92.1 Y73.361 E49.031
G1 X91.087 Y72.577 E49.095
G1 X91.879 Y72.118 E49.141
G1 X91.778 Y72.013 E49.148
G1 X94.342 Y70.528 E49.296
G1 X96.535 Y69.259 E49.422
G1 X96.57 Y69.402 E49.43
G1 X97.332 Y68.961 E49.473
G1 X97.472 Y70.252 E49.538
G1 X96.29 Y70.935 E49.606
G1 Y72.314 E49.675
G1 X97.204 Y72.664 E49.724
G1 Y73.179 E49.75
G1 X97.09 Y73.245 E49.756
G1 X97.04 Y73.527 E49.77
G1 X96.693 Y73.513 E49.788
G1 X95.843 Y73.7 E49.831
G1 X95.366 Y74.406 E49.874
;rapid-leaky
G1 F236
G0 X156.131 Y94.771
;bead-skirt/brim
G1 Y96.399 F780 E49.955
G1 X156.273 Y96.35 E49.962
G1 Y112.52 E50.769
G1 X156.131 Y112.471 E50.777
G1 Y113.905 E50.848
G1 X148.306 Y110.229 E51.28
G1 Y118.519 E51.693
G1 X137.23 Y124.854 E52.33
G1 Y114.498 E52.846
G1 X126.933 Y120.462 E53.44
G1 X126.989 Y108.47 E54.038
G1 X137.592 Y102.331 E54.65
G1 X137.59 Y84.345 E55.547
G1 X148.307 Y90.37 E56.16
G1 Y98.671 E56.574
G1 X156.131 Y94.771 E57.011
;rapid-leaky
G1 F236
G0 X155.731 Y95.417
;bead-skirt/brim
G1 Y96.959 F780 E57.087
G1 X155.873 Y96.91 E57.095
G1 Y111.96 E57.846
G1 X155.731 Y111.912 E57.853
G1 Y113.275 E57.921
G1 X148.144 Y109.711 E58.34
G1 Y109.114 E58.369
G1 X147.906 Y108.963 E58.383
G1 Y118.287 E58.849
G1 X137.63 Y124.164 E59.439
G1 Y113.804 E59.956
G1 X127.336 Y119.767 E60.549
G1 X127.388 Y108.702 E61.102
G1 X137.992 Y102.561 E61.713
G1 X137.99 Y85.028 E62.588
G1 X147.907 Y90.604 E63.155
G1 Y99.884 E63.618
G1 X148.144 Y99.721 E63.633
G1 Y99.199 E63.659
G1 X155.731 Y95.417 E64.081
;rapid-leaky
G1 F236
G0 X155.331 Y96.064
;bead-skirt/brim
G1 Y97.519 F780 E64.154
G1 X155.473 Y97.47 E64.162
G1 Y111.401 E64.857
G1 X155.331 Y111.353 E64.864
G1 Y112.646 E64.929
G1 X148.544 Y109.457 E65.303
G1 Y108.894 E65.331
G1 X147.506 Y108.236 E65.392
G1 Y118.055 E65.882
G1 X138.03 Y123.475 E66.427
G1 Y113.11 E66.944
G1 X127.739 Y119.071 E67.537
G1 X127.787 Y108.933 E68.043
G1 X138.392 Y102.792 E68.654
G1 X138.39 Y85.712 E69.506
G1 X147.507 Y90.838 E70.028
G1 Y100.645 E70.517
G1 X148.544 Y99.931 E70.58
G1 Y99.447 E70.604
G1 X155.331 Y96.064 E70.983
;rapid-leaky
G1 F236
G0 X154.931 Y96.71
;bead-skirt/brim
G1 Y98.079 F780 E71.051
G1 X155.073 Y98.03 E71.058
G1 Y110.842 E71.698
G1 X154.931 Y110.793 E71.705
G1 Y112.016 E71.766
G1 X148.944 Y109.203 E72.096
G1 Y108.674 E72.122
G1 X147.106 Y107.509 E72.231
G1 Y117.823 E72.746
G1 X138.43 Y122.785 E73.244
G1 Y112.417 E73.762
G1 X128.143 Y118.375 E74.355
G1 X128.186 Y109.164 E74.814
G1 X138.939 Y102.938 E75.434
G1 X138.792 Y102.853 E75.443
G1 X138.791 Y86.396 E76.264
G1 X147.107 Y91.072 E76.74
G1 Y101.406 E77.255
G1 X148.944 Y100.141 E77.366
G1 Y99.694 E77.389
G1 X154.931 Y96.71 E77.722
;rapid-leaky
G1 F236
G0 X154.531 Y97.356
;bead-skirt/brim
G1 Y98.639 F780 E77.786
G1 X154.673 Y98.591 E77.794
G1 Y110.282 E78.377
G1 X154.531 Y110.234 E78.385
G1 Y111.386 E78.442
G1 X149.344 Y108.949 E78.728
G1 Y108.454 E78.753
G1 X146.928 Y106.922 E78.896
G1 Y106.552 E78.914
G1 X146.706 Y106.347 E78.929
G1 Y117.591 E79.49
G1 X138.83 Y122.096 E79.943
G1 Y111.723 E80.46
G1 X128.546 Y117.679 E81.053
G1 X128.585 Y109.395 E81.466
G1 X139.737 Y102.938 E82.109
G1 X139.192 Y102.622 E82.141
G1 X139.191 Y87.08 E82.916
G1 X146.707 Y91.306 E83.346
G1 Y102.599 E83.91
G1 X146.929 Y102.373 E83.926
G1 Y102.014 E83.944
G1 X149.344 Y100.351 E84.09
G1 Y99.942 E84.11
G1 X154.531 Y97.356 E84.399
;rapid-leaky
G1 F236
G0 X154.131 Y98.003
;bead-skirt/brim
G1 Y99.2 F780 E84.459
G1 X154.273 Y99.151 E84.467
G1 Y109.723 E84.994
G1 X154.131 Y109.675 E85.002
G1 Y110.756 E85.056
G1 X149.744 Y108.695 E85.297
G1 Y107.922 E85.336
G1 X149.523 Y108.094 E85.35
G1 X147.328 Y106.702 E85.48
G1 Y106.377 E85.496
G1 X146.94 Y106.018 E85.522
G1 X147.523 Y104.488 E85.604
G1 X146.869 Y103.004 E85.685
G1 X147.329 Y102.537 E85.717
G1 Y102.224 E85.733
G1 X149.449 Y100.765 E85.861
G1 X149.744 Y100.992 E85.88
G1 Y100.189 E85.92
G1 X154.131 Y98.003 E86.165
;rapid-leaky
G1 F236
G0 X153.731 Y98.649
;bead-skirt/brim
G1 Y99.76 F780 E86.22
G1 X153.873 Y99.711 E86.227
G1 Y109.164 E86.699
G1 X153.731 Y109.115 E86.707
G1 Y110.126 E86.757
G1 X150.144 Y108.441 E86.955
G1 Y107.102 E87.021
G1 X149.499 Y107.605 E87.062
G1 X147.728 Y106.482 E87.167
G1 Y106.203 E87.181
G1 X147.41 Y105.908 E87.202
G1 X147.955 Y104.477 E87.279
G1 X147.345 Y103.091 E87.354
G1 X147.729 Y102.701 E87.382
G1 Y102.435 E87.395
G1 X149.436 Y101.259 E87.498
G1 X150.144 Y101.803 E87.543
G1 Y100.437 E87.611
G1 X153.731 Y98.649 E87.811
;rapid-leaky
G1 F236
G0 X153.331 Y99.295
;bead-skirt/brim
G1 Y100.32 F780 E87.862
G1 X153.473 Y100.271 E87.87
G1 Y108.604 E88.285
G1 X153.331 Y108.556 E88.293
G1 Y109.496 E88.34
G1 X150.544 Y108.187 E88.493
G1 Y106.791 E88.563
G1 X150.324 Y106.454 E88.583
G1 X149.476 Y107.117 E88.637
G1 X148.128 Y106.262 E88.716
G1 Y106.028 E88.728
G1 X147.88 Y105.798 E88.745
G1 X148.387 Y104.466 E88.816
G1 X147.82 Y103.178 E88.886
G1 X148.129 Y102.865 E88.908
G1 Y102.645 E88.919
G1 X149.423 Y101.754 E88.998
G1 X150.363 Y102.475 E89.057
G1 X150.544 Y102.091 E89.078
G1 Y100.684 E89.148
G1 X153.331 Y99.295 E89.303
;rapid-leaky
G1 F236
G0 X152.931 Y99.942
;bead-skirt/brim
G1 Y100.88 F780 E89.35
G1 X153.073 Y100.831 E89.358
G1 Y108.045 E89.718
G1 X152.931 Y107.997 E89.725
G1 Y108.866 E89.768
G1 X150.944 Y107.933 E89.878
G1 Y106.672 E89.941
G1 X150.421 Y105.872 E89.989
G1 X149.452 Y106.628 E90.05
G1 X148.528 Y106.042 E90.105
G1 Y105.854 E90.114
G1 X148.35 Y105.688 E90.126
G1 X148.819 Y104.455 E90.192
G1 X148.296 Y103.266 E90.257
G1 X148.529 Y103.029 E90.273
G1 Y102.855 E90.282
G1 X149.41 Y102.248 E90.335
G1 X150.514 Y103.095 E90.405
G1 X150.944 Y102.18 E90.455
G1 Y100.932 E90.517
G1 X152.931 Y99.942 E90.628
;rapid-leaky
G1 F236
G0 X152.531 Y100.588
;bead-skirt/brim
G1 Y101.44 F780 E90.671
G1 X152.673 Y101.392 E90.678
G1 Y107.486 E90.982
G1 X152.531 Y107.437 E90.99
G1 Y108.236 E91.03
G1 X151.344 Y107.679 E91.095
G1 Y106.552 E91.151
G1 X150.518 Y105.289 E91.227
G1 X149.428 Y106.139 E91.296
G1 X148.928 Y105.822 E91.325
G1 Y105.679 E91.332
G1 X148.82 Y105.578 E91.34
G1 X149.251 Y104.444 E91.4
G1 X148.771 Y103.353 E91.46
G1 X148.929 Y103.192 E91.471
G1 Y103.065 E91.477
G1 X149.398 Y102.743 E91.506
G1 X150.664 Y103.715 E91.585
G1 X151.344 Y102.27 E91.665
G1 Y101.18 E91.719
G1 X152.531 Y100.588 E91.785
;rapid-leaky
G1 F236
G0 X146.707 Y103.627
;bead-skirt/brim
G1 X146.706 Y105.509 F780 E91.879
G1 X147.091 Y104.499 E91.933
G1 X146.707 Y103.627 E91.981
;rapid-leaky
G1 F236
G0 X143.728 Y102.938
;bead-skirt/brim
G1 X141.192 Y101.469 F780 E92.127
G1 X141.191 Y90.499 E92.674
G1 X144.707 Y92.476 E92.876
G1 X144.706 Y116.431 E94.071
G1 X140.83 Y118.648 E94.293
G1 Y108.253 E94.812
G1 X130.562 Y114.2 E95.404
G1 X130.58 Y110.551 E95.586
G1 X143.728 Y102.938 E96.344
;rapid-leaky
G1 F236
G0 X142.93
;bead-skirt/brim
G1 X140.792 Y101.7 F780 E96.467
G1 X140.791 Y89.815 E97.06
G1 X145.107 Y92.242 E97.307
G1 X145.106 Y116.663 E98.526
G1 X140.43 Y119.337 E98.794
G1 Y108.947 E99.313
G1 X130.159 Y114.896 E99.905
G1 X130.181 Y110.32 E100.133
G1 X142.93 Y102.938 E100.868
;rapid-leaky
G1 F236
G0 X142.132
;bead-skirt/brim
G1 X140.392 Y101.93 F780 E100.968
G1 X140.391 Y89.131 E101.607
G1 X145.507 Y92.008 E101.9
G1 X145.506 Y116.895 E103.141
G1 X140.03 Y120.027 E103.456
G1 Y109.641 E103.974
G1 X129.756 Y115.592 E104.567
G1 X129.782 Y110.089 E104.841
G1 X142.132 Y102.938 E105.553
;rapid-leaky
G1 F236
G0 X141.333
;bead-skirt/brim
G1 X139.992 Y102.161 F780 E105.63
G1 X139.991 Y88.448 E106.315
G1 X145.907 Y91.774 E106.653
G1 X145.906 Y117.127 E107.918
G1 X139.63 Y120.717 E108.279
G1 Y110.335 E108.797
G1 X129.352 Y116.287 E109.389
G1 X129.383 Y109.858 E109.71
G1 X141.333 Y102.938 E110.399
;rapid-leaky
G1 F236
G0 X140.535
;bead-skirt/brim
G1 X139.592 Y102.392 F780 E110.453
G1 X139.591 Y87.764 E111.183
G1 X146.307 Y91.54 E111.568
G1 X146.306 Y117.359 E112.856
G1 X139.23 Y121.406 E113.262
G1 Y111.029 E113.78
G1 X128.949 Y116.983 E114.373
G1 X128.984 Y109.626 E114.74
G1 X140.535 Y102.938 E115.406
;rapid-leaky
G1 F236
G0 X123.508 Y117.961
;bead-skirt/brim
G1 X116.055 Y130.872 F780 E116.15
G1 X111.622 E116.371
G1 X110.913 Y132.182 E116.445
G1 X108.272 Y130.872 E116.592
G1 X101.254 E116.942
G1 X102.466 Y128.202 E117.089
G1 X102.055 Y127.998 E117.111
G1 X102.133 Y127.827 E117.121
G1 X101.717 Y127.621 E117.144
G1 X101.791 Y127.457 E117.153
G1 X101.585 Y127.355 E117.164
G1 X101.653 Y127.183 E117.174
G1 X101.258 Y126.987 E117.196
G1 X101.265 Y126.969 E117.197
G1 X99.489 E117.285
G1 X100.654 Y124.592 E117.417
G1 X100.267 Y124.378 E117.439
G1 X100.363 Y124.18 E117.45
G1 X99.955 Y123.962 E117.473
G1 X100.08 Y123.703 E117.488
G1 X99.815 Y123.561 E117.503
G1 X99.948 Y123.26 E117.519
G1 X99.564 Y123.048 E117.541
G1 X99.683 Y122.775 E117.556
G1 X99.249 Y122.535 E117.581
G1 X99.339 Y122.335 E117.592
G1 X98.959 Y122.132 E117.613
G1 X99.079 Y121.859 E117.628
G1 X98.672 Y121.641 E117.651
G1 X98.789 Y121.375 E117.665
G1 X98.398 Y121.165 E117.688
G1 X98.513 Y120.901 E117.702
G1 X98.101 Y120.68 E117.725
G1 X98.223 Y120.406 E117.74
G1 X97.822 Y120.191 E117.763
G1 X97.934 Y119.939 E117.777
G1 X97.528 Y119.722 E117.8
G1 X97.645 Y119.457 E117.814
G1 X97.247 Y119.243 E117.837
G1 X97.372 Y118.961 E117.852
G1 X96.968 Y118.744 E117.875
G1 X97.078 Y118.494 E117.889
G1 X96.687 Y118.284 E117.911
G1 X96.809 Y118.006 E117.926
G1 X96.401 Y117.787 E117.949
G1 X96.51 Y117.54 E117.962
G1 X96.105 Y117.324 E117.985
G1 X96.23 Y117.041 E118.001
G1 X95.834 Y116.829 E118.023
G1 X95.945 Y116.576 E118.037
G1 X95.54 Y116.359 E118.06
G1 X95.66 Y116.088 E118.075
G1 X95.255 Y115.871 E118.098
G1 X95.374 Y115.602 E118.112
G1 X94.972 Y115.387 E118.135
G1 X95.063 Y115.181 E118.146
G1 X94.659 Y114.973 E118.169
G1 X94.777 Y114.706 E118.183
G1 X94.369 Y114.498 E118.206
G1 X94.493 Y114.216 E118.222
G1 X94.096 Y114.012 E118.244
G1 X94.247 Y113.668 E118.263
G1 X93.802 Y113.437 E118.288
G1 X93.921 Y113.174 E118.302
G1 X93.523 Y112.969 E118.324
G1 X93.644 Y112.7 E118.339
G1 X93.247 Y112.495 E118.361
G1 X93.355 Y112.253 E118.375
G1 X92.967 Y112.054 E118.396
G1 X93.097 Y111.76 E118.412
G1 X92.682 Y111.547 E118.436
G1 X92.801 Y111.278 E118.45
G1 X92.403 Y111.075 E118.473
G1 X93.601 Y108.363 E118.621
G1 X93.347 Y108.226 E118.635
G1 X94.716 Y103.767 E118.868
G1 X94.928 Y103.285 E118.894
G1 X93.125 Y104.346 E118.998
G1 Y103.061 E119.063
G1 X92.243 Y102.544 E119.114
G1 X91.551 Y103.799 E119.185
G1 X67.389 Y89.643 E120.582
G1 X70.869 Y87.627 E120.783
G1 X65.155 Y83.433 E121.136
G1 X66.572 Y82.613 E121.218
G1 X66.467 Y82.51 E121.225
G1 X79.673 Y74.865 E121.987
G1 X79.71 Y75.007 E121.994
G1 X80.953 Y74.287 E122.066
G1 X81.895 Y81.241 E122.416
G1 X89.26 Y76.976 E122.84
G1 X89.119 Y76.895 E122.848
G1 X90.072 Y76.343 E122.903
G1 X84.648 Y72.147 E123.246
G1 X86.11 Y71.299 E123.33
G1 X86.009 Y71.194 E123.337
G1 X98.887 Y63.74 E124.079
G1 X98.922 Y63.883 E124.087
G1 X100.315 Y63.077 E124.167
G1 X101.063 Y69.977 E124.513
G1 X104.814 Y67.805 E124.73
G1 X104.877 Y80.02 E125.339
G1 X107.361 Y82.389 E125.51
G1 X104.717 Y83.941 E125.663
G1 Y86.948 E125.813
G1 X103.324 Y86.61 E125.885
G1 X103.389 Y97.154 E126.411
G1 X104.398 Y97.738 E126.469
G1 X102.649 Y98.753 E126.57
G1 X103.214 Y98.806 E126.598
G1 X107.763 Y99.828 E126.831
G1 X107.758 Y100.087 E126.844
G1 X110.743 Y100.366 E126.993
G1 X110.723 Y100.817 E127.016
G1 X111.004 Y100.843 E127.03
G1 X110.984 Y101.303 E127.053
G1 X111.288 Y101.331 E127.068
G1 X111.269 Y101.78 E127.091
G1 X111.549 Y101.804 E127.105
G1 X111.529 Y102.269 E127.128
G1 X111.82 Y102.295 E127.142
G1 X111.801 Y102.755 E127.165
G1 X112.088 Y102.781 E127.18
G1 X112.069 Y103.238 E127.203
G1 X112.357 Y103.263 E127.217
G1 X112.339 Y103.725 E127.24
G1 X112.643 Y103.752 E127.255
G1 X112.624 Y104.206 E127.278
G1 X112.902 Y104.23 E127.292
G1 X112.884 Y104.693 E127.315
G1 X113.175 Y104.718 E127.33
G1 X113.156 Y105.174 E127.352
G1 X113.444 Y105.199 E127.367
G1 X113.426 Y105.663 E127.39
G1 X113.715 Y105.688 E127.404
G1 X113.697 Y106.151 E127.428
G1 X113.986 Y106.176 E127.442
G1 X113.968 Y106.636 E127.465
G1 X114.271 Y106.661 E127.48
G1 X114.253 Y107.119 E127.503
G1 X114.532 Y107.142 E127.517
G1 X114.514 Y107.601 E127.54
G1 X114.802 Y107.624 E127.554
G1 X114.784 Y108.089 E127.577
G1 X115.073 Y108.112 E127.592
G1 X115.055 Y108.578 E127.615
G1 X115.343 Y108.601 E127.63
G1 X115.326 Y109.061 E127.653
G1 X115.632 Y109.086 E127.668
G1 X115.614 Y109.546 E127.691
G1 X115.891 Y109.568 E127.705
G1 X115.874 Y110.01 E127.727
G1 X116.163 Y110.032 E127.741
G1 X116.146 Y110.518 E127.765
G1 X116.433 Y110.541 E127.78
G1 X116.415 Y111.005 E127.803
G1 X116.702 Y111.028 E127.817
G1 X116.685 Y111.489 E127.84
G1 X116.964 Y111.511 E127.854
G1 X116.948 Y111.978 E127.878
G1 X117.255 Y112.002 E127.893
G1 X117.239 Y112.447 E127.915
G1 X117.515 Y112.467 E127.929
G1 X117.499 Y112.936 E127.952
G1 X117.783 Y112.957 E127.967
G1 X117.767 Y113.435 E127.991
G1 X118.051 Y113.457 E128.005
G1 X118.035 Y113.914 E128.028
G1 X118.318 Y113.936 E128.042
G1 X118.303 Y114.407 E128.065
G1 X120.942 Y114.609 E128.197
G1 X119.971 Y116.289 E128.294
G1 X119.993 Y116.291 E128.295
G1 X119.976 Y116.736 E128.317
G1 X120.208 Y116.757 E128.329
G1 X120.191 Y117.212 E128.352
G1 X120.424 Y117.233 E128.363
G1 X120.407 Y117.686 E128.386
G1 X123.508 Y117.961 E128.541
;rapid-leaky
G1 F236
G0 X122.848 Y118.304
;bead-skirt/brim
G1 X115.824 Y130.472 F780 E129.242
G1 X111.383 E129.464
G1 X110.744 Y131.652 E129.531
G1 X108.365 Y130.472 E129.663
G1 X101.875 E129.987
G1 X102.99 Y128.015 E130.122
G1 X102.579 Y127.811 E130.144
G1 X102.656 Y127.641 E130.154
G1 X102.241 Y127.434 E130.177
G1 X102.315 Y127.27 E130.186
G1 X102.093 Y127.16 E130.198
G1 X102.161 Y126.987 E130.208
G1 X101.766 Y126.792 E130.23
G1 X101.854 Y126.569 E130.242
G1 X100.13 E130.328
G1 X101.18 Y124.426 E130.447
G1 X100.792 Y124.211 E130.469
G1 X100.89 Y124.008 E130.48
G1 X100.482 Y123.79 E130.503
G1 X100.607 Y123.532 E130.517
G1 X100.33 Y123.384 E130.533
G1 X100.461 Y123.087 E130.549
G1 X100.077 Y122.874 E130.571
G1 X100.196 Y122.601 E130.586
G1 X99.764 Y122.363 E130.611
G1 X99.856 Y122.158 E130.622
G1 X99.475 Y121.954 E130.643
G1 X99.594 Y121.682 E130.658
G1 X99.187 Y121.464 E130.681
G1 X99.305 Y121.197 E130.696
G1 X98.912 Y120.987 E130.718
G1 X99.028 Y120.724 E130.732
G1 X98.617 Y120.503 E130.756
G1 X98.738 Y120.228 E130.771
G1 X98.338 Y120.014 E130.793
G1 X98.449 Y119.761 E130.807
G1 X98.044 Y119.544 E130.83
G1 X98.161 Y119.279 E130.844
G1 X97.763 Y119.066 E130.867
G1 X97.887 Y118.784 E130.882
G1 X97.483 Y118.567 E130.905
G1 X97.594 Y118.317 E130.919
G1 X97.202 Y118.107 E130.941
G1 X97.324 Y117.829 E130.956
G1 X96.916 Y117.61 E130.979
G1 X97.025 Y117.362 E130.993
G1 X96.621 Y117.146 E131.016
G1 X96.746 Y116.864 E131.031
G1 X96.349 Y116.652 E131.053
G1 X96.46 Y116.399 E131.067
G1 X96.056 Y116.181 E131.09
G1 X96.175 Y115.91 E131.105
G1 X95.771 Y115.693 E131.128
G1 X95.89 Y115.425 E131.143
G1 X95.488 Y115.209 E131.165
G1 X95.581 Y114.998 E131.177
G1 X95.177 Y114.79 E131.199
G1 X95.296 Y114.522 E131.214
G1 X94.887 Y114.313 E131.237
G1 X95.011 Y114.033 E131.252
G1 X94.613 Y113.828 E131.275
G1 X94.764 Y113.486 E131.293
G1 X94.322 Y113.256 E131.318
G1 X94.441 Y112.993 E131.332
G1 X94.043 Y112.787 E131.355
G1 X94.164 Y112.518 E131.37
G1 X93.766 Y112.313 E131.392
G1 X93.875 Y112.07 E131.405
G1 X93.485 Y111.87 E131.427
G1 X93.615 Y111.576 E131.443
G1 X93.201 Y111.364 E131.466
G1 X93.321 Y111.094 E131.481
G1 X92.922 Y110.891 E131.503
G1 X94.116 Y108.186 E131.651
G1 X93.826 Y108.029 E131.667
G1 X95.091 Y103.907 E131.882
G1 X95.556 Y102.854 E131.94
G1 X95.979 Y102.202 E131.979
G1 X93.525 Y103.647 E132.121
G1 Y102.831 E132.161
G1 X92.09 Y101.991 E132.244
G1 X91.399 Y103.246 E132.316
G1 X68.183 Y89.645 E133.658
G1 X71.599 Y87.666 E133.855
G1 X65.885 Y83.473 E134.209
G1 X67.227 Y82.696 E134.286
G1 X67.122 Y82.593 E134.293
G1 X79.418 Y75.475 E135.002
G1 X79.455 Y75.616 E135.01
G1 X80.636 Y74.933 E135.078
G1 X81.579 Y81.887 E135.428
G1 X90.059 Y76.976 E135.917
G1 X89.918 Y76.894 E135.925
G1 X90.658 Y76.466 E135.967
G1 X90.685 Y76.312 E135.975
G1 X85.363 Y72.194 E136.311
G1 X86.751 Y71.39 E136.391
G1 X86.65 Y71.285 E136.398
G1 X98.626 Y64.354 E137.089
G1 X98.661 Y64.496 E137.096
G1 X99.983 Y63.731 E137.172
G1 X100.732 Y70.632 E137.518
G1 X104.417 Y68.497 E137.731
G1 X104.476 Y79.861 E138.298
G1 X104.317 Y79.953 E138.307
G1 Y80.039 E138.311
G1 X106.701 Y82.312 E138.476
G1 X104.317 Y83.712 E138.614
G1 Y86.44 E138.75
G1 X102.92 Y86.1 E138.821
G1 X102.991 Y97.386 E139.384
G1 X103.6 Y97.739 E139.419
G1 X101.365 Y99.034 E139.548
G1 X103.151 Y99.201 E139.638
G1 X107.356 Y100.147 E139.853
G1 X107.35 Y100.451 E139.868
G1 X110.327 Y100.729 E140.017
G1 X110.307 Y101.181 E140.04
G1 X110.588 Y101.206 E140.054
G1 X110.569 Y101.667 E140.077
G1 X110.872 Y101.694 E140.092
G1 X110.852 Y102.144 E140.115
G1 X111.133 Y102.169 E140.129
G1 X111.113 Y102.633 E140.152
G1 X111.404 Y102.659 E140.166
G1 X111.385 Y103.12 E140.189
G1 X111.673 Y103.146 E140.204
G1 X111.654 Y103.603 E140.227
G1 X111.942 Y103.628 E140.241
G1 X111.924 Y104.091 E140.264
G1 X112.227 Y104.117 E140.279
G1 X112.209 Y104.572 E140.302
G1 X112.487 Y104.595 E140.316
G1 X112.469 Y105.059 E140.339
G1 X112.76 Y105.084 E140.354
G1 X112.741 Y105.541 E140.376
G1 X113.03 Y105.565 E140.391
G1 X113.011 Y106.029 E140.414
G1 X113.3 Y106.054 E140.429
G1 X113.282 Y106.518 E140.452
G1 X113.571 Y106.542 E140.466
G1 X113.553 Y107.002 E140.489
G1 X113.856 Y107.028 E140.504
G1 X113.838 Y107.486 E140.527
G1 X114.117 Y107.509 E140.541
G1 X114.099 Y107.968 E140.564
G1 X114.388 Y107.992 E140.579
G1 X114.37 Y108.456 E140.602
G1 X114.659 Y108.48 E140.616
G1 X114.641 Y108.945 E140.639
G1 X114.929 Y108.969 E140.654
G1 X114.911 Y109.429 E140.677
G1 X115.217 Y109.453 E140.692
G1 X115.199 Y109.914 E140.715
G1 X115.476 Y109.936 E140.729
G1 X115.459 Y110.38 E140.751
G1 X115.75 Y110.402 E140.766
G1 X115.732 Y110.886 E140.79
G1 X116.018 Y110.909 E140.804
G1 X116.001 Y111.374 E140.827
G1 X116.288 Y111.396 E140.842
G1 X116.271 Y111.858 E140.865
G1 X116.551 Y111.88 E140.879
G1 X116.535 Y112.346 E140.902
G1 X116.841 Y112.37 E140.917
G1 X116.825 Y112.817 E140.94
G1 X117.102 Y112.838 E140.954
G1 X117.086 Y113.306 E140.977
G1 X117.37 Y113.327 E140.991
G1 X117.354 Y113.804 E141.015
G1 X117.638 Y113.826 E141.029
G1 X117.622 Y114.284 E141.052
G1 X117.906 Y114.306 E141.066
G1 X117.891 Y114.777 E141.09
G1 X120.277 Y114.96 E141.209
G1 X119.337 Y116.588 E141.303
G1 X119.335 Y116.63 E141.305
G1 X119.578 Y116.653 E141.317
G1 X119.561 Y117.099 E141.339
G1 X119.794 Y117.12 E141.351
G1 X119.777 Y117.576 E141.374
G1 X120.01 Y117.597 E141.386
G1 X119.994 Y118.051 E141.408
G1 X122.848 Y118.304 E141.551
;rapid-leaky
G1 F236
G0 X122.188 Y118.647
;bead-skirt/brim
G1 X115.593 Y130.072 F780 E142.209
G1 X111.145 E142.431
G1 X110.576 Y131.122 E142.491
G1 X108.459 Y130.072 E142.609
G1 X102.496 E142.906
G1 X103.514 Y127.828 E143.029
G1 X103.103 Y127.624 E143.052
G1 X103.18 Y127.454 E143.061
G1 X102.764 Y127.248 E143.085
G1 X102.839 Y127.083 E143.093
G1 X102.6 Y126.965 E143.107
G1 X102.669 Y126.792 E143.116
G1 X102.273 Y126.597 E143.138
G1 X102.443 Y126.169 E143.161
G1 X100.772 E143.244
G1 X101.707 Y124.26 E143.35
G1 X101.317 Y124.045 E143.373
G1 X101.418 Y123.836 E143.384
G1 X101.01 Y123.618 E143.407
G1 X101.134 Y123.36 E143.422
G1 X100.846 Y123.206 E143.438
G1 X100.975 Y122.914 E143.454
G1 X100.589 Y122.7 E143.476
G1 X100.708 Y122.427 E143.491
G1 X100.279 Y122.191 E143.515
G1 X100.373 Y121.981 E143.527
G1 X99.99 Y121.776 E143.548
G1 X100.109 Y121.504 E143.563
G1 X99.703 Y121.286 E143.586
G1 X99.82 Y121.02 E143.601
G1 X99.427 Y120.809 E143.623
G1 X99.543 Y120.546 E143.637
G1 X99.132 Y120.326 E143.66
G1 X99.254 Y120.051 E143.675
G1 X98.853 Y119.836 E143.698
G1 X98.965 Y119.583 E143.712
G1 X98.56 Y119.366 E143.735
G1 X98.677 Y119.102 E143.749
G1 X98.278 Y118.888 E143.772
G1 X98.402 Y118.607 E143.787
G1 X97.999 Y118.39 E143.81
G1 X98.109 Y118.139 E143.824
G1 X97.717 Y117.929 E143.846
G1 X97.838 Y117.651 E143.861
G1 X97.431 Y117.432 E143.884
G1 X97.541 Y117.184 E143.898
G1 X97.137 Y116.968 E143.921
G1 X97.261 Y116.687 E143.936
G1 X96.864 Y116.474 E143.958
G1 X96.975 Y116.221 E143.972
G1 X96.571 Y116.004 E143.995
G1 X96.691 Y115.732 E144.01
G1 X96.287 Y115.516 E144.033
G1 X96.406 Y115.247 E144.047
G1 X96.003 Y115.032 E144.07
G1 X96.099 Y114.815 E144.082
G1 X95.695 Y114.607 E144.105
G1 X95.814 Y114.337 E144.119
G1 X95.406 Y114.129 E144.142
G1 X95.53 Y113.849 E144.157
G1 X95.131 Y113.645 E144.18
G1 X95.281 Y113.304 E144.198
G1 X94.843 Y113.076 E144.223
G1 X94.962 Y112.812 E144.237
G1 X94.563 Y112.606 E144.26
G1 X94.684 Y112.336 E144.275
G1 X94.286 Y112.131 E144.297
G1 X94.395 Y111.887 E144.31
G1 X94.003 Y111.686 E144.332
G1 X94.133 Y111.392 E144.348
G1 X93.72 Y111.18 E144.371
G1 X93.84 Y110.91 E144.386
G1 X93.44 Y110.706 E144.409
G1 X94.632 Y108.009 E144.556
G1 X94.304 Y107.833 E144.574
G1 X95.466 Y104.047 E144.772
G1 X95.909 Y103.045 E144.826
G1 X96.877 Y101.554 E144.915
G1 X98.407 Y100.961 E144.997
G1 X98.716 Y100.819 E145.014
G1 X98.985 Y100.629 E145.03
G1 X100.548 Y99.359 E145.131
G1 X103.088 Y99.597 E145.258
G1 X106.95 Y100.465 E145.456
G1 X106.943 Y100.815 E145.473
G1 X109.911 Y101.092 E145.622
G1 X109.891 Y101.544 E145.644
G1 X110.172 Y101.57 E145.658
G1 X110.153 Y102.031 E145.681
G1 X110.456 Y102.058 E145.697
G1 X110.436 Y102.509 E145.719
G1 X110.717 Y102.534 E145.733
G1 X110.698 Y102.998 E145.756
G1 X110.989 Y103.024 E145.771
G1 X110.969 Y103.485 E145.794
G1 X111.258 Y103.51 E145.808
G1 X111.239 Y103.968 E145.831
G1 X111.527 Y103.993 E145.846
G1 X111.509 Y104.456 E145.869
G1 X111.812 Y104.482 E145.884
G1 X111.793 Y104.937 E145.907
G1 X112.072 Y104.961 E145.921
G1 X112.054 Y105.425 E145.944
G1 X112.345 Y105.45 E145.958
G1 X112.326 Y105.907 E145.981
G1 X112.615 Y105.932 E145.996
G1 X112.597 Y106.396 E146.019
G1 X112.886 Y106.42 E146.033
G1 X112.868 Y106.884 E146.056
G1 X113.156 Y106.908 E146.071
G1 X113.138 Y107.369 E146.094
G1 X113.441 Y107.394 E146.109
G1 X113.423 Y107.853 E146.132
G1 X113.702 Y107.876 E146.146
G1 X113.685 Y108.336 E146.169
G1 X113.973 Y108.359 E146.183
G1 X113.956 Y108.824 E146.206
G1 X114.244 Y108.847 E146.221
G1 X114.227 Y109.312 E146.244
G1 X114.515 Y109.336 E146.259
G1 X114.497 Y109.796 E146.282
G1 X114.802 Y109.821 E146.297
G1 X114.785 Y110.282 E146.32
G1 X115.062 Y110.304 E146.334
G1 X115.045 Y110.75 E146.356
G1 X115.336 Y110.772 E146.371
G1 X115.319 Y111.255 E146.395
G1 X115.604 Y111.277 E146.409
G1 X115.587 Y111.742 E146.432
G1 X115.874 Y111.765 E146.447
G1 X115.857 Y112.227 E146.47
G1 X116.138 Y112.249 E146.484
G1 X116.122 Y112.715 E146.507
G1 X116.428 Y112.739 E146.522
G1 X116.411 Y113.187 E146.545
G1 X116.689 Y113.208 E146.559
G1 X116.673 Y113.676 E146.582
G1 X116.957 Y113.697 E146.596
G1 X116.941 Y114.174 E146.62
G1 X117.225 Y114.195 E146.634
G1 X117.21 Y114.654 E146.657
G1 X117.494 Y114.675 E146.671
G1 X117.479 Y115.146 E146.695
G1 X119.613 Y115.31 E146.801
G1 X118.9 Y116.544 E146.873
G1 X118.938 Y116.548 E146.875
G1 X118.92 Y116.991 E146.897
G1 X119.164 Y117.015 E146.909
G1 X119.146 Y117.462 E146.931
G1 X119.38 Y117.484 E146.943
G1 X119.363 Y117.94 E146.966
G1 X119.597 Y117.961 E146.977
G1 X119.58 Y118.416 E147
G1 X122.188 Y118.647 E147.131
;rapid-leaky
G1 F236
G0 X121.528 Y118.99
;bead-skirt/brim
G1 X115.362 Y129.672 F780 E147.746
G1 X110.907 E147.968
G1 X110.408 Y130.592 E148.021
G1 X108.553 Y129.672 E148.124
G1 X103.117 E148.395
G1 X104.038 Y127.642 E148.506
G1 X103.627 Y127.438 E148.529
G1 X103.704 Y127.267 E148.539
G1 X103.288 Y127.061 E148.562
G1 X103.362 Y126.897 E148.571
G1 X103.108 Y126.77 E148.585
G1 X103.176 Y126.597 E148.594
G1 X102.781 Y126.402 E148.616
G1 X103.032 Y125.769 E148.65
G1 X101.413 E148.731
G1 X102.234 Y124.094 E148.824
G1 X101.842 Y123.878 E148.846
G1 X101.946 Y123.665 E148.858
G1 X101.537 Y123.446 E148.881
G1 X101.661 Y123.189 E148.896
G1 X101.361 Y123.028 E148.912
G1 X101.488 Y122.74 E148.928
G1 X101.101 Y122.526 E148.95
G1 X101.22 Y122.253 E148.965
G1 X100.795 Y122.018 E148.989
G1 X100.89 Y121.804 E149.001
G1 X100.505 Y121.597 E149.023
G1 X100.624 Y121.327 E149.038
G1 X100.218 Y121.109 E149.061
G1 X100.336 Y120.842 E149.075
G1 X99.942 Y120.631 E149.097
G1 X100.057 Y120.368 E149.112
G1 X99.648 Y120.148 E149.135
G1 X99.769 Y119.874 E149.15
G1 X99.369 Y119.659 E149.173
G1 X99.481 Y119.406 E149.186
G1 X99.076 Y119.189 E149.209
G1 X99.193 Y118.924 E149.224
G1 X98.794 Y118.711 E149.246
G1 X98.918 Y118.43 E149.262
G1 X98.514 Y118.213 E149.285
G1 X98.625 Y117.962 E149.298
G1 X98.231 Y117.751 E149.32
G1 X98.353 Y117.473 E149.336
G1 X97.947 Y117.255 E149.359
G1 X98.056 Y117.006 E149.372
G1 X97.653 Y116.79 E149.395
G1 X97.777 Y116.509 E149.41
G1 X97.379 Y116.296 E149.433
G1 X97.49 Y116.044 E149.447
G1 X97.086 Y115.827 E149.47
G1 X97.206 Y115.554 E149.484
G1 X96.803 Y115.338 E149.507
G1 X96.921 Y115.07 E149.522
G1 X96.519 Y114.854 E149.545
G1 X96.617 Y114.632 E149.557
G1 X96.213 Y114.424 E149.579
G1 X96.333 Y114.153 E149.594
G1 X95.925 Y113.945 E149.617
G1 X96.048 Y113.666 E149.632
G1 X95.649 Y113.461 E149.655
G1 X95.798 Y113.122 E149.673
G1 X95.363 Y112.896 E149.698
G1 X95.483 Y112.631 E149.712
G1 X95.083 Y112.424 E149.734
G1 X95.204 Y112.154 E149.749
G1 X94.805 Y111.948 E149.772
G1 X94.914 Y111.704 E149.785
G1 X94.522 Y111.502 E149.807
G1 X94.651 Y111.208 E149.823
G1 X94.239 Y110.997 E149.846
G1 X94.36 Y110.726 E149.861
G1 X93.959 Y110.522 E149.883
G1 X95.144 Y107.831 E150.03
G1 X94.783 Y107.636 E150.051
G1 X95.842 Y104.187 E150.231
G1 X96.262 Y103.236 E150.283
G1 X97.142 Y101.88 E150.363
G1 X98.563 Y101.33 E150.439
G1 X98.917 Y101.167 E150.459
G1 X99.226 Y100.948 E150.478
G1 X100.673 Y99.773 E150.57
G1 X103.025 Y99.993 E150.688
G1 X106.543 Y100.784 E150.868
G1 X106.535 Y101.178 E150.888
G1 X109.494 Y101.455 E151.036
G1 X109.474 Y101.908 E151.059
G1 X109.757 Y101.934 E151.073
G1 X109.737 Y102.394 E151.096
G1 X110.04 Y102.422 E151.111
G1 X110.02 Y102.874 E151.134
G1 X110.302 Y102.899 E151.148
G1 X110.282 Y103.362 E151.171
G1 X110.573 Y103.388 E151.186
G1 X110.554 Y103.85 E151.209
G1 X110.842 Y103.875 E151.223
G1 X110.823 Y104.333 E151.246
G1 X111.112 Y104.359 E151.26
G1 X111.094 Y104.821 E151.283
G1 X111.397 Y104.848 E151.299
G1 X111.378 Y105.303 E151.321
G1 X111.658 Y105.327 E151.335
G1 X111.639 Y105.791 E151.358
G1 X111.93 Y105.816 E151.373
G1 X111.911 Y106.273 E151.396
G1 X112.2 Y106.298 E151.41
G1 X112.182 Y106.762 E151.434
G1 X112.471 Y106.787 E151.448
G1 X112.453 Y107.25 E151.471
G1 X112.742 Y107.275 E151.486
G1 X112.724 Y107.735 E151.509
G1 X113.027 Y107.761 E151.524
G1 X113.009 Y108.22 E151.547
G1 X113.288 Y108.243 E151.561
G1 X113.27 Y108.703 E151.584
G1 X113.559 Y108.727 E151.598
G1 X113.541 Y109.191 E151.621
G1 X113.83 Y109.215 E151.636
G1 X113.812 Y109.68 E151.659
G1 X114.1 Y109.703 E151.673
G1 X114.083 Y110.164 E151.696
G1 X114.388 Y110.189 E151.712
G1 X114.37 Y110.65 E151.735
G1 X114.647 Y110.672 E151.749
G1 X114.63 Y111.119 E151.771
G1 X114.923 Y111.142 E151.786
G1 X114.905 Y111.623 E151.81
G1 X115.19 Y111.646 E151.824
G1 X115.172 Y112.111 E151.847
G1 X115.46 Y112.133 E151.861
G1 X115.443 Y112.595 E151.884
G1 X115.725 Y112.618 E151.899
G1 X115.709 Y113.084 E151.922
G1 X116.014 Y113.108 E151.937
G1 X115.997 Y113.557 E151.96
G1 X116.276 Y113.578 E151.974
G1 X116.26 Y114.046 E151.997
G1 X116.545 Y114.067 E152.011
G1 X116.529 Y114.543 E152.035
G1 X116.812 Y114.565 E152.049
G1 X116.797 Y115.024 E152.072
G1 X117.082 Y115.045 E152.086
G1 X117.067 Y115.516 E152.11
G1 X118.949 Y115.66 E152.204
G1 X118.244 Y116.88 E152.274
G1 X118.523 Y116.908 E152.288
G1 X118.505 Y117.353 E152.31
G1 X118.749 Y117.376 E152.323
G1 X118.732 Y117.825 E152.345
G1 X118.966 Y117.847 E152.357
G1 X118.949 Y118.303 E152.38
G1 X119.183 Y118.325 E152.391
G1 X119.167 Y118.781 E152.414
G1 X121.528 Y118.99 E152.532
;rapid-leaky
G1 F236
G0 X120.868 Y119.333
;bead-skirt/brim
G1 X115.131 Y129.272 F780 E153.105
G1 X110.668 E153.327
G1 X110.24 Y130.062 E153.372
G1 X108.647 Y129.272 E153.461
G1 X103.737 E153.706
G1 X104.562 Y127.455 E153.806
G1 X104.15 Y127.251 E153.828
G1 X104.228 Y127.08 E153.838
G1 X103.812 Y126.874 E153.861
G1 X103.886 Y126.71 E153.87
G1 X103.615 Y126.576 E153.885
G1 X103.684 Y126.402 E153.894
G1 X103.289 Y126.207 E153.916
G1 X103.622 Y125.369 E153.961
G1 X102.055 E154.04
G1 X102.761 Y123.929 E154.12
G1 X102.367 Y123.711 E154.142
G1 X102.473 Y123.493 E154.154
G1 X102.064 Y123.274 E154.177
G1 X102.188 Y123.017 E154.191
G1 X101.877 Y122.85 E154.209
G1 X102.002 Y122.567 E154.225
G1 X101.613 Y122.353 E154.247
G1 X101.732 Y122.079 E154.262
G1 X101.31 Y121.846 E154.286
G1 X101.408 Y121.627 E154.298
G1 X101.02 Y121.419 E154.32
G1 X101.139 Y121.149 E154.334
G1 X100.734 Y120.932 E154.357
G1 X100.852 Y120.665 E154.372
G1 X100.457 Y120.453 E154.394
G1 X100.572 Y120.19 E154.408
G1 X100.164 Y119.971 E154.432
G1 X100.285 Y119.696 E154.447
G1 X99.885 Y119.482 E154.469
G1 X99.996 Y119.228 E154.483
G1 X99.592 Y119.011 E154.506
G1 X99.709 Y118.747 E154.52
G1 X99.309 Y118.533 E154.543
G1 X99.433 Y118.252 E154.558
G1 X99.03 Y118.036 E154.581
G1 X99.14 Y117.785 E154.595
G1 X98.746 Y117.573 E154.617
G1 X98.868 Y117.296 E154.632
G1 X98.462 Y117.078 E154.655
G1 X98.572 Y116.828 E154.669
G1 X98.168 Y116.612 E154.692
G1 X98.292 Y116.332 E154.707
G1 X97.895 Y116.119 E154.729
G1 X98.005 Y115.866 E154.743
G1 X97.601 Y115.649 E154.766
G1 X97.722 Y115.377 E154.781
G1 X97.318 Y115.161 E154.804
G1 X97.437 Y114.892 E154.818
G1 X97.035 Y114.676 E154.841
G1 X97.135 Y114.45 E154.854
G1 X96.731 Y114.241 E154.876
G1 X96.851 Y113.969 E154.891
G1 X96.444 Y113.761 E154.914
G1 X96.567 Y113.483 E154.929
G1 X96.167 Y113.277 E154.952
G1 X96.315 Y112.94 E154.97
G1 X95.883 Y112.716 E154.994
G1 X96.003 Y112.45 E155.009
G1 X95.603 Y112.243 E155.031
G1 X95.724 Y111.972 E155.046
G1 X95.325 Y111.766 E155.068
G1 X95.434 Y111.52 E155.082
G1 X95.04 Y111.318 E155.104
G1 X95.17 Y111.025 E155.12
G1 X94.758 Y110.814 E155.143
G1 X94.879 Y110.542 E155.158
G1 X94.478 Y110.337 E155.18
G1 X95.522 Y107.974 E155.309
G1 X95.624 Y107.635 E155.327
G1 X95.262 Y107.44 E155.347
G1 X96.217 Y104.327 E155.51
G1 X96.615 Y103.427 E155.559
G1 X97.407 Y102.207 E155.632
G1 X98.719 Y101.698 E155.702
G1 X99.117 Y101.514 E155.724
G1 X99.468 Y101.266 E155.745
G1 X100.798 Y100.186 E155.831
G1 X102.963 Y100.389 E155.939
G1 X106.137 Y101.103 E156.101
G1 X106.129 Y101.514 E156.122
G1 X106.346 Y101.562 E156.133
G1 X109.078 Y101.818 E156.27
G1 X109.058 Y102.271 E156.293
G1 X109.341 Y102.297 E156.307
G1 X109.321 Y102.758 E156.33
G1 X109.624 Y102.786 E156.345
G1 X109.604 Y103.239 E156.368
G1 X109.886 Y103.264 E156.382
G1 X109.866 Y103.727 E156.405
G1 X110.157 Y103.753 E156.419
G1 X110.138 Y104.214 E156.442
G1 X110.427 Y104.24 E156.457
G1 X110.408 Y104.698 E156.48
G1 X110.697 Y104.724 E156.494
G1 X110.679 Y105.186 E156.517
G1 X110.981 Y105.213 E156.533
G1 X110.963 Y105.669 E156.555
G1 X111.243 Y105.693 E156.569
G1 X111.224 Y106.157 E156.592
G1 X111.515 Y106.181 E156.607
G1 X111.496 Y106.64 E156.63
G1 X111.786 Y106.664 E156.644
G1 X111.768 Y107.128 E156.668
G1 X112.056 Y107.153 E156.682
G1 X112.038 Y107.616 E156.705
G1 X112.327 Y107.641 E156.72
G1 X112.309 Y108.102 E156.743
G1 X112.612 Y108.127 E156.758
G1 X112.594 Y108.587 E156.781
G1 X112.873 Y108.61 E156.795
G1 X112.855 Y109.071 E156.818
G1 X113.145 Y109.094 E156.832
G1 X113.127 Y109.559 E156.855
G1 X113.416 Y109.582 E156.87
G1 X113.398 Y110.047 E156.893
G1 X113.686 Y110.071 E156.907
G1 X113.669 Y110.532 E156.93
G1 X113.973 Y110.556 E156.946
G1 X113.955 Y111.018 E156.969
G1 X114.233 Y111.041 E156.983
G1 X114.216 Y111.489 E157.005
G1 X114.509 Y111.511 E157.02
G1 X114.492 Y111.992 E157.044
G1 X114.776 Y112.014 E157.058
G1 X114.758 Y112.479 E157.081
G1 X115.046 Y112.502 E157.096
G1 X115.029 Y112.964 E157.119
G1 X115.312 Y112.986 E157.133
G1 X115.297 Y113.452 E157.156
G1 X115.6 Y113.476 E157.171
G1 X115.584 Y113.927 E157.194
G1 X115.863 Y113.948 E157.208
G1 X115.847 Y114.416 E157.231
G1 X116.132 Y114.438 E157.245
G1 X116.116 Y114.912 E157.269
G1 X116.4 Y114.934 E157.283
G1 X116.384 Y115.394 E157.306
G1 X116.67 Y115.415 E157.321
G1 X116.655 Y115.886 E157.344
G1 X118.285 Y116.01 E157.426
G1 X117.589 Y117.215 E157.495
G1 X118.108 Y117.268 E157.521
G1 X118.089 Y117.714 E157.543
G1 X118.335 Y117.738 E157.556
G1 X118.317 Y118.188 E157.578
G1 X118.552 Y118.21 E157.59
G1 X118.535 Y118.667 E157.613
G1 X118.77 Y118.689 E157.624
G1 X118.753 Y119.145 E157.647
G1 X120.868 Y119.333 E157.753
;rapid-leaky
G1 F236
G0 X120.208 Y119.676
;bead-skirt/brim
G1 X114.9 Y128.872 F780 E158.283
G1 X110.43 E158.506
G1 X110.072 Y129.533 E158.543
G1 X108.74 Y128.872 E158.618
G1 X104.358 E158.836
G1 X105.086 Y127.269 E158.924
G1 X104.674 Y127.064 E158.947
G1 X104.751 Y126.894 E158.956
G1 X104.335 Y126.687 E158.98
G1 X104.41 Y126.523 E158.989
G1 X104.123 Y126.381 E159.004
G1 X104.192 Y126.207 E159.014
G1 X103.797 Y126.011 E159.036
G1 X104.211 Y124.969 E159.092
G1 X102.696 E159.167
G1 X103.287 Y123.763 E159.234
G1 X102.893 Y123.545 E159.257
G1 X103.001 Y123.321 E159.269
G1 X102.591 Y123.102 E159.292
G1 X102.715 Y122.846 E159.307
G1 X102.392 Y122.673 E159.325
G1 X102.515 Y122.394 E159.34
G1 X102.126 Y122.179 E159.362
G1 X102.245 Y121.905 E159.377
G1 X101.825 Y121.673 E159.401
G1 X101.925 Y121.45 E159.413
G1 X101.536 Y121.241 E159.435
G1 X101.654 Y120.972 E159.45
G1 X101.249 Y120.755 E159.473
G1 X101.367 Y120.487 E159.488
G1 X100.972 Y120.275 E159.51
G1 X101.087 Y120.012 E159.524
G1 X100.679 Y119.794 E159.547
G1 X100.801 Y119.519 E159.562
G1 X100.4 Y119.304 E159.585
G1 X100.512 Y119.05 E159.599
G1 X100.108 Y118.834 E159.622
G1 X100.225 Y118.57 E159.636
G1 X99.825 Y118.355 E159.659
G1 X99.948 Y118.075 E159.674
G1 X99.545 Y117.859 E159.697
G1 X99.656 Y117.608 E159.711
G1 X99.261 Y117.396 E159.733
G1 X99.383 Y117.118 E159.748
G1 X98.977 Y116.9 E159.771
G1 X99.088 Y116.65 E159.785
G1 X98.684 Y116.434 E159.808
G1 X98.808 Y116.155 E159.823
G1 X98.41 Y115.941 E159.845
G1 X98.52 Y115.689 E159.859
G1 X98.117 Y115.472 E159.882
G1 X98.237 Y115.199 E159.897
G1 X97.834 Y114.983 E159.92
G1 X97.953 Y114.714 E159.934
G1 X97.55 Y114.499 E159.957
G1 X97.653 Y114.267 E159.97
G1 X97.249 Y114.058 E159.992
G1 X97.37 Y113.784 E160.007
G1 X96.963 Y113.576 E160.03
G1 X97.085 Y113.299 E160.045
G1 X96.685 Y113.094 E160.068
G1 X96.832 Y112.758 E160.086
G1 X96.404 Y112.535 E160.11
G1 X96.524 Y112.269 E160.125
G1 X96.123 Y112.061 E160.147
G1 X96.245 Y111.791 E160.162
G1 X95.844 Y111.584 E160.184
G1 X95.954 Y111.337 E160.198
G1 X95.558 Y111.135 E160.22
G1 X95.688 Y110.841 E160.236
G1 X95.278 Y110.63 E160.259
G1 X95.399 Y110.357 E160.274
G1 X94.997 Y110.152 E160.297
G1 X96.041 Y107.789 E160.426
G1 X96.001 Y107.769 E160.428
G1 X96.104 Y107.439 E160.445
G1 X95.74 Y107.244 E160.466
G1 X96.593 Y104.467 E160.61
G1 X96.968 Y103.618 E160.657
G1 X97.672 Y102.533 E160.721
G1 X98.875 Y102.067 E160.786
G1 X99.318 Y101.862 E160.81
G1 X99.71 Y101.585 E160.834
G1 X100.924 Y100.6 E160.912
G1 X102.9 Y100.785 E161.011
G1 X105.73 Y101.421 E161.156
G1 X105.722 Y101.834 E161.176
G1 X106.063 Y101.909 E161.194
G1 X106.062 Y101.937 E161.195
G1 X108.662 Y102.18 E161.325
G1 X108.642 Y102.635 E161.348
G1 X108.925 Y102.661 E161.362
G1 X108.905 Y103.122 E161.385
G1 X109.208 Y103.149 E161.4
G1 X109.188 Y103.604 E161.423
G1 X109.47 Y103.628 E161.437
G1 X109.451 Y104.091 E161.46
G1 X109.742 Y104.117 E161.475
G1 X109.722 Y104.579 E161.498
G1 X110.011 Y104.605 E161.512
G1 X109.993 Y105.064 E161.535
G1 X110.282 Y105.089 E161.55
G1 X110.264 Y105.551 E161.573
G1 X110.566 Y105.578 E161.588
G1 X110.547 Y106.035 E161.611
G1 X110.828 Y106.059 E161.625
G1 X110.81 Y106.522 E161.648
G1 X111.1 Y106.547 E161.663
G1 X111.081 Y107.006 E161.686
G1 X111.371 Y107.031 E161.7
G1 X111.353 Y107.495 E161.723
G1 X111.642 Y107.519 E161.738
G1 X111.624 Y107.983 E161.761
G1 X111.912 Y108.007 E161.775
G1 X111.894 Y108.468 E161.798
G1 X112.197 Y108.494 E161.813
G1 X112.179 Y108.954 E161.836
G1 X112.459 Y108.977 E161.85
G1 X112.441 Y109.438 E161.873
G1 X112.73 Y109.462 E161.888
G1 X112.713 Y109.926 E161.911
G1 X113.001 Y109.95 E161.926
G1 X112.983 Y110.415 E161.949
G1 X113.272 Y110.438 E161.963
G1 X113.254 Y110.9 E161.986
G1 X113.559 Y110.924 E162.001
G1 X113.541 Y111.387 E162.025
G1 X113.819 Y111.409 E162.038
G1 X113.801 Y111.859 E162.061
G1 X114.096 Y111.881 E162.076
G1 X114.078 Y112.36 E162.1
G1 X114.362 Y112.382 E162.114
G1 X114.344 Y112.847 E162.137
G1 X114.632 Y112.87 E162.151
G1 X114.615 Y113.333 E162.174
G1 X114.9 Y113.355 E162.189
G1 X114.884 Y113.821 E162.212
G1 X115.186 Y113.845 E162.227
G1 X115.17 Y114.298 E162.25
G1 X115.45 Y114.319 E162.264
G1 X115.434 Y114.786 E162.287
G1 X115.72 Y114.808 E162.301
G1 X115.704 Y115.282 E162.325
G1 X115.987 Y115.303 E162.339
G1 X115.971 Y115.764 E162.362
G1 X116.258 Y115.785 E162.377
G1 X116.243 Y116.255 E162.4
G1 X117.62 Y116.361 E162.469
G1 X116.933 Y117.551 E162.538
G1 X117.693 Y117.628 E162.576
G1 X117.674 Y118.076 E162.598
G1 X117.92 Y118.1 E162.61
G1 X117.902 Y118.551 E162.633
G1 X118.138 Y118.573 E162.645
G1 X118.121 Y119.031 E162.668
G1 X118.356 Y119.053 E162.679
G1 X118.339 Y119.51 E162.702
G1 X120.208 Y119.676 E162.796
;rapid-leaky
G1 F236
G0 X119.549 Y120.019
;bead-skirt/brim
G1 X114.669 Y128.472 F780 E163.283
G1 X110.192 E163.506
G1 X109.904 Y129.003 E163.536
G1 X108.834 Y128.472 E163.596
G1 X104.979 E163.788
G1 X105.61 Y127.082 E163.864
G1 X105.198 Y126.877 E163.887
G1 X105.275 Y126.707 E163.897
G1 X104.859 Y126.501 E163.92
G1 X104.933 Y126.336 E163.929
G1 X104.63 Y126.186 E163.946
G1 X104.7 Y126.011 E163.955
G1 X104.305 Y125.816 E163.977
G1 X104.8 Y124.569 E164.044
G1 X103.338 E164.117
G1 X103.814 Y123.597 E164.171
G1 X103.418 Y123.378 E164.193
G1 X103.529 Y123.15 E164.206
G1 X103.118 Y122.931 E164.229
G1 X103.242 Y122.674 E164.244
G1 X102.908 Y122.495 E164.262
G1 X103.029 Y122.221 E164.277
G1 X102.638 Y122.005 E164.3
G1 X102.757 Y121.731 E164.315
G1 X102.34 Y121.501 E164.338
G1 X102.442 Y121.273 E164.351
G1 X102.051 Y121.063 E164.373
G1 X102.169 Y120.794 E164.388
G1 X101.765 Y120.577 E164.41
G1 X101.883 Y120.309 E164.425
G1 X101.487 Y120.097 E164.448
G1 X101.602 Y119.835 E164.462
G1 X101.195 Y119.616 E164.485
G1 X101.316 Y119.341 E164.5
G1 X100.916 Y119.127 E164.523
G1 X101.028 Y118.873 E164.536
G1 X100.624 Y118.656 E164.559
G1 X100.74 Y118.392 E164.574
G1 X100.34 Y118.178 E164.596
G1 X100.464 Y117.898 E164.612
G1 X100.061 Y117.682 E164.634
G1 X100.171 Y117.43 E164.648
G1 X99.776 Y117.218 E164.671
G1 X99.897 Y116.94 E164.686
G1 X99.493 Y116.723 E164.709
G1 X99.603 Y116.472 E164.722
G1 X99.2 Y116.256 E164.745
G1 X99.323 Y115.977 E164.76
G1 X98.925 Y115.763 E164.783
G1 X99.035 Y115.511 E164.797
G1 X98.632 Y115.295 E164.819
G1 X98.753 Y115.021 E164.834
G1 X98.35 Y114.805 E164.857
G1 X98.469 Y114.537 E164.872
G1 X98.066 Y114.321 E164.895
G1 X98.171 Y114.084 E164.908
G1 X97.767 Y113.875 E164.93
G1 X97.888 Y113.6 E164.945
G1 X97.481 Y113.392 E164.968
G1 X97.603 Y113.116 E164.983
G1 X97.202 Y112.91 E165.006
G1 X97.349 Y112.576 E165.024
G1 X96.924 Y112.355 E165.048
G1 X97.045 Y112.088 E165.062
G1 X96.643 Y111.88 E165.085
G1 X96.765 Y111.609 E165.1
G1 X96.363 Y111.402 E165.122
G1 X96.474 Y111.154 E165.136
G1 X96.077 Y110.951 E165.158
G1 X96.206 Y110.657 E165.174
G1 X95.797 Y110.447 E165.197
G1 X95.918 Y110.173 E165.212
G1 X95.515 Y109.968 E165.235
G1 X96.56 Y107.604 E165.363
G1 X96.484 Y107.565 E165.368
G1 X96.584 Y107.244 E165.385
G1 X96.219 Y107.047 E165.405
G1 X96.968 Y104.607 E165.533
G1 X97.321 Y103.809 E165.576
G1 X97.937 Y102.859 E165.633
G1 X99.031 Y102.435 E165.691
G1 X99.519 Y102.21 E165.718
G1 X99.952 Y101.904 E165.744
G1 X101.049 Y101.013 E165.815
G1 X102.837 Y101.181 E165.904
G1 X105.324 Y101.74 E166.032
G1 X105.316 Y102.154 E166.052
G1 X105.653 Y102.228 E166.069
G1 X105.651 Y102.301 E166.073
G1 X108.245 Y102.543 E166.203
G1 X108.225 Y102.998 E166.226
G1 X108.509 Y103.024 E166.24
G1 X108.489 Y103.485 E166.263
G1 X108.791 Y103.513 E166.278
G1 X108.772 Y103.968 E166.301
G1 X109.054 Y103.993 E166.315
G1 X109.035 Y104.456 E166.338
G1 X109.326 Y104.482 E166.353
G1 X109.306 Y104.944 E166.376
G1 X109.596 Y104.97 E166.39
G1 X109.577 Y105.429 E166.413
G1 X109.868 Y105.454 E166.428
G1 X109.849 Y105.917 E166.451
G1 X110.151 Y105.943 E166.466
G1 X110.132 Y106.401 E166.489
G1 X110.413 Y106.425 E166.503
G1 X110.395 Y106.888 E166.526
G1 X110.685 Y106.913 E166.541
G1 X110.666 Y107.373 E166.564
G1 X110.956 Y107.397 E166.578
G1 X110.938 Y107.861 E166.601
G1 X111.227 Y107.885 E166.616
G1 X111.209 Y108.349 E166.639
G1 X111.498 Y108.373 E166.653
G1 X111.48 Y108.835 E166.676
G1 X111.783 Y108.86 E166.691
G1 X111.765 Y109.321 E166.715
G1 X112.044 Y109.344 E166.729
G1 X112.026 Y109.806 E166.752
G1 X112.316 Y109.829 E166.766
G1 X112.298 Y110.294 E166.789
G1 X112.587 Y110.317 E166.804
G1 X112.569 Y110.782 E166.827
G1 X112.858 Y110.806 E166.841
G1 X112.84 Y111.267 E166.864
G1 X113.144 Y111.292 E166.88
G1 X113.126 Y111.755 E166.903
G1 X113.404 Y111.777 E166.917
G1 X113.387 Y112.229 E166.939
G1 X113.682 Y112.251 E166.954
G1 X113.665 Y112.728 E166.978
G1 X113.947 Y112.751 E166.992
G1 X113.93 Y113.216 E167.015
G1 X114.218 Y113.239 E167.03
G1 X114.2 Y113.702 E167.053
G1 X114.487 Y113.724 E167.067
G1 X114.471 Y114.19 E167.09
G1 X114.773 Y114.214 E167.105
G1 X114.756 Y114.668 E167.128
G1 X115.037 Y114.689 E167.142
G1 X115.022 Y115.156 E167.165
G1 X115.307 Y115.178 E167.18
G1 X115.291 Y115.651 E167.203
G1 X115.574 Y115.673 E167.217
G1 X115.559 Y116.134 E167.24
G1 X115.846 Y116.155 E167.255
G1 X115.831 Y116.625 E167.278
G1 X116.956 Y116.711 E167.335
G1 X116.277 Y117.887 E167.402
G1 X117.277 Y117.988 E167.452
G1 X117.259 Y118.437 E167.475
G1 X117.505 Y118.461 E167.487
G1 X117.488 Y118.914 E167.51
G1 X117.724 Y118.936 E167.522
G1 X117.707 Y119.395 E167.545
G1 X117.942 Y119.417 E167.556
G1 X117.926 Y119.875 E167.579
G1 X119.549 Y120.019 E167.661
;rapid-leaky
G1 F236
G0 X118.889 Y120.362
;bead-skirt/brim
G1 X114.438 Y128.072 F780 E168.105
G1 X109.953 E168.329
G1 X109.736 Y128.473 E168.351
G1 X108.928 Y128.072 E168.396
G1 X105.6 E168.562
G1 X106.134 Y126.895 E168.627
G1 X105.721 Y126.691 E168.65
G1 X105.799 Y126.52 E168.659
G1 X105.383 Y126.314 E168.682
G1 X105.457 Y126.149 E168.691
G1 X105.138 Y125.991 E168.709
G1 X105.207 Y125.816 E168.718
G1 X104.813 Y125.621 E168.74
G1 X105.389 Y124.169 E168.818
G1 X103.979 E168.889
G1 X104.341 Y123.431 E168.93
G1 X103.943 Y123.211 E168.952
G1 X104.056 Y122.978 E168.965
G1 X103.646 Y122.759 E168.989
G1 X103.769 Y122.502 E169.003
G1 X103.423 Y122.317 E169.022
G1 X103.542 Y122.048 E169.037
G1 X103.15 Y121.831 E169.059
G1 X103.269 Y121.557 E169.074
G1 X102.855 Y121.328 E169.098
G1 X102.959 Y121.096 E169.111
G1 X102.566 Y120.885 E169.133
G1 X102.684 Y120.617 E169.147
G1 X102.28 Y120.4 E169.17
G1 X102.398 Y120.132 E169.185
G1 X102.001 Y119.919 E169.207
G1 X102.116 Y119.657 E169.222
G1 X101.71 Y119.439 E169.245
G1 X101.832 Y119.164 E169.26
G1 X101.431 Y118.949 E169.282
G1 X101.543 Y118.695 E169.296
G1 X101.14 Y118.479 E169.319
G1 X101.256 Y118.215 E169.333
G1 X100.856 Y118 E169.356
G1 X100.979 Y117.721 E169.371
G1 X100.576 Y117.504 E169.394
G1 X100.687 Y117.253 E169.408
G1 X100.29 Y117.04 E169.43
G1 X100.412 Y116.763 E169.445
G1 X100.008 Y116.546 E169.468
G1 X100.119 Y116.294 E169.482
G1 X99.716 Y116.078 E169.505
G1 X99.839 Y115.8 E169.52
G1 X99.44 Y115.586 E169.543
G1 X99.55 Y115.334 E169.556
G1 X99.147 Y115.118 E169.579
G1 X99.268 Y114.843 E169.594
G1 X98.866 Y114.628 E169.617
G1 X98.984 Y114.359 E169.632
G1 X98.582 Y114.143 E169.654
G1 X98.689 Y113.901 E169.668
G1 X98.285 Y113.692 E169.69
G1 X98.407 Y113.416 E169.705
G1 X98 Y113.208 E169.728
G1 X98.122 Y112.933 E169.743
G1 X97.72 Y112.726 E169.766
G1 X97.866 Y112.394 E169.784
G1 X97.444 Y112.175 E169.808
G1 X97.565 Y111.907 E169.822
G1 X97.163 Y111.699 E169.845
G1 X97.285 Y111.427 E169.86
G1 X96.883 Y111.22 E169.882
G1 X96.994 Y110.971 E169.896
G1 X96.595 Y110.767 E169.918
G1 X96.724 Y110.473 E169.934
G1 X96.316 Y110.264 E169.957
G1 X96.438 Y109.989 E169.972
G1 X96.034 Y109.783 E169.995
G1 X97.079 Y107.419 E170.124
G1 X96.966 Y107.362 E170.13
G1 X97.063 Y107.048 E170.146
G1 X96.698 Y106.851 E170.167
G1 X97.344 Y104.747 E170.277
G1 X97.674 Y104 E170.318
G1 X98.203 Y103.185 E170.366
G1 X99.187 Y102.803 E170.419
G1 X99.72 Y102.558 E170.448
G1 X100.194 Y102.223 E170.477
G1 X101.174 Y101.427 E170.54
G1 X102.774 Y101.577 E170.62
G1 X104.917 Y102.058 E170.73
G1 X104.909 Y102.474 E170.751
G1 X105.243 Y102.548 E170.768
G1 X105.239 Y102.664 E170.773
G1 X107.829 Y102.906 E170.903
G1 X107.809 Y103.362 E170.926
G1 X108.093 Y103.388 E170.94
G1 X108.074 Y103.849 E170.963
G1 X108.375 Y103.877 E170.978
G1 X108.356 Y104.333 E171.001
G1 X108.639 Y104.358 E171.015
G1 X108.619 Y104.82 E171.038
G1 X108.91 Y104.846 E171.053
G1 X108.891 Y105.309 E171.076
G1 X109.181 Y105.334 E171.091
G1 X109.162 Y105.794 E171.113
G1 X109.453 Y105.819 E171.128
G1 X109.434 Y106.282 E171.151
G1 X109.735 Y106.308 E171.166
G1 X109.716 Y106.766 E171.189
G1 X109.998 Y106.791 E171.203
G1 X109.98 Y107.254 E171.226
G1 X110.27 Y107.279 E171.241
G1 X110.251 Y107.739 E171.264
G1 X110.542 Y107.763 E171.278
G1 X110.524 Y108.227 E171.302
G1 X110.813 Y108.252 E171.316
G1 X110.794 Y108.715 E171.339
G1 X111.083 Y108.74 E171.354
G1 X111.065 Y109.201 E171.377
G1 X111.368 Y109.227 E171.392
G1 X111.35 Y109.688 E171.415
G1 X111.63 Y109.712 E171.429
G1 X111.612 Y110.173 E171.452
G1 X111.902 Y110.197 E171.466
G1 X111.884 Y110.661 E171.49
G1 X112.172 Y110.685 E171.504
G1 X112.155 Y111.149 E171.527
G1 X112.443 Y111.173 E171.542
G1 X112.426 Y111.635 E171.565
G1 X112.729 Y111.66 E171.58
G1 X112.711 Y112.123 E171.603
G1 X112.99 Y112.145 E171.617
G1 X112.972 Y112.599 E171.64
G1 X113.269 Y112.621 E171.654
G1 X113.252 Y113.097 E171.678
G1 X113.533 Y113.119 E171.692
G1 X113.516 Y113.584 E171.716
G1 X113.804 Y113.607 E171.73
G1 X113.786 Y114.07 E171.753
G1 X114.074 Y114.093 E171.767
G1 X114.058 Y114.559 E171.791
G1 X114.359 Y114.582 E171.806
G1 X114.342 Y115.038 E171.829
G1 X114.625 Y115.059 E171.843
G1 X114.609 Y115.526 E171.866
G1 X114.894 Y115.548 E171.88
G1 X114.878 Y116.02 E171.904
G1 X115.161 Y116.042 E171.918
G1 X115.146 Y116.503 E171.941
G1 X115.434 Y116.525 E171.955
G1 X115.419 Y116.994 E171.979
G1 X116.292 Y117.061 E172.023
G1 X115.622 Y118.222 E172.089
G1 X116.862 Y118.348 E172.152
G1 X116.843 Y118.799 E172.174
G1 X117.091 Y118.823 E172.187
G1 X117.073 Y119.277 E172.209
G1 X117.31 Y119.299 E172.221
G1 X117.293 Y119.759 E172.244
G1 X117.529 Y119.78 E172.256
G1 X117.512 Y120.24 E172.279
G1 X118.889 Y120.362 E172.348
;rapid-leaky
G1 F236
G0 X118.229 Y120.705
;bead-skirt/brim
G1 X114.207 Y127.672 F780 E172.749
G1 X109.715 E172.973
G1 X109.568 Y127.943 E172.989
G1 X109.021 Y127.672 E173.019
G1 X106.221 E173.159
G1 X106.658 Y126.709 E173.212
G1 X106.245 Y126.504 E173.235
G1 X106.322 Y126.333 E173.244
G1 X105.906 Y126.127 E173.267
G1 X105.981 Y125.962 E173.276
G1 X105.645 Y125.796 E173.295
G1 X105.715 Y125.621 E173.304
G1 X105.32 Y125.426 E173.326
G1 X105.978 Y123.769 E173.415
G1 X104.621 E173.483
G1 X104.868 Y123.265 E173.511
G1 X104.468 Y123.045 E173.534
G1 X104.584 Y122.806 E173.547
G1 X104.173 Y122.587 E173.57
G1 X104.296 Y122.331 E173.584
G1 X103.939 Y122.139 E173.604
G1 X104.056 Y121.875 E173.619
G1 X103.662 Y121.657 E173.641
G1 X103.782 Y121.383 E173.656
G1 X103.37 Y121.156 E173.68
G1 X103.476 Y120.919 E173.693
G1 X103.081 Y120.707 E173.715
G1 X103.199 Y120.44 E173.73
G1 X102.796 Y120.223 E173.752
G1 X102.914 Y119.954 E173.767
G1 X102.516 Y119.741 E173.79
G1 X102.631 Y119.479 E173.804
G1 X102.226 Y119.262 E173.827
G1 X102.347 Y118.987 E173.842
G1 X101.947 Y118.772 E173.864
G1 X102.059 Y118.517 E173.878
G1 X101.655 Y118.301 E173.901
G1 X101.772 Y118.038 E173.916
G1 X101.371 Y117.823 E173.938
G1 X101.494 Y117.544 E173.953
G1 X101.091 Y117.327 E173.976
G1 X101.203 Y117.076 E173.99
G1 X100.805 Y116.862 E174.013
G1 X100.927 Y116.585 E174.028
G1 X100.523 Y116.368 E174.05
G1 X100.635 Y116.116 E174.064
G1 X100.231 Y115.9 E174.087
G1 X100.354 Y115.622 E174.102
G1 X99.955 Y115.408 E174.125
G1 X100.065 Y115.157 E174.139
G1 X99.663 Y114.94 E174.161
G1 X99.784 Y114.665 E174.176
G1 X99.381 Y114.45 E174.199
G1 X99.5 Y114.181 E174.214
G1 X99.097 Y113.966 E174.237
G1 X99.207 Y113.718 E174.25
G1 X98.803 Y113.509 E174.273
G1 X98.925 Y113.231 E174.288
G1 X98.519 Y113.024 E174.311
G1 X98.64 Y112.749 E174.326
G1 X98.238 Y112.543 E174.348
G1 X98.383 Y112.212 E174.366
G1 X97.965 Y111.995 E174.39
G1 X98.086 Y111.726 E174.404
G1 X97.683 Y111.517 E174.427
G1 X97.805 Y111.245 E174.442
G1 X97.402 Y111.037 E174.465
G1 X97.514 Y110.788 E174.478
G1 X97.113 Y110.583 E174.501
G1 X97.243 Y110.289 E174.517
G1 X96.835 Y110.08 E174.54
G1 X96.957 Y109.805 E174.555
G1 X96.553 Y109.599 E174.577
G1 X97.598 Y107.234 E174.706
G1 X97.448 Y107.158 E174.715
G1 X97.543 Y106.852 E174.731
G1 X97.177 Y106.654 E174.751
G1 X97.719 Y104.887 E174.844
G1 X98.027 Y104.191 E174.882
G1 X98.468 Y103.512 E174.922
G1 X99.343 Y103.172 E174.969
G1 X99.921 Y102.906 E175.001
G1 X100.435 Y102.542 E175.032
G1 X101.3 Y101.84 E175.088
G1 X102.712 Y101.973 E175.158
G1 X104.511 Y102.377 E175.25
G1 X104.503 Y102.794 E175.271
G1 X104.833 Y102.867 E175.288
G1 X104.828 Y103.027 E175.296
G1 X107.413 Y103.269 E175.425
G1 X107.392 Y103.726 E175.448
G1 X107.677 Y103.752 E175.463
G1 X107.658 Y104.213 E175.486
G1 X107.959 Y104.24 E175.501
G1 X107.94 Y104.698 E175.524
G1 X108.223 Y104.723 E175.538
G1 X108.203 Y105.185 E175.561
G1 X108.494 Y105.211 E175.575
G1 X108.475 Y105.673 E175.598
G1 X108.765 Y105.699 E175.613
G1 X108.746 Y106.159 E175.636
G1 X109.038 Y106.185 E175.651
G1 X109.019 Y106.647 E175.674
G1 X109.32 Y106.674 E175.689
G1 X109.301 Y107.132 E175.712
G1 X109.584 Y107.156 E175.726
G1 X109.565 Y107.62 E175.749
G1 X109.855 Y107.645 E175.763
G1 X109.836 Y108.105 E175.786
G1 X110.127 Y108.13 E175.801
G1 X110.109 Y108.594 E175.824
G1 X110.398 Y108.618 E175.839
G1 X110.38 Y109.081 E175.862
G1 X110.669 Y109.106 E175.876
G1 X110.651 Y109.568 E175.899
G1 X110.954 Y109.593 E175.914
G1 X110.935 Y110.055 E175.937
G1 X111.215 Y110.079 E175.951
G1 X111.197 Y110.54 E175.975
G1 X111.487 Y110.564 E175.989
G1 X111.47 Y111.029 E176.012
G1 X111.758 Y111.052 E176.027
G1 X111.74 Y111.517 E176.05
G1 X112.029 Y111.54 E176.064
G1 X112.012 Y112.003 E176.087
G1 X112.315 Y112.027 E176.103
G1 X112.297 Y112.491 E176.126
G1 X112.575 Y112.513 E176.14
G1 X112.558 Y112.968 E176.162
G1 X112.855 Y112.991 E176.177
G1 X112.838 Y113.465 E176.201
G1 X113.119 Y113.487 E176.215
G1 X113.101 Y113.953 E176.238
G1 X113.39 Y113.976 E176.253
G1 X113.372 Y114.439 E176.276
G1 X113.661 Y114.462 E176.29
G1 X113.645 Y114.927 E176.314
G1 X113.945 Y114.951 E176.329
G1 X113.929 Y115.408 E176.351
G1 X114.212 Y115.429 E176.366
G1 X114.196 Y115.897 E176.389
G1 X114.482 Y115.918 E176.403
G1 X114.466 Y116.39 E176.427
G1 X114.749 Y116.411 E176.441
G1 X114.733 Y116.873 E176.464
G1 X115.022 Y116.895 E176.478
G1 X115.007 Y117.364 E176.502
G1 X115.628 Y117.412 E176.533
G1 X114.966 Y118.558 E176.599
G1 X116.447 Y118.708 E176.673
G1 X116.428 Y119.161 E176.696
G1 X116.676 Y119.185 E176.708
G1 X116.658 Y119.64 E176.731
G1 X116.896 Y119.663 E176.743
G1 X116.879 Y120.123 E176.766
G1 X117.115 Y120.144 E176.778
G1 X117.099 Y120.605 E176.801
G1 X118.229 Y120.705 E176.857
;rapid-leaky
G1 F236
G0 X117.569 Y121.048
;bead-skirt/brim
G1 X113.976 Y127.272 F780 E177.216
G1 X109.477 E177.44
G1 X109.4 Y127.413 E177.448
G1 X109.115 Y127.272 E177.464
G1 X106.841 E177.578
G1 X107.182 Y126.522 E177.619
G1 X106.769 Y126.317 E177.642
G1 X106.846 Y126.147 E177.651
G1 X106.43 Y125.94 E177.674
G1 X106.505 Y125.776 E177.683
G1 X106.153 Y125.601 E177.703
G1 X106.223 Y125.426 E177.712
G1 X105.828 Y125.231 E177.734
G1 X106.567 Y123.369 E177.834
G1 X105.262 E177.899
G1 X105.394 Y123.1 E177.914
G1 X104.994 Y122.878 E177.937
G1 X105.112 Y122.635 E177.951
G1 X104.7 Y122.415 E177.974
G1 X104.823 Y122.159 E177.988
G1 X104.454 Y121.962 E178.009
G1 X104.569 Y121.701 E178.023
G1 X104.174 Y121.483 E178.046
G1 X104.294 Y121.209 E178.06
G1 X103.885 Y120.984 E178.084
G1 X103.994 Y120.742 E178.097
G1 X103.597 Y120.529 E178.119
G1 X103.714 Y120.262 E178.134
G1 X103.311 Y120.046 E178.157
G1 X103.43 Y119.777 E178.171
G1 X103.031 Y119.563 E178.194
G1 X103.146 Y119.301 E178.208
G1 X102.741 Y119.084 E178.231
G1 X102.863 Y118.809 E178.246
G1 X102.462 Y118.594 E178.269
G1 X102.575 Y118.339 E178.283
G1 X102.171 Y118.124 E178.306
G1 X102.288 Y117.86 E178.32
G1 X101.887 Y117.645 E178.343
G1 X102.009 Y117.367 E178.358
G1 X101.607 Y117.15 E178.381
G1 X101.718 Y116.899 E178.394
G1 X101.32 Y116.685 E178.417
G1 X101.441 Y116.407 E178.432
G1 X101.039 Y116.191 E178.455
G1 X101.15 Y115.938 E178.469
G1 X100.747 Y115.722 E178.492
G1 X100.87 Y115.445 E178.507
G1 X100.47 Y115.231 E178.529
G1 X100.58 Y114.979 E178.543
G1 X100.178 Y114.763 E178.566
G1 X100.299 Y114.488 E178.581
G1 X99.897 Y114.273 E178.604
G1 X100.016 Y114.004 E178.618
G1 X99.613 Y113.788 E178.641
G1 X99.725 Y113.535 E178.655
G1 X99.321 Y113.326 E178.677
G1 X99.444 Y113.047 E178.693
G1 X99.038 Y112.839 E178.715
G1 X99.158 Y112.566 E178.73
G1 X98.756 Y112.359 E178.753
G1 X98.9 Y112.03 E178.771
G1 X98.485 Y111.814 E178.794
G1 X98.607 Y111.545 E178.809
G1 X98.203 Y111.336 E178.832
G1 X98.325 Y111.063 E178.847
G1 X97.922 Y110.855 E178.869
G1 X98.034 Y110.605 E178.883
G1 X97.632 Y110.399 E178.905
G1 X97.761 Y110.106 E178.921
G1 X97.354 Y109.897 E178.944
G1 X97.477 Y109.621 E178.959
G1 X97.072 Y109.414 E178.982
G1 X98.116 Y107.05 E179.111
G1 X97.93 Y106.955 E179.121
G1 X98.023 Y106.656 E179.137
G1 X97.655 Y106.458 E179.158
G1 X98.095 Y105.027 E179.233
G1 X98.38 Y104.382 E179.268
G1 X98.733 Y103.838 E179.3
G1 X99.499 Y103.54 E179.341
G1 X100.121 Y103.254 E179.375
G1 X100.677 Y102.861 E179.409
G1 X101.425 Y102.254 E179.457
G1 X102.649 Y102.368 E179.519
G1 X104.104 Y102.696 E179.593
G1 X104.096 Y103.114 E179.614
G1 X104.423 Y103.186 E179.631
G1 X104.416 Y103.39 E179.641
G1 X106.996 Y103.632 E179.77
G1 X106.976 Y104.089 E179.793
G1 X107.261 Y104.115 E179.807
G1 X107.242 Y104.577 E179.83
G1 X107.543 Y104.604 E179.845
G1 X107.523 Y105.063 E179.868
G1 X107.807 Y105.088 E179.882
G1 X107.788 Y105.549 E179.906
G1 X108.079 Y105.575 E179.92
G1 X108.059 Y106.038 E179.943
G1 X108.35 Y106.064 E179.958
G1 X108.331 Y106.524 E179.981
G1 X108.623 Y106.55 E179.995
G1 X108.604 Y107.012 E180.018
G1 X108.904 Y107.039 E180.034
G1 X108.886 Y107.498 E180.056
G1 X109.169 Y107.522 E180.071
G1 X109.15 Y107.985 E180.094
G1 X109.44 Y108.01 E180.108
G1 X109.421 Y108.472 E180.131
G1 X109.713 Y108.496 E180.146
G1 X109.694 Y108.96 E180.169
G1 X109.983 Y108.984 E180.183
G1 X109.965 Y109.448 E180.207
G1 X110.254 Y109.472 E180.221
G1 X110.236 Y109.934 E180.244
G1 X110.539 Y109.96 E180.259
G1 X110.521 Y110.422 E180.282
G1 X110.8 Y110.446 E180.296
G1 X110.783 Y110.908 E180.32
G1 X111.073 Y110.932 E180.334
G1 X111.055 Y111.396 E180.357
G1 X111.344 Y111.42 E180.372
G1 X111.326 Y111.884 E180.395
G1 X111.615 Y111.908 E180.409
G1 X111.597 Y112.37 E180.432
G1 X111.9 Y112.395 E180.448
G1 X111.882 Y112.859 E180.471
G1 X112.161 Y112.882 E180.485
G1 X112.144 Y113.338 E180.508
G1 X112.442 Y113.361 E180.522
G1 X112.425 Y113.834 E180.546
G1 X112.705 Y113.856 E180.56
G1 X112.687 Y114.321 E180.583
G1 X112.975 Y114.344 E180.598
G1 X112.958 Y114.808 E180.621
G1 X113.248 Y114.83 E180.635
G1 X113.232 Y115.296 E180.659
G1 X113.532 Y115.32 E180.674
G1 X113.515 Y115.778 E180.697
G1 X113.799 Y115.8 E180.711
G1 X113.783 Y116.267 E180.734
G1 X114.069 Y116.288 E180.748
G1 X114.053 Y116.759 E180.772
G1 X114.336 Y116.781 E180.786
G1 X114.32 Y117.243 E180.809
G1 X114.61 Y117.265 E180.824
G1 X114.595 Y117.734 E180.847
G1 X114.964 Y117.762 E180.865
G1 X114.31 Y118.893 E180.931
G1 X116.032 Y119.068 E181.017
G1 X116.013 Y119.522 E181.04
G1 X116.262 Y119.546 E181.052
G1 X116.244 Y120.004 E181.075
G1 X116.482 Y120.026 E181.087
G1 X116.465 Y120.487 E181.11
G1 X116.702 Y120.508 E181.122
G1 X116.685 Y120.97 E181.145
G1 X117.569 Y121.048 E181.189
;rapid-leaky
G1 F236
G0 X101.426 Y135.228
;bead-skirt/brim
G1 X92.521 Y140.386 F780 E181.702
G1 X97.862 Y143.479 E182.01
G1 X97.859 Y144.805 E182.077
G1 X100.065 Y146.082 E182.204
G1 X97.853 Y147.334 E182.331
G1 X97.848 Y149.364 E182.432
G1 X89.27 Y154.275 E182.925
G1 X83.668 Y151.032 E183.248
G1 X83.678 Y149.384 E183.33
G1 X82.569 Y148.741 E183.394
G1 X82.555 Y157.561 E183.834
G1 X81.233 Y156.796 E183.91
G1 X81.207 Y157.105 E183.926
G1 X79.701 Y156.233 E184.013
G1 X79.666 Y156.382 E184.02
G1 X66.771 Y148.91 E184.764
G1 X66.87 Y148.804 E184.771
G1 X65.096 Y147.777 E184.873
G1 X70.868 Y143.62 E185.228
G1 X63.395 Y139.293 E185.659
G1 X63.489 Y123.993 E186.422
G1 X74.634 Y130.445 E187.065
G1 X74.601 Y131.753 E187.13
G1 X80.69 Y135.279 E187.481
G1 X90.931 Y129.349 E188.071
G1 X101.426 Y135.228 E188.672
;rapid-leaky
G1 F236
G0 X100.618 Y135.234
;bead-skirt/brim
G1 X90.576 Y141.05 F780 E189.251
G1 X91.141 Y141.377 E189.283
G1 X92.301 Y140.721 E189.35
G1 X97.462 Y143.709 E189.647
G1 X97.458 Y145.035 E189.713
G1 X99.26 Y146.078 E189.817
G1 X97.453 Y147.1 E189.921
G1 X97.448 Y149.132 E190.022
G1 X89.271 Y153.814 E190.492
G1 X84.07 Y150.802 E190.792
G1 X84.079 Y149.154 E190.874
G1 X81.161 Y147.464 E191.043
G1 X81.163 Y147.527 E191.046
G1 X82.17 Y148.11 E191.104
G1 X82.156 Y156.868 E191.541
G1 X80.888 Y156.134 E191.614
G1 X80.862 Y156.443 E191.629
G1 X79.434 Y155.617 E191.712
G1 X79.399 Y155.765 E191.719
G1 X67.408 Y148.817 E192.411
G1 X67.507 Y148.712 E192.418
G1 X65.831 Y147.74 E192.514
G1 X71.45 Y143.694 E192.86
G1 X71.415 Y143.475 E192.871
G1 X63.796 Y139.063 E193.31
G1 X63.885 Y124.684 E194.028
G1 X74.228 Y130.673 E194.624
G1 X74.195 Y131.98 E194.689
G1 X80.69 Y135.741 E195.064
G1 X90.934 Y129.809 E195.654
G1 X100.618 Y135.234 E196.208
;rapid-leaky
G1 F236
G0 X99.81 Y135.239
;bead-skirt/brim
G1 X89.778 Y141.05 F780 E196.786
G1 X91.139 Y141.838 E196.865
G1 X92.298 Y141.181 E196.931
G1 X97.061 Y143.939 E197.206
G1 X97.058 Y145.265 E197.272
G1 X98.455 Y146.074 E197.352
G1 X97.054 Y146.867 E197.433
G1 X97.049 Y148.9 E197.534
G1 X89.272 Y153.352 E197.981
G1 X84.471 Y150.572 E198.258
G1 X84.481 Y148.924 E198.34
G1 X80.73 Y146.752 E198.556
G1 X80.773 Y147.764 E198.607
G1 X81.769 Y148.34 E198.664
G1 X81.757 Y156.175 E199.055
G1 X80.542 Y155.471 E199.125
G1 X80.516 Y155.781 E199.141
G1 X79.166 Y155 E199.219
G1 X79.132 Y155.148 E199.226
G1 X68.045 Y148.724 E199.865
G1 X68.145 Y148.619 E199.873
G1 X66.566 Y147.704 E199.964
G1 X71.883 Y143.875 E200.29
G1 X71.78 Y143.224 E200.323
G1 X64.198 Y138.833 E200.76
G1 X64.28 Y125.375 E201.432
G1 X73.822 Y130.9 E201.982
G1 X73.789 Y132.207 E202.047
G1 X80.678 Y136.197 E202.444
G1 Y136.21 E202.445
G1 X90.937 Y130.27 E203.037
G1 X99.81 Y135.239 E203.544
;rapid-leaky
G1 F236
G0 X99.002 Y135.245
;bead-skirt/brim
G1 X88.98 Y141.05 F780 E204.122
G1 X91.136 Y142.299 E204.246
G1 X92.296 Y141.642 E204.313
G1 X96.661 Y144.17 E204.564
G1 X96.657 Y145.496 E204.63
G1 X97.649 Y146.07 E204.687
G1 X96.654 Y146.633 E204.745
G1 X96.649 Y148.667 E204.846
G1 X89.273 Y152.891 E205.27
G1 X84.872 Y150.343 E205.524
G1 X84.882 Y148.694 E205.606
G1 X80.3 Y146.041 E205.87
G1 X80.382 Y148 E205.968
G1 X81.369 Y148.571 E206.025
G1 X81.358 Y155.481 E206.37
G1 X80.197 Y154.809 E206.437
G1 X80.171 Y155.119 E206.452
G1 X78.899 Y154.383 E206.525
G1 X78.865 Y154.531 E206.533
G1 X68.683 Y148.631 E207.12
G1 X68.782 Y148.526 E207.127
G1 X67.301 Y147.668 E207.213
G1 X72.317 Y144.055 E207.521
G1 X72.146 Y142.973 E207.576
G1 X64.599 Y138.604 E208.011
G1 X64.676 Y126.067 E208.636
G1 X73.416 Y131.127 E209.14
G1 X73.383 Y132.434 E209.205
G1 X80.278 Y136.427 E209.603
G1 Y136.904 E209.627
G1 X90.941 Y130.73 E210.241
G1 X99.002 Y135.245 E210.702
;rapid-leaky
G1 F236
G0 X98.194 Y135.251
;bead-skirt/brim
G1 X88.182 Y141.05 F780 E211.279
G1 X91.134 Y142.759 E211.45
G1 X92.294 Y142.103 E211.516
G1 X96.26 Y144.4 E211.745
G1 X96.257 Y145.726 E211.811
G1 X96.844 Y146.066 E211.845
G1 X96.255 Y146.399 E211.879
G1 X96.25 Y148.435 E211.98
G1 X89.274 Y152.429 E212.381
G1 X85.274 Y150.113 E212.612
G1 X85.283 Y148.464 E212.694
G1 X79.496 Y145.113 E213.028
G1 X79.597 Y145.562 E213.051
G1 X79.887 Y145.73 E213.067
G1 X79.992 Y148.236 E213.193
G1 X80.969 Y148.801 E213.249
G1 X80.959 Y154.788 E213.548
G1 X79.851 Y154.147 E213.611
G1 X79.825 Y154.457 E213.627
G1 X78.632 Y153.767 E213.696
G1 X78.598 Y153.914 E213.703
G1 X69.32 Y148.538 E214.238
G1 X69.42 Y148.433 E214.245
G1 X68.036 Y147.631 E214.325
G1 X72.648 Y144.309 E214.609
G1 X72.773 Y144.382 E214.616
G1 X72.511 Y142.723 E214.7
G1 X65.001 Y138.374 E215.133
G1 X65.072 Y126.758 E215.712
G1 X73.011 Y131.354 E216.17
G1 X72.977 Y132.661 E216.235
G1 X79.878 Y136.658 E216.633
G1 Y137.598 E216.68
G1 X90.944 Y131.19 E217.318
G1 X98.194 Y135.251 E217.732
;rapid-leaky
G1 F236
G0 X97.386 Y135.257
;bead-skirt/brim
G1 X87.384 Y141.05 F780 E218.309
G1 X91.132 Y143.22 E218.525
G1 X92.291 Y142.564 E218.592
G1 X95.859 Y144.63 E218.797
G1 X95.856 Y145.956 E218.863
G1 X96.039 Y146.062 E218.874
G1 X95.856 Y146.166 E218.885
G1 X95.851 Y148.203 E218.986
G1 X89.275 Y151.968 E219.364
G1 X85.675 Y149.883 E219.572
G1 X85.685 Y148.234 E219.654
G1 X72.377 Y140.529 E220.421
G1 X72.335 Y142.159 E220.502
G1 X65.402 Y138.144 E220.902
G1 X65.468 Y127.449 E221.436
G1 X72.605 Y131.581 E221.847
G1 X72.571 Y132.889 E221.912
G1 X79.478 Y136.888 E222.311
G1 Y138.292 E222.381
G1 X90.947 Y131.651 E223.042
G1 X97.386 Y135.257 E223.41
;rapid-leaky
G1 F236
G0 X96.578 Y135.263
;bead-skirt/brim
G1 X86.586 Y141.05 F780 E223.986
G1 X91.129 Y143.681 E224.248
G1 X92.289 Y143.025 E224.315
G1 X95.459 Y144.86 E224.497
G1 X95.451 Y147.971 E224.652
G1 X89.276 Y151.506 E225.007
G1 X86.076 Y149.653 E225.192
G1 X86.086 Y148.005 E225.274
G1 X71.994 Y139.845 E226.087
G1 X71.953 Y141.475 E226.168
G1 X65.803 Y137.914 E226.522
G1 X65.864 Y128.141 E227.01
G1 X72.199 Y131.809 E227.375
G1 X72.165 Y133.116 E227.44
G1 X79.078 Y137.119 E227.839
G1 Y138.986 E227.932
G1 X90.95 Y132.111 E228.617
G1 X96.578 Y135.263 E228.938
;rapid-leaky
G1 F236
G0 X95.769 Y135.268
;bead-skirt/brim
G1 X85.787 Y141.05 F780 E229.514
G1 X91.127 Y144.142 E229.822
G1 X92.287 Y143.486 E229.888
G1 X95.058 Y145.091 E230.048
G1 X95.052 Y147.739 E230.18
G1 X89.278 Y151.044 E230.512
G1 X86.478 Y149.423 E230.673
G1 X86.487 Y147.775 E230.756
G1 X71.612 Y139.161 E231.613
G1 X71.57 Y140.791 E231.695
G1 X66.205 Y137.684 E232.004
G1 X66.259 Y128.832 E232.446
G1 X71.793 Y132.036 E232.765
G1 X71.759 Y133.343 E232.83
G1 X78.678 Y137.35 E233.229
G1 Y139.679 E233.345
G1 X90.954 Y132.571 E234.053
G1 X95.769 Y135.268 E234.328
;rapid-leaky
G1 F236
G0 X94.961 Y135.274
;bead-skirt/brim
G1 X84.989 Y141.05 F780 E234.903
G1 X91.125 Y144.603 E235.257
G1 X92.285 Y143.947 E235.323
G1 X94.658 Y145.321 E235.46
G1 X94.652 Y147.506 E235.569
G1 X89.279 Y150.583 E235.878
G1 X86.879 Y149.193 E236.016
G1 X86.889 Y147.545 E236.098
G1 X71.229 Y138.477 E237.001
G1 X71.187 Y140.107 E237.083
G1 X66.606 Y137.455 E237.347
G1 X66.655 Y129.523 E237.742
G1 X71.387 Y132.263 E238.015
G1 X71.354 Y133.57 E238.08
G1 X78.278 Y137.58 E238.48
G1 Y140.373 E238.619
G1 X90.957 Y133.032 E239.35
G1 X94.961 Y135.274 E239.579
;rapid-leaky
G1 F236
G0 X94.153 Y135.28
;bead-skirt/brim
G1 X84.191 Y141.05 F780 E240.153
G1 X92.659 Y145.954 E240.641
G1 X92.66 Y145.671 E240.656
G1 X91.37 Y144.924 E240.73
G1 X92.282 Y144.408 E240.782
G1 X94.257 Y145.551 E240.896
G1 X94.253 Y147.274 E240.982
G1 X89.28 Y150.121 E241.268
G1 X87.28 Y148.964 E241.383
G1 X87.288 Y147.597 E241.451
G1 X88.912 Y148.538 E241.545
G1 X92.657 Y146.419 E241.76
G1 X92.658 Y146.137 E241.774
G1 X88.914 Y148.255 E241.988
G1 X69.18 Y136.829 E243.126
G1 X69.282 Y132.832 E243.325
G1 X77.878 Y137.811 E243.821
G1 Y141.067 E243.983
G1 X90.96 Y133.492 E244.738
G1 X94.153 Y135.28 E244.92
;rapid-leaky
G1 F236
G0 X78.815 Y144.719
;bead-skirt/brim
G1 X72.76 Y141.212 F780 E245.269
G1 X72.75 Y141.597 E245.288
G1 X75.681 Y143.294 E245.457
G1 X75.835 Y143.22 E245.466
G1 X77.472 Y144.168 E245.56
G1 X77.73 Y144.54 E245.583
G1 X78.815 Y144.719 E245.638
;rapid-leaky
G1 F236
G0 X79.099 Y145.171
;bead-skirt/brim
G1 X79.245 Y145.821 F780 E245.671
G1 X79.496 Y145.966 E245.686
G1 X79.6 Y148.444 E245.809
G1 X79.576 Y148.457 E245.811
G1 X80.568 Y149.032 E245.868
G1 X80.56 Y154.095 E246.12
G1 X79.506 Y153.485 E246.181
G1 X79.479 Y153.795 E246.197
G1 X78.365 Y153.15 E246.261
G1 X78.331 Y153.297 E246.269
G1 X69.958 Y148.445 E246.751
G1 X70.057 Y148.34 E246.759
G1 X68.771 Y147.595 E246.833
G1 X72.672 Y144.785 E247.072
G1 X73.3 Y145.148 E247.109
G1 X72.817 Y142.098 E247.263
G1 X75.662 Y143.745 E247.427
G1 X75.817 Y143.672 E247.435
G1 X77.195 Y144.47 E247.515
G1 X77.498 Y144.907 E247.541
G1 X79.099 Y145.171 E247.622
;rapid-leaky
G1 F236
G0 X78.768 Y145.522
;bead-skirt/brim
G1 X78.893 Y146.08 F780 E247.651
G1 X79.106 Y146.203 E247.663
G1 X79.19 Y148.211 E247.763
G1 X78.757 Y148.445 E247.788
G1 X80.168 Y149.262 E247.869
G1 X80.161 Y153.402 E248.076
G1 X79.16 Y152.822 E248.134
G1 X79.134 Y153.133 E248.149
G1 X78.098 Y152.533 E248.209
G1 X78.064 Y152.68 E248.216
G1 X70.595 Y148.352 E248.647
G1 X70.694 Y148.247 E248.654
G1 X69.506 Y147.558 E248.723
G1 X72.696 Y145.261 E248.919
G1 X73.826 Y145.915 E248.984
G1 X73.343 Y142.865 E249.138
G1 X75.644 Y144.197 E249.271
G1 X75.798 Y144.123 E249.279
G1 X76.917 Y144.771 E249.344
G1 X77.266 Y145.274 E249.374
G1 X78.768 Y145.522 E249.45
;rapid-leaky
G1 F236
G0 X78.437 Y145.873
;bead-skirt/brim
G1 X78.541 Y146.338 F780 E249.474
G1 X78.716 Y146.439 E249.484
G1 X78.78 Y147.978 E249.561
G1 X78.241 Y148.269 E249.591
G1 Y148.609 E249.608
G1 X79.768 Y149.493 E249.696
G1 X79.763 Y152.709 E249.857
G1 X78.814 Y152.16 E249.911
G1 X78.788 Y152.471 E249.927
G1 X77.83 Y151.917 E249.982
G1 X77.797 Y152.063 E249.99
G1 X71.233 Y148.259 E250.368
G1 X71.332 Y148.154 E250.375
G1 X70.241 Y147.522 E250.438
G1 X72.719 Y145.737 E250.591
G1 X73.893 Y146.416 E250.658
G1 X74.31 E250.679
G1 X73.87 Y143.632 E250.82
G1 X75.626 Y144.648 E250.921
G1 X75.78 Y144.575 E250.929
G1 X76.639 Y145.072 E250.979
G1 X77.033 Y145.641 E251.013
G1 X78.437 Y145.873 E251.084
;rapid-leaky
G1 F236
G0 X78.106 Y146.223
;bead-skirt/brim
G1 X78.19 Y146.597 F780 E251.103
G1 X78.325 Y146.675 E251.111
G1 X78.37 Y147.745 E251.165
G1 X77.841 Y148.03 E251.195
G1 Y148.84 E251.235
G1 X79.367 Y149.723 E251.323
G1 X79.364 Y152.016 E251.437
G1 X78.469 Y151.498 E251.489
G1 X78.443 Y151.809 E251.505
G1 X77.563 Y151.3 E251.555
G1 X77.529 Y151.446 E251.563
G1 X71.87 Y148.166 E251.889
G1 X71.969 Y148.061 E251.896
G1 X70.976 Y147.486 E251.953
G1 X72.743 Y146.213 E252.062
G1 X73.785 Y146.816 E252.122
G1 X74.778 E252.172
G1 X74.396 Y144.398 E252.294
G1 X75.607 Y145.1 E252.364
G1 X75.761 Y145.027 E252.372
G1 X76.361 Y145.374 E252.407
G1 X76.801 Y146.008 E252.445
G1 X78.106 Y146.223 E252.511
;rapid-leaky
G1 F236
G0 X77.774 Y146.574
;bead-skirt/brim
G1 X77.838 Y146.855 F780 E252.526
G1 X77.935 Y146.911 E252.531
G1 X77.96 Y147.512 E252.561
G1 X77.441 Y147.792 E252.591
G1 Y149.07 E252.654
G1 X78.967 Y149.953 E252.742
G1 X78.965 Y151.323 E252.811
G1 X78.123 Y150.835 E252.859
G1 X78.097 Y151.147 E252.875
G1 X77.296 Y150.684 E252.921
G1 X77.262 Y150.829 E252.928
G1 X72.508 Y148.073 E253.202
G1 X72.607 Y147.968 E253.21
G1 X71.711 Y147.449 E253.261
G1 X72.767 Y146.689 E253.326
G1 X73.678 Y147.216 E253.379
G1 X75.246 E253.457
G1 X74.922 Y145.165 E253.561
G1 X75.589 Y145.551 E253.599
G1 X75.743 Y145.478 E253.607
G1 X76.084 Y145.675 E253.627
G1 X76.569 Y146.375 E253.67
G1 X77.774 Y146.574 E253.731
;rapid-leaky
G1 F236
G0 X70.805 Y139.423
;bead-skirt/brim
G1 X67.008 Y137.225 F780 E253.949
G1 X67.051 Y130.215 E254.299
G1 X70.981 Y132.49 E254.526
G1 X70.955 Y133.518 E254.577
G1 X69.047 Y132.414 E254.687
G1 X68.931 Y136.968 E254.914
G1 X70.839 Y138.072 E255.024
G1 X70.805 Y139.423 E255.092
;rapid-leaky
G1 F236
G0 X91.247 Y102.694
;bead-skirt/brim
G1 X68.978 Y89.647 F780 E256.379
G1 X72.329 Y87.706 E256.573
G1 X66.615 Y83.513 E256.926
G1 X67.882 Y82.779 E256.999
G1 X67.777 Y82.676 E257.007
G1 X79.164 Y76.084 E257.663
G1 X79.201 Y76.226 E257.67
G1 X80.32 Y75.578 E257.735
G1 X81.263 Y82.532 E258.085
G1 X90.858 Y76.975 E258.638
G1 X90.717 Y76.894 E258.646
G1 X91.019 Y76.719 E258.664
G1 X91.122 Y76.144 E258.693
G1 X86.079 Y72.242 E259.011
G1 X87.392 Y71.481 E259.087
G1 X87.291 Y71.376 E259.094
G1 X98.364 Y64.967 E259.732
G1 X98.399 Y65.109 E259.74
G1 X99.652 Y64.385 E259.812
G1 X100.401 Y71.286 E260.158
G1 X104.021 Y69.189 E260.367
G1 X104.075 Y79.631 E260.888
G1 X103.917 Y79.722 E260.897
G1 Y80.21 E260.921
G1 X106.041 Y82.236 E261.068
G1 X103.917 Y83.483 E261.19
G1 Y85.931 E261.313
G1 X102.517 Y85.591 E261.384
G1 X102.592 Y97.617 E261.984
G1 X102.802 Y97.739 E261.997
G1 X101.064 Y98.746 E262.097
G1 X93.925 Y102.947 E262.51
G1 Y102.602 E262.527
G1 X91.938 Y101.439 E262.642
G1 X91.247 Y102.694 E262.714
;rapid-leaky
G1 F236
G0 X91.095 Y102.141
;bead-skirt/brim
G1 X69.773 Y89.649 F780 E263.947
G1 X73.656 Y87.4 E264.17
G1 X73.15 Y87.108 E264.199
G1 X72.614 Y87.418 E264.23
G1 X67.345 Y83.552 E264.556
G1 X68.537 Y82.862 E264.625
G1 X68.432 Y82.759 E264.633
G1 X78.909 Y76.694 E265.236
G1 X78.946 Y76.836 E265.244
G1 X80.004 Y76.223 E265.305
G1 X80.873 Y82.637 E265.628
G1 X80.266 Y82.989 E265.663
G1 X80.29 Y83.558 E265.691
G1 X91.657 Y76.975 E266.346
G1 X91.608 Y76.947 E266.349
G1 X91.384 E266.36
G1 X91.558 Y75.976 E266.41
G1 X86.794 Y72.29 E266.71
G1 X88.033 Y71.572 E266.782
G1 X87.932 Y71.467 E266.789
G1 X93.14 Y68.451 E267.089
G1 X98.103 Y65.58 E267.375
G1 X98.138 Y65.723 E267.383
G1 X99.32 Y65.039 E267.451
G1 X100.027 Y71.546 E267.777
G1 X99.604 Y71.791 E267.802
G1 Y72.209 E267.822
G1 X103.624 Y69.881 E268.054
G1 X103.673 Y79.401 E268.529
G1 X103.517 Y79.492 E268.538
G1 Y80.381 E268.583
G1 X105.382 Y82.159 E268.711
G1 X103.517 Y83.254 E268.819
G1 Y85.422 E268.927
G1 X102.114 Y85.081 E268.999
G1 X102.192 Y97.618 E269.625
G1 X94.325 Y102.248 E270.08
G1 Y102.19 E270.083
G1 X94.168 Y102.281 E270.092
G1 X91.786 Y100.886 E270.23
G1 X91.095 Y102.141 E270.301
;rapid-leaky
G1 F236
G0 X90.942 Y101.588
;bead-skirt/brim
G1 X70.567 Y89.651 F780 E271.479
G1 X74.454 Y87.399 E271.703
G1 X73.15 Y86.645 E271.779
G1 X72.64 Y86.941 E271.808
G1 X68.075 Y83.592 E272.091
G1 X69.193 Y82.945 E272.155
G1 X69.088 Y82.842 E272.162
G1 X78.654 Y77.303 E272.714
G1 X78.691 Y77.445 E272.721
G1 X79.688 Y76.868 E272.779
G1 X80.441 Y82.425 E273.058
G1 X79.856 Y82.763 E273.092
G1 X79.917 Y84.236 E273.165
G1 X92.456 Y76.974 E273.888
G1 X92.315 Y76.893 E273.896
G1 X92.913 Y76.547 E273.931
G1 X91.862 E273.983
G1 X92.01 Y75.724 E274.025
G1 X91.94 Y75.765 E274.029
G1 X87.51 Y72.338 E274.309
G1 X88.674 Y71.663 E274.376
G1 X88.573 Y71.558 E274.383
G1 X93.34 Y68.797 E274.658
G1 X97.842 Y66.193 E274.917
G1 X97.877 Y66.336 E274.925
G1 X98.989 Y65.693 E274.989
G1 X99.601 Y71.33 E275.272
G1 X99.204 Y71.56 E275.294
G1 Y72.903 E275.361
G1 X103.228 Y70.573 E275.593
G1 X103.272 Y79.171 E276.022
G1 X103.117 Y79.261 E276.031
G1 Y80.553 E276.096
G1 X104.722 Y82.083 E276.206
G1 X103.117 Y83.025 E276.299
G1 Y84.913 E276.393
G1 X101.711 Y84.571 E276.466
G1 X101.791 Y97.39 E277.105
G1 X94.725 Y101.548 E277.514
G1 Y101.496 E277.517
G1 X94.169 Y101.818 E277.549
G1 X91.634 Y100.334 E277.695
G1 X90.942 Y101.588 E277.767
;rapid-leaky
G1 F236
G0 X90.79 Y101.035
;bead-skirt/brim
G1 X71.362 Y89.653 F780 E278.89
G1 X75.253 Y87.399 E279.115
G1 X73.318 Y86.28 E279.226
G1 X73.345 Y86.07 E279.237
G1 X72.665 Y86.464 E279.276
G1 X68.805 Y83.631 E279.515
G1 X69.848 Y83.028 E279.575
G1 X69.743 Y82.925 E279.582
G1 X78.4 Y77.913 E280.081
G1 X78.437 Y78.055 E280.089
G1 X79.372 Y77.514 E280.142
G1 X80.008 Y82.213 E280.379
G1 X79.336 Y82.602 E280.418
G1 X79.451 Y82.649 E280.424
G1 X79.545 Y84.914 E280.537
G1 X93.255 Y76.974 E281.328
G1 X93.114 Y76.892 E281.336
G1 X94.402 Y76.147 E281.41
G1 X92.34 E281.513
G1 X92.556 Y74.946 E281.574
G1 X91.972 Y75.284 E281.607
G1 X88.225 Y72.385 E281.844
G1 X89.315 Y71.754 E281.906
G1 X89.214 Y71.649 E281.914
G1 X93.54 Y69.143 E282.163
G1 X97.58 Y66.806 E282.396
G1 X97.615 Y66.949 E282.403
G1 X98.658 Y66.346 E282.463
G1 X99.175 Y71.115 E282.703
G1 X98.561 Y71.47 E282.738
G1 X98.804 Y71.563 E282.751
G1 Y73.597 E282.852
G1 X102.832 Y71.265 E283.085
G1 X102.871 Y78.942 E283.468
G1 X102.717 Y79.031 E283.477
G1 Y80.724 E283.561
G1 X104.062 Y82.006 E283.654
G1 X102.717 Y82.796 E283.732
G1 Y84.404 E283.812
G1 X101.308 Y84.062 E283.884
G1 X101.389 Y97.163 E284.538
G1 X95.125 Y100.849 E284.9
G1 Y100.802 E284.903
G1 X94.17 Y101.355 E284.958
G1 X91.482 Y99.781 E285.113
G1 X90.79 Y101.035 E285.185
;rapid-leaky
G1 F236
G0 X90.638 Y100.483
;bead-skirt/brim
G1 X72.157 Y89.655 F780 E286.253
G1 X78.644 Y85.898 E286.627
G1 X77.282 Y85.938 E286.695
G1 X77.013 Y86.419 E286.723
G1 X75.964 Y87.027 E286.783
G1 X75.792 Y86.963 E286.792
G1 X75.545 Y87.106 E286.807
G1 X73.748 Y86.067 E286.91
G1 X73.844 Y85.319 E286.948
G1 X72.691 Y85.987 E287.014
G1 X69.535 Y83.671 E287.21
G1 X70.503 Y83.111 E287.265
G1 X70.398 Y83.008 E287.273
G1 X78.145 Y78.523 E287.719
G1 X78.182 Y78.665 E287.727
G1 X79.055 Y78.159 E287.777
G1 X79.576 Y82.001 E287.97
G1 X78.427 Y82.666 E288.037
G1 X79.062 Y82.923 E288.071
G1 X79.149 Y85.019 E288.176
G1 X78.891 Y85.169 E288.19
G1 X78.809 Y85.802 E288.222
G1 X94.054 Y76.973 E289.101
G1 X93.913 Y76.892 E289.109
G1 X97.607 Y74.753 E289.322
G1 X96.798 Y74.718 E289.363
G1 X96.569 Y74.769 E289.374
G1 X96.205 Y75.307 E289.407
G1 X95.122 Y75.934 E289.469
G1 X94.678 Y75.747 E289.493
G1 X92.819 E289.586
G1 X93.102 Y74.167 E289.666
G1 X92.004 Y74.803 E289.729
G1 X88.941 Y72.433 E289.922
G1 X89.956 Y71.845 E289.981
G1 X89.855 Y71.74 E289.988
G1 X93.741 Y69.489 E290.212
G1 X97.319 Y67.42 E290.419
G1 X97.354 Y67.562 E290.426
G1 X98.326 Y67 E290.482
G1 X98.749 Y70.899 E290.678
G1 X97.635 Y71.544 E290.742
G1 X98.404 Y71.838 E290.783
G1 Y73.87 E290.884
G1 X98.175 Y74.003 E290.897
G1 X98.092 Y74.472 E290.921
G1 X102.435 Y71.956 E291.172
G1 X102.47 Y78.712 E291.509
G1 X102.317 Y78.8 E291.517
G1 Y80.895 E291.622
G1 X103.402 Y81.93 E291.697
G1 X102.317 Y82.567 E291.759
G1 Y83.895 E291.826
G1 X100.904 Y83.552 E291.898
G1 X100.988 Y96.935 E292.566
G1 X95.525 Y100.149 E292.882
G1 Y100.108 E292.884
G1 X94.171 Y100.892 E292.962
G1 X91.33 Y99.228 E293.127
G1 X90.638 Y100.483 E293.198
;rapid-leaky
G1 F236
G0 X90.486 Y99.93
;bead-skirt/brim
G1 X72.951 Y89.657 F780 E294.212
G1 X94.853 Y76.973 E295.475
G1 X94.712 Y76.891 E295.483
G1 X102.039 Y72.648 E295.905
G1 X102.069 Y78.482 E296.196
G1 X101.917 Y78.57 E296.205
G1 Y81.066 E296.33
G1 X102.742 Y81.853 E296.386
G1 X101.917 Y82.338 E296.434
G1 Y83.386 E296.486
G1 X100.654 Y83.079 E296.551
G1 X100.502 Y83.168 E296.56
G1 X100.587 Y96.707 E297.236
G1 X95.925 Y99.45 E297.505
G1 Y99.414 E297.507
G1 X94.172 Y100.429 E297.608
G1 X91.178 Y98.676 E297.781
G1 X90.486 Y99.93 E297.853
;rapid-leaky
G1 F236
G0 X90.334 Y99.377
;bead-skirt/brim
G1 X73.746 Y89.659 F780 E298.812
G1 X95.652 Y76.972 E300.075
G1 X95.511 Y76.891 E300.083
G1 X101.642 Y73.34 E300.437
G1 X101.667 Y78.252 E300.682
G1 X101.517 Y78.34 E300.69
G1 Y81.238 E300.835
G1 X102.082 Y81.777 E300.874
G1 X101.517 Y82.109 E300.907
G1 Y82.878 E300.945
G1 X100.591 Y82.653 E300.992
G1 X100.101 Y82.94 E301.021
G1 X100.185 Y96.479 E301.696
G1 X96.325 Y98.75 E301.92
G1 Y98.719 E301.921
G1 X94.173 Y99.966 E302.045
G1 X91.026 Y98.123 E302.227
G1 X90.334 Y99.377 E302.299
;rapid-leaky
G1 F236
G0 X90.182 Y98.825
;bead-skirt/brim
G1 X74.541 Y89.661 F780 E303.203
G1 X96.451 Y76.972 E304.466
G1 X96.31 Y76.89 E304.475
G1 X101.246 Y74.032 E304.759
G1 X101.266 Y78.023 E304.958
G1 X101.117 Y78.109 E304.967
G1 Y81.409 E305.131
G1 X101.423 Y81.7 E305.152
G1 X101.117 Y81.88 E305.17
G1 Y82.369 E305.195
G1 X100.528 Y82.226 E305.225
G1 X99.938 Y82.572 E305.259
G1 X99.931 Y80.089 E305.383
G1 X98.945 Y79.85 E305.433
G1 X98.158 Y81.373 E305.519
G1 X97.897 Y81.527 E305.534
G1 X96.712 Y83.226 E305.637
G1 X96.481 Y83.662 E305.662
G1 Y84.407 E305.699
G1 X86.483 Y90.196 E306.276
G1 X93.032 Y93.989 E306.653
G1 X92.554 Y94.756 E306.698
G1 X90.878 Y93.786 E306.795
G1 X89.768 Y95.568 E306.9
G1 X89.085 Y96.807 E306.97
G1 X90.755 Y97.785 E307.067
G1 X90.182 Y98.825 E307.126
;rapid-leaky
G1 F236
G0 X89.415 Y96.716
;bead-skirt/brim
G1 X89.979 Y95.692 F780 E307.184
G1 X90.961 Y94.117 E307.277
G1 X96.725 Y97.455 E307.609
G1 X96.726 Y83.723 E308.294
G1 X96.922 Y83.354 E308.315
G1 X98.067 Y81.711 E308.415
G1 X98.635 Y81.377 E308.448
G1 X98.498 Y81.247 E308.457
G1 X99.074 Y80.132 E308.52
G1 X99.684 Y80.282 E308.551
G1 X99.784 Y96.251 E309.348
G1 X96.725 Y98.051 E309.525
G1 Y98.025 E309.526
G1 X94.174 Y99.503 E309.673
G1 X89.415 Y96.716 E309.949
;rapid-leaky
G1 F236
G0 X92.982 Y94.825
;bead-skirt/brim
G1 X96.325 Y96.761 F780 E310.141
G1 X96.326 Y84.959 E310.73
G1 X87.281 Y90.196 E311.252
G1 X93.59 Y93.849 E311.615
G1 X92.982 Y94.825 E311.673
;rapid-leaky
G1 F236
G0 X93.54 Y94.686
;bead-skirt/brim
G1 X95.925 Y96.067 F780 E311.81
G1 X95.926 Y85.653 E312.33
G1 X88.079 Y90.196 E312.782
G1 X94.148 Y93.71 E313.132
G1 X93.54 Y94.686 E313.189
;rapid-leaky
G1 F236
G0 X94.098 Y94.547
;bead-skirt/brim
G1 X95.525 Y95.374 F780 E313.272
G1 X95.526 Y86.347 E313.722
G1 X88.877 Y90.196 E314.105
G1 X94.706 Y93.571 E314.441
G1 X94.098 Y94.547 E314.499
;rapid-leaky
G1 F236
G0 X94.656 Y94.408
;bead-skirt/brim
G1 X95.125 Y94.68 F780 E314.526
G1 Y93.654 E314.577
G1 X94.656 Y94.408 E314.621
;rapid-leaky
G1 F236
G0 X95.125 Y93.352
;bead-skirt/brim
G1 X95.126 Y87.041 F780 E314.936
G1 X89.676 Y90.196 E315.25
G1 X95.125 Y93.352 E315.564
;rapid-leaky
G1 F236
G0 X94.725 Y92.658
;bead-skirt/brim
G1 X94.726 Y87.735 F780 E315.81
G1 X90.474 Y90.196 E316.055
G1 X94.725 Y92.658 E316.3
;rapid-leaky
G1 F236
G0 X94.325 Y91.964
;bead-skirt/brim
G1 X94.326 Y88.428 F780 E316.477
G1 X91.272 Y90.196 E316.653
G1 X94.325 Y91.964 E316.829
;rapid-leaky
G1 F236
G0 X93.925 Y91.27
;bead-skirt/brim
G1 X93.926 Y89.122 F780 E316.936
G1 X92.07 Y90.196 E317.043
G1 X93.925 Y91.27 E317.15
;rapid-leaky
G1 F236
G0 X93.526 Y90.577
;bead-skirt/brim
G1 Y89.816 F780 E317.188
G1 X92.869 Y90.196 E317.226
G1 X93.526 Y90.577 E317.263
;rapid-leaky
G1 F236
G0 X78.739 Y78.804
;bead-skirt/brim
G1 X79.144 Y81.789 F780 E317.414
G1 X77.844 Y82.542 E317.489
G1 X77.93 Y82.897 E317.507
G1 X78.673 Y83.197 E317.547
G1 X78.739 Y84.794 E317.627
G1 X78.519 Y84.922 E317.639
G1 X78.444 Y85.503 E317.669
G1 X77.043 Y85.545 E317.738
G1 X76.717 Y86.128 E317.772
G1 X75.927 Y86.586 E317.817
G1 X75.755 Y86.522 E317.827
G1 X75.545 Y86.644 E317.839
G1 X74.179 Y85.854 E317.917
G1 X74.31 Y84.822 E317.969
G1 X73.903 E317.99
G1 X72.717 Y85.509 E318.058
G1 X70.265 Y83.71 E318.21
G1 X71.158 Y83.193 E318.261
G1 X71.053 Y83.09 E318.268
G1 X77.89 Y79.132 E318.663
G1 X77.927 Y79.274 E318.67
G1 X78.739 Y78.804 E318.717
;rapid-leaky
G1 F236
G0 X78.423 Y79.45
;bead-skirt/brim
G1 X78.711 Y81.578 F780 E318.824
G1 X77.385 Y82.345 E318.9
G1 X77.59 Y83.191 E318.944
G1 X78.284 Y83.472 E318.981
G1 X78.33 Y84.569 E319.036
G1 X78.148 Y84.674 E319.046
G1 X78.091 Y85.114 E319.069
G1 X76.805 Y85.152 E319.133
G1 X76.422 Y85.837 E319.172
G1 X75.89 Y86.145 E319.203
G1 X75.718 Y86.081 E319.212
G1 X75.545 Y86.182 E319.222
G1 X74.609 Y85.641 E319.276
G1 X74.764 Y84.422 E319.337
G1 X73.795 E319.385
G1 X72.743 Y85.032 E319.446
G1 X70.995 Y83.75 E319.554
G1 X71.813 Y83.276 E319.601
G1 X71.709 Y83.173 E319.609
G1 X77.636 Y79.742 E319.95
G1 X77.673 Y79.884 E319.958
G1 X78.423 Y79.45 E320.001
;rapid-leaky
G1 F236
G0 X78.107 Y80.095
;bead-skirt/brim
G1 X78.279 Y81.366 F780 E320.065
G1 X76.925 Y82.149 E320.143
G1 X77.249 Y83.485 E320.211
G1 X77.895 Y83.746 E320.246
G1 X77.92 Y84.344 E320.276
G1 X77.777 Y84.427 E320.284
G1 X77.738 Y84.724 E320.299
G1 X76.567 Y84.759 E320.358
G1 X76.126 Y85.546 E320.403
G1 X75.852 Y85.705 E320.418
G1 X75.681 Y85.641 E320.428
G1 X75.545 Y85.719 E320.435
G1 X75.039 Y85.427 E320.465
G1 X75.218 Y84.022 E320.535
G1 X73.688 E320.612
G1 X72.768 Y84.555 E320.665
G1 X71.725 Y83.79 E320.729
G1 X72.469 Y83.359 E320.772
G1 X72.364 Y83.256 E320.779
G1 X77.381 Y80.352 E321.069
G1 X77.418 Y80.494 E321.076
G1 X78.107 Y80.095 E321.116
G1 F1800 E311.116
;rapid-dry
G1 F236
G0 X75.437 Y82.155
G1 F1800 E321.116
;bead-support-structure
G1 X75.733 Y83.291 F2100 E321.174
G1 X74.895 Y82.469 E321.233
G1 F1800 E311.233
G1 F236
G0 X75.466 Y83.029
G0 X74.895 Y82.469
;rapid-dry
G1 F236
G0 X75.507 Y85.465
G1 F1800 E321.233
;bead-support-structure
G1 X75.639 Y84.862 F2100 E321.264
G1 X75.755 Y84.492 E321.283
G1 X76.084 Y83.897 E321.317
G1 X76.693 Y83.907 E321.347
G1 X77.073 Y83.98 E321.366
G1 X77.712 Y84.176 E321.4
G1 F1800 E311.4
G1 F236
G0 X77.073 Y83.98
G0 X76.944 Y83.955
G0 X77.073 Y83.98
G0 X77.712 Y84.176
;rapid-dry
G1 F236
G0 X82.39 Y92.718
G1 F1800 E321.4
;bead-support-structure
G1 X77.183 Y89.667 F2100 E321.701
G1 X99.427 Y76.785 E322.983
G1 X99.987 Y77.108 E323.016
G1 X96.874 Y82.643 E323.332
G1 X83.828 Y90.196 E324.084
G1 X83.868 Y90.219 E324.087
G1 X83.49 Y91.592 E324.158
G1 X84.352 Y91.888 E324.203
G1 X86.437 Y93.408 E324.332
G1 F1800 E314.332
G1 F236
G0 X85.79 Y92.936
G0 X86.437 Y93.408
;rapid-dry
G1 F236
G0 X90.64 Y96.079
G1 F1800 E324.332
;bead-perimeter_inner
G1 X91.218 Y95.15 F780 E324.387
G1 X95.691 Y97.74 E324.644
G1 X94.176 Y98.618 E324.732
G1 X90.445 Y96.433 E324.948
G1 X90.64 Y96.079 E324.968
;rapid-leaky
G1 F236
G0 X90.325 Y95.894
;bead-perimeter_outer
G1 X91.095 Y94.657 F540 E325.04
G1 X96.419 Y97.74 E325.347
G1 X94.176 Y99.041 E325.477
G1 X89.953 Y96.568 E325.721
G1 X90.325 Y95.894 E325.759
;rapid-leaky
G1 F236
G0 X91.388 Y95.618
;bead-solid_infill
G1 X91.165 Y95.841 F1200 E325.775
G1 X90.916 Y96.241 E325.798
G1 X90.875 Y96.314 E325.803
G1 X91.116 Y96.455 E325.816
G1 X91.746 Y95.826 E325.861
G1 X92.104 Y96.033 E325.882
G1 X91.473 Y96.664 E325.926
G1 X91.83 Y96.873 E325.947
G1 X92.462 Y96.24 E325.991
G1 X92.821 Y96.448 E326.012
G1 X92.187 Y97.082 E326.057
G1 X92.543 Y97.291 E326.077
G1 X93.179 Y96.655 E326.122
G1 X93.537 Y96.863 E326.143
G1 X92.9 Y97.5 E326.188
G1 X93.257 Y97.709 E326.208
G1 X93.895 Y97.07 E326.254
G1 X94.254 Y97.278 E326.274
G1 X93.614 Y97.918 E326.319
G1 X93.97 Y98.127 E326.34
G1 X94.612 Y97.485 E326.385
G1 X94.97 Y97.693 E326.406
G1 X94.743 Y97.92 E326.422
G1 F1800 E316.422
;rapid-dry
G1 F236
G0 X97.49 Y96.713
G1 F1800 E326.422
;bead-perimeter_inner
G1 X97.491 Y83.914 F780 E327.06
G1 X97.576 Y83.753 E327.07
G1 X98.599 Y82.286 E327.159
G1 X98.926 Y82.093 E327.178
G1 X99.016 Y95.815 E327.862
G1 X97.49 Y96.713 E327.951
;rapid-leaky
G1 F236
G0 X97.125 Y97.351
;bead-perimeter_outer
G1 X97.126 Y83.823 F540 E328.626
G1 X97.264 Y83.562 E328.64
G1 X98.345 Y82.011 E328.735
G1 X99.287 Y81.458 E328.789
G1 X99.382 Y96.023 E329.516
G1 X97.125 Y97.351 E329.646
;rapid-leaky
G1 F236
G0 X97.81 Y95.984
;bead-solid_infill
G1 X98.691 Y95.103 F1200 E329.709
G1 X98.688 Y94.541 E329.737
G1 X97.81 Y95.418 E329.799
G1 Y94.852 E329.827
G1 X98.684 Y93.979 E329.888
G1 X98.68 Y93.417 E329.917
G1 X97.81 Y94.287 E329.978
G1 Y93.721 E330.006
G1 X98.677 Y92.855 E330.067
G1 X98.673 Y92.293 E330.095
G1 X97.81 Y93.155 E330.156
G1 Y92.59 E330.184
G1 X98.669 Y91.731 E330.245
G1 X98.666 Y91.169 E330.273
G1 X97.81 Y92.024 E330.333
G1 Y91.458 E330.362
G1 X98.662 Y90.607 E330.422
G1 X98.658 Y90.045 E330.45
G1 X97.811 Y90.892 E330.509
G1 Y90.327 E330.538
G1 X98.655 Y89.483 E330.597
G1 X98.651 Y88.921 E330.625
G1 X97.811 Y89.761 E330.685
G1 Y89.195 E330.713
G1 X98.647 Y88.359 E330.772
G1 X98.644 Y87.797 E330.8
G1 X97.811 Y88.629 E330.859
G1 Y88.064 E330.887
G1 X98.64 Y87.235 E330.945
G1 X98.636 Y86.673 E330.973
G1 X97.811 Y87.498 E331.032
G1 Y86.932 E331.06
G1 X98.633 Y86.111 E331.118
G1 X98.629 Y85.549 E331.146
G1 X97.811 Y86.367 E331.204
G1 Y85.801 E331.232
G1 X98.625 Y84.986 E331.289
G1 X98.622 Y84.424 E331.317
G1 X97.811 Y85.235 E331.375
G1 Y84.669 E331.403
G1 X98.618 Y83.862 E331.46
G1 X98.614 Y83.3 E331.488
G1 X97.811 Y84.104 E331.544
G1 F1800 E321.544
;rapid-dry
G1 F236
G0 X94.262 Y71.251
G1 F1800 E331.544
;bead-support-structure
G1 X94.739 Y71.736 F2100 E331.578
G1 X94.575 Y71.07 E331.613
G1 F1800 E321.613
G1 F236
G0 X94.739 Y71.736
G0 X94.659 Y71.654
G0 X94.739 Y71.736
G0 X94.575 Y71.07
;rapid-dry
G1 F236
G0 X96.979 Y73.077
G1 F1800 E331.613
;bead-support-structure
G1 X96.32 Y72.895 F2100 E331.647
G1 X96.064 Y72.84 E331.66
G1 X95.389 Y72.811 E331.693
G1 X95.047 Y73.377 E331.726
G1 X94.954 Y73.633 E331.74
G1 X94.759 Y74.361 E331.778
G1 F1800 E321.778
G1 F236
G0 X94.954 Y73.633
G0 X94.969 Y73.59
G0 X94.954 Y73.633
G0 X94.759 Y74.361
;rapid-dry
G1 F236
G0 X98.793 Y106.401
G1 F1800 E331.778
;bead-support-structure
G1 X98.706 Y106.851 F2100 E331.8
G1 F1800 E321.8
G1 F236
G0 X98.793 Y106.401
G0 X98.706 Y106.851
;rapid-dry
G1 F236
G0 X100.024 Y108.197
G1 F1800 E331.8
;bead-support-structure
G1 X100.114 Y108.305 F2100 E331.807
G1 X101.096 Y108.085 E331.858
G1 X101.474 Y107.973 E331.877
G1 X102.238 Y107.69 E331.918
G1 F1800 E321.918
G1 F236
G0 X101.488 Y107.968
G0 X102.238 Y107.69
;rapid-dry
G1 F236
G0 X100.891 Y108.179
G1 F1800 E331.918
;bead-support-structure
G1 X101.825 Y107.843 F2100 E331.967
G1 X102.208 Y107.671 E331.988
G1 X102.561 Y107.482 E332.008
G1 X102.901 Y107.271 E332.028
G1 X103.229 Y107.034 E332.049
G1 X104.012 Y106.37 E332.1
G1 F1800 E322.1
G1 F236
G0 X103.402 Y106.887
G0 X104.012 Y106.37
;rapid-dry
G1 F236
G0 X104.413 Y105.501
G1 F1800 E332.1
;bead-support-structure
G1 X104.508 Y105.759 F2100 E332.114
G1 X103.83 Y106.5 E332.164
G1 X103.53 Y106.785 E332.184
G1 X103.224 Y107.038 E332.204
G1 X102.604 Y107.486 E332.242
G1 X113.125 Y116.445 E332.932
G1 X113.288 Y116.479 E332.94
G1 X113.424 Y116.934 E332.964
G1 X113.558 Y116.962 E332.971
G1 X113.144 Y119.721 E333.11
G1 X113.621 Y119.681 E333.134
G1 X112.878 Y120.182 E333.178
G1 X112.956 Y120.447 E333.192
G1 X113.077 Y120.238 E333.204
G1 X113.301 Y120.219 E333.215
G1 X112.493 Y120.848 E333.266
G1 X112.766 Y120.775 E333.28
G1 X112.999 Y120.756 E333.292
G1 X111.866 Y122.312 E333.388
G1 X111.708 Y122.566 E333.403
G1 X111.522 Y122.749 E333.416
G1 X111.286 Y122.886 E333.43
G1 X111.056 Y122.951 E333.442
G1 X110.753 Y122.963 E333.457
G1 X111.743 Y126.627 E333.646
G1 X113.603 E333.739
G1 X114.539 Y125.006 E333.832
G1 F1800 E323.832
G1 F236
G0 X114.139 Y125.699
G0 X114.539 Y125.006
;rapid-dry
G1 F236
G0 X107.592 Y122.769
G1 F1800 E333.832
;bead-support-structure
G1 X107.399 Y123.168 F2100 E333.854
G1 X107.048 Y125.137 E333.954
G1 X106.938 Y125.494 E333.973
G1 F1800 E323.973
G1 F236
G0 X107.048 Y125.137
G0 X107.123 Y124.717
G0 X107.048 Y125.137
G0 X106.938 Y125.494
;rapid-dry
G1 F236
G0 X92.608 Y135.291
G1 F1800 E333.973
;bead-perimeter_inner
G1 X82.665 Y141.05 F780 E334.546
G1 X91.279 Y146.038 E335.043
G1 X88.918 Y147.374 E335.178
G1 X78.716 Y141.466 E335.766
G1 X90.967 Y134.372 E336.472
G1 X92.608 Y135.291 E336.566
;rapid-leaky
G1 F236
G0 X93.345 Y135.286
;bead-perimeter_outer
G1 X83.393 Y141.05 F540 E337.14
G1 X92.013 Y146.042 E337.637
G1 X88.916 Y147.795 E337.815
G1 X77.987 Y141.466 E338.445
G1 X90.964 Y133.952 E339.193
G1 X93.345 Y135.286 E339.329
G1 F1800 E329.329
;rapid-dry
G1 F236
G0 X77.113 Y138.252
G1 F1800 E339.329
;bead-perimeter_inner
G1 Y140.538 F780 E339.443
G1 X69.956 Y136.394 E339.856
G1 X70.014 Y134.14 E339.968
G1 X77.113 Y138.252 E340.377
;rapid-leaky
G1 F236
G0 X77.478 Y138.041
;bead-perimeter_outer
G1 Y141.171 F540 E340.534
G1 X69.586 Y136.601 E340.988
G1 X69.664 Y133.516 E341.142
G1 X77.478 Y138.041 E341.593
;rapid-leaky
G1 F236
G0 X76.793 Y139.628
;bead-solid_infill
G1 X76.568 Y139.853 F1200 E341.609
G1 X76.21 Y139.646 E341.629
G1 X76.793 Y139.063 E341.671
G1 Y138.497 E341.699
G1 X75.852 Y139.438 E341.765
G1 X75.494 Y139.231 E341.786
G1 X76.473 Y138.251 E341.855
G1 X76.115 Y138.044 E341.876
G1 X75.135 Y139.023 E341.945
G1 X74.777 Y138.816 E341.965
G1 X75.757 Y137.836 E342.035
G1 X75.399 Y137.629 E342.055
G1 X74.419 Y138.608 E342.124
G1 X74.061 Y138.401 E342.145
G1 X75.04 Y137.421 E342.214
G1 X74.682 Y137.214 E342.235
G1 X73.702 Y138.194 E342.304
G1 X73.344 Y137.986 E342.324
G1 X74.324 Y137.006 E342.394
G1 X73.966 Y136.799 E342.414
G1 X72.986 Y137.779 E342.483
G1 X72.628 Y137.571 E342.504
G1 X73.608 Y136.591 E342.573
G1 X73.249 Y136.384 E342.594
G1 X72.269 Y137.364 E342.663
G1 X71.911 Y137.156 E342.684
G1 X72.891 Y136.176 E342.753
G1 X72.533 Y135.969 E342.773
G1 X71.553 Y136.949 E342.843
G1 X71.195 Y136.741 E342.863
G1 X72.175 Y135.762 E342.932
G1 X71.816 Y135.554 E342.953
G1 X70.837 Y136.534 E343.022
G1 X70.478 Y136.327 E343.043
G1 X71.458 Y135.347 E343.112
G1 X71.1 Y135.139 E343.133
G1 X70.288 Y135.951 E343.19
G1 X70.302 Y135.371 E343.219
G1 X70.742 Y134.932 E343.25
G1 X70.383 Y134.724 E343.27
G1 X70.317 Y134.791 E343.275
G1 F1800 E333.275
;rapid-dry
G1 F236
G0 X68.368 Y132.283
G1 F1800 E343.275
;bead-support-structure
G1 X68.341 Y136.691 F2100 E343.495
G1 F1800 E333.495
G1 F236
G0 X68.346 Y135.891
G0 X68.341 Y136.691
;rapid-dry
G1 F236
G0 X75.544 Y146.055
G1 F1800 E343.495
;bead-support-structure
G1 X75.704 Y146.537 F2100 E343.52
G1 X75.81 Y146.785 E343.534
G1 X76.255 Y147.458 E343.574
G1 X76.432 Y147.289 E343.586
G1 X77.083 Y147.175 E343.619
G1 F1800 E333.619
G1 F236
G0 X76.432 Y147.289
G0 X76.332 Y147.385
G0 X76.432 Y147.289
G0 X77.083 Y147.175
;rapid-dry
G1 F236
G0 X74.996 Y148.838
G1 F1800 E343.619
;bead-support-structure
G1 X75.437 Y148.37 F2100 E343.651
G1 X75.289 Y149.008 E343.684
G1 X76.323 Y149.279 E343.737
G1 X76.374 Y147.8 E343.811
G1 X77.384 Y147.304 E343.867
G1 X77.742 Y147.108 E343.888
G1 F1800 E333.888
G1 F236
G0 X77.384 Y147.304
G0 X77.032 Y147.477
G0 X77.384 Y147.304
G0 X77.742 Y147.108
;rapid-dry
G1 F236
G0 X79.655 Y141.292
G1 F1800 E343.888
;bead-solid_infill
G1 X79.434 Y141.513 F1200 E343.903
G1 X79.793 Y141.72 E343.924
G1 X80.999 Y140.514 E344.009
G1 X82.343 Y139.736 E344.087
G1 X80.151 Y141.927 E344.241
G1 X80.509 Y142.135 E344.262
G1 X83.687 Y138.957 E344.486
G1 X85.03 Y138.179 E344.564
G1 X82.343 Y140.866 E344.753
G1 X82.026 Y141.05 E344.771
G1 X82.111 Y141.099 E344.776
G1 X80.867 Y142.342 E344.864
G1 X81.226 Y142.55 E344.885
G1 X82.469 Y141.306 E344.972
G1 X82.827 Y141.514 E344.993
G1 X81.584 Y142.757 E345.081
G1 X81.874 Y142.925 E345.097
G1 X81.942 Y142.965 E345.101
G1 X83.185 Y141.721 E345.189
G1 X83.544 Y141.929 E345.21
G1 X82.3 Y143.172 E345.298
G1 X82.659 Y143.38 E345.318
G1 X83.902 Y142.136 E345.406
G1 X84.26 Y142.344 E345.427
G1 X83.017 Y143.587 E345.514
G1 X83.375 Y143.794 E345.535
G1 X84.618 Y142.551 E345.623
G1 X84.977 Y142.759 E345.643
G1 X83.733 Y144.002 E345.731
G1 X84.092 Y144.209 E345.752
G1 X85.335 Y142.966 E345.839
G1 X85.693 Y143.174 E345.86
G1 X84.45 Y144.417 E345.948
G1 X84.808 Y144.624 E345.968
G1 X86.051 Y143.381 E346.056
G1 X86.41 Y143.588 E346.077
G1 X85.166 Y144.832 E346.164
G1 X85.525 Y145.039 E346.185
G1 X86.768 Y143.796 E346.273
G1 X87.126 Y144.003 E346.293
G1 X85.883 Y145.247 E346.381
G1 X86.241 Y145.454 E346.402
G1 X87.484 Y144.211 E346.49
G1 X87.842 Y144.418 E346.51
G1 X86.599 Y145.661 E346.598
G1 X86.958 Y145.869 E346.619
G1 X88.201 Y144.626 E346.706
G1 X88.559 Y144.833 E346.727
G1 X87.316 Y146.076 E346.815
G1 X87.674 Y146.284 E346.835
G1 X88.917 Y145.041 E346.923
G1 X89.275 Y145.248 E346.944
G1 X88.032 Y146.491 E347.031
G1 X88.39 Y146.699 E347.052
G1 X89.634 Y145.455 E347.14
G1 X89.992 Y145.663 E347.16
G1 X88.749 Y146.906 E347.248
G1 X88.92 Y147.005 E347.258
G1 X89.6 Y146.621 E347.297
G1 X90.35 Y145.87 E347.35
G1 F1800 E337.35
;rapid-dry
G1 F236
G0 X83.688 Y140.088
G1 F1800 E347.35
;bead-solid_infill
G1 X86.374 Y137.401 F1200 E347.539
G1 X87.718 Y136.623 E347.617
G1 X85.032 Y139.309 E347.806
G1 X86.376 Y138.531 E347.884
G1 X89.062 Y135.845 E348.073
G1 X90.405 Y135.067 E348.151
G1 X87.721 Y137.752 E348.34
G1 X89.065 Y136.973 E348.418
G1 X91.18 Y134.858 E348.567
G1 X91.485 Y135.029 E348.584
G1 X91.542 Y135.061 E348.588
G1 X90.409 Y136.195 E348.668
G1 X91.753 Y135.416 E348.745
G1 X91.905 Y135.265 E348.756
G1 F1800 E338.756
;rapid-dry
G1 F236
G0 X131.334 Y112.869
G1 F1800 E348.756
;bead-perimeter_inner
G1 X131.342 Y110.994 F780 E348.85
G1 X143.942 Y103.698 E349.576
G1 X143.941 Y115.987 E350.189
G1 X141.595 Y117.329 E350.324
G1 Y106.927 E350.843
G1 X131.334 Y112.869 E351.434
;rapid-leaky
G1 F236
G0 X130.966 Y113.504
;bead-perimeter_outer
G1 X130.978 Y110.783 F540 E351.57
G1 X144.307 Y103.065 E352.338
G1 X144.306 Y116.199 E352.994
G1 X141.23 Y117.958 E353.171
G1 Y107.559 E353.689
G1 X130.966 Y113.504 E354.281
G1 F1800 E344.281
;rapid-dry
G1 F236
G0 X141.957 Y101.028
G1 F1800 E354.281
;bead-perimeter_inner
G1 X141.956 Y91.807 F780 E354.741
G1 X143.942 Y92.924 E354.855
G1 Y102.178 E355.316
G1 X141.957 Y101.028 E355.431
;rapid-leaky
G1 F236
G0 X141.592 Y101.239
;bead-perimeter_outer
G1 X141.591 Y91.183 F540 E355.933
G1 X144.307 Y92.71 E356.088
G1 Y102.811 E356.592
G1 X141.592 Y101.239 E356.749
;rapid-leaky
G1 F236
G0 X143.281 Y101.425
;bead-solid_infill
G1 X143.622 Y101.084 F1200 E356.773
G1 Y100.518 E356.801
G1 X142.922 Y101.218 E356.85
G1 X142.564 Y101.01 E356.871
G1 X143.622 Y99.953 E356.945
G1 Y99.387 E356.974
G1 X142.277 Y100.732 E357.068
G1 Y100.166 E357.097
G1 X143.622 Y98.821 E357.192
G1 Y98.256 E357.22
G1 X142.277 Y99.6 E357.315
G1 Y99.035 E357.343
G1 X143.622 Y97.69 E357.438
G1 Y97.124 E357.466
G1 X142.277 Y98.469 E357.561
G1 Y97.904 E357.589
G1 X143.622 Y96.558 E357.684
G1 Y95.993 E357.712
G1 X142.277 Y97.338 E357.807
G1 Y96.772 E357.835
G1 X143.622 Y95.427 E357.93
G1 Y94.861 E357.959
G1 X142.277 Y96.207 E358.053
G1 X142.276 Y95.641 E358.082
G1 X143.622 Y94.296 E358.177
G1 Y93.73 E358.205
G1 X142.276 Y95.075 E358.3
G1 Y94.51 E358.328
G1 X143.622 Y93.164 E358.423
G1 Y93.111 E358.426
G1 X143.294 Y92.926 E358.444
G1 X142.276 Y93.944 E358.516
G1 Y93.379 E358.544
G1 X142.932 Y92.723 E358.591
G1 X142.57 Y92.519 E358.611
G1 X142.276 Y92.813 E358.632
G1 F1800 E348.632
;rapid-dry
G1 F236
G0 X149.176 Y103.139
G1 F1800 E358.632
;bead-support-structure
G1 X149.798 Y103.745 F2100 E358.675
G1 X150.316 Y104.412 E358.718
G1 X149.845 Y105.103 E358.759
G1 X149.179 Y105.743 E358.805
G1 F1800 E348.805
G1 F236
G0 X149.755 Y105.188
G0 X149.179 Y105.743
;rapid-dry
G1 F236
G0 X152.086 Y104.062
G1 F1800 E358.805
;bead-support-structure
G1 X150.973 Y104.444 F2100 E358.864
G1 X152.086 Y104.787 E358.922
G1 F1800 E348.922
G1 F236
