;1001
;Printer name: Creality Ender 3 V2
;Print time: 30m:52s
;Extruder 1 material used: 1211mm
;Extruder 1 material name: PVA 1.75mm
;Extruder 1 filament diameter: 1.75mm
;Extruder 1 nozzle diameter: 0.4mm
;Extruder 1 offset x: 0mm
;Extruder 1 offset y: 0mm
;Extruder 1 offset z: 0mm
;Extruder 1 max temp: 220
;Bed temp: 60
;Layer count: 53
;Width: 220mm
;Depth: 220mm
;Height: 250mm
;Center x: 110mm
;Center y: 110mm
;Center z: 0mm
;Count of bodies: 1
;Fusion version: 2.0.10148
;--------------------------------
;Selected Profile: PVA 1.75mm, 0.4mm Nozzle
;Selected Printer: Creality, Ender 3 V2
;--------------------------------
T0
M140 S60
M190 S60
M104 S220 T0
M105
M109 S220 T0
G1 F236
G21
G90
M82
;Reset multiplier
M220 S100
M221 S100
;Enable auto bed leveling
M420 S1 Z2
G28
G1 Z10
G92 E0
G0 X10 Y10 Z10
G92 E0
;--------------------------------
;Layer : 1 of 53
M107
;rapid-leaky
G0 X20 Y20.8 Z0.3
G1 F1800 E10
;bead-prime
G1 X200 F270 E45.921
G1 F1800 E35.921
;rapid-dry
G1 F236
G0 X124.016 Y87.881
G1 F1800 E45.921
;bead-skirt/brim
G1 Y107.887 F780 E46.919
G1 X135.482 Y119.353 E47.728
G1 X142.875 Y111.96 E48.25
G1 X150.254 Y119.339 E48.77
G1 X148.081 Y121.512 E48.924
G1 X148.993 Y122.424 E48.988
G1 X140.573 Y130.843 E49.582
G1 X139.661 Y129.931 E49.646
G1 X135.899 Y133.693 E49.912
G1 X113.669 Y111.463 E51.48
G1 X111.327 Y103.502 E51.894
G1 X114.447 E52.05
G1 Y97.64 E52.342
G1 X105.664 E52.781
G1 Y103.502 E53.073
G1 X108.785 E53.229
G1 X106.44 Y111.474 E53.643
G1 X84.084 Y133.565 E55.211
G1 X80.396 Y129.877 E55.471
G1 X79.483 Y130.789 E55.536
G1 X71.064 Y122.368 E56.13
G1 X71.976 Y121.456 E56.194
G1 X69.745 Y119.225 E56.352
G1 X77.126 Y111.849 E56.872
G1 X84.63 Y119.353 E57.402
G1 X96.096 Y107.887 E58.211
G1 Y87.881 E59.209
G1 X124.016 E60.602
;rapid-leaky
G1 F236
G0 X123.616 Y88.281
;bead-skirt/brim
G1 Y108.053 F780 E61.588
G1 X135.482 Y119.919 E62.425
G1 X142.875 Y112.526 E62.947
G1 X149.688 Y119.339 E63.428
G1 X147.515 Y121.512 E63.581
G1 X148.428 Y122.424 E63.645
G1 X140.573 Y130.278 E64.2
G1 X139.661 Y129.366 E64.264
G1 X135.899 Y133.127 E64.529
G1 X114.024 Y111.252 E66.073
G1 X111.862 Y103.902 E66.455
G1 X114.847 E66.604
G1 Y97.24 E66.936
G1 X105.264 E67.414
G1 Y103.902 E67.747
G1 X108.25 E67.896
G1 X106.085 Y111.262 E68.278
G1 X84.086 Y133.001 E69.821
G1 X80.396 Y129.311 E70.082
G1 X79.483 Y130.223 E70.146
G1 X71.63 Y122.368 E70.7
G1 X72.542 Y121.456 E70.765
G1 X70.311 Y119.225 E70.922
G1 X77.126 Y112.414 E71.403
G1 X84.63 Y119.919 E71.932
G1 X96.496 Y108.053 E72.769
G1 Y88.281 E73.756
G1 X123.616 E75.109
;rapid-leaky
G1 F236
G0 X123.216 Y88.681
;bead-skirt/brim
G1 Y108.218 F780 E76.084
G1 X135.482 Y120.484 E76.949
G1 X142.875 Y113.091 E77.471
G1 X149.123 Y119.339 E77.911
G1 X146.95 Y121.512 E78.065
G1 X147.862 Y122.424 E78.129
G1 X140.573 Y129.712 E78.643
G1 X139.661 Y128.8 E78.708
G1 X135.899 Y132.561 E78.973
G1 X114.379 Y111.041 E80.492
G1 X112.397 Y104.302 E80.842
G1 X115.247 E80.984
G1 Y96.84 E81.356
G1 X104.864 E81.874
G1 Y104.302 E82.247
G1 X107.715 E82.389
G1 X105.731 Y111.051 E82.74
G1 X84.087 Y132.437 E84.258
G1 X80.396 Y128.745 E84.518
G1 X79.483 Y129.657 E84.583
G1 X72.195 Y122.368 E85.097
G1 X73.108 Y121.456 E85.161
G1 X70.877 Y119.225 E85.319
G1 X77.126 Y112.98 E85.76
G1 X84.63 Y120.484 E86.289
G1 X96.896 Y108.218 E87.155
G1 Y88.681 E88.129
G1 X123.216 E89.442
;rapid-leaky
G1 F236
G0 X122.816 Y89.081
;bead-skirt/brim
G1 Y108.384 F780 E90.405
G1 X135.482 Y121.05 E91.299
G1 X142.875 Y113.657 E91.821
G1 X148.557 Y119.339 E92.222
G1 X146.384 Y121.512 E92.375
G1 X147.296 Y122.424 E92.439
G1 X140.573 Y129.146 E92.914
G1 X139.661 Y128.234 E92.978
G1 X135.899 Y131.996 E93.243
G1 X114.734 Y110.831 E94.737
G1 X112.931 Y104.702 E95.055
G1 X115.647 E95.191
G1 Y96.44 E95.603
G1 X104.464 E96.161
G1 Y104.702 E96.573
G1 X107.181 E96.709
G1 X105.376 Y110.839 E97.028
G1 X84.089 Y131.873 E98.521
G1 X80.396 Y128.179 E98.781
G1 X79.483 Y129.092 E98.846
G1 X72.761 Y122.368 E99.32
G1 X73.673 Y121.456 E99.384
G1 X71.443 Y119.225 E99.542
G1 X77.125 Y113.546 E99.943
G1 X84.63 Y121.05 E100.472
G1 X97.296 Y108.384 E101.366
G1 Y89.081 E102.329
G1 X122.816 E103.602
;rapid-leaky
G1 F236
G0 X122.416 Y89.481
;bead-skirt/brim
G1 Y108.55 F780 E104.553
G1 X135.482 Y121.616 E105.475
G1 X142.875 Y114.223 E105.997
G1 X147.991 Y119.339 E106.358
G1 X145.818 Y121.512 E106.511
G1 X146.73 Y122.424 E106.576
G1 X140.573 Y128.581 E107.01
G1 X139.661 Y127.669 E107.074
G1 X135.899 Y131.43 E107.34
G1 X115.089 Y110.62 E108.808
G1 X113.466 Y105.102 E109.095
G1 X116.047 E109.224
G1 Y96.04 E109.676
G1 X104.064 E110.274
G1 Y105.102 E110.726
G1 X106.646 E110.855
G1 X105.021 Y110.627 E111.142
G1 X84.091 Y131.309 E112.61
G1 X80.396 Y127.614 E112.871
G1 X79.483 Y128.526 E112.935
G1 X73.327 Y122.368 E113.369
G1 X74.239 Y121.456 E113.434
G1 X72.008 Y119.226 E113.591
G1 X77.125 Y114.111 E113.952
G1 X84.63 Y121.616 E114.482
G1 X97.696 Y108.55 E115.404
G1 Y89.481 E116.355
G1 X122.416 E117.588
;rapid-leaky
G1 F236
G0 X122.016 Y89.881
;bead-skirt/brim
G1 Y108.715 F780 E118.528
G1 X135.482 Y122.181 E119.478
G1 X142.875 Y114.788 E120
G1 X147.426 Y119.339 E120.321
G1 X145.252 Y121.512 E120.474
G1 X146.165 Y122.424 E120.538
G1 X140.573 Y128.015 E120.933
G1 X139.661 Y127.103 E120.997
G1 X135.899 Y130.864 E121.263
G1 X115.444 Y110.409 E122.706
G1 X114 Y105.502 E122.961
G1 X116.447 E123.083
G1 Y95.64 E123.575
G1 X103.664 E124.213
G1 Y105.502 E124.705
G1 X106.112 E124.827
G1 X104.667 Y110.415 E125.082
G1 X84.092 Y130.745 E126.525
G1 X80.396 Y127.048 E126.786
G1 X79.483 Y127.96 E126.851
G1 X73.892 Y122.368 E127.245
G1 X74.805 Y121.456 E127.31
G1 X72.574 Y119.226 E127.467
G1 X77.125 Y114.677 E127.788
G1 X84.63 Y122.181 E128.317
G1 X98.096 Y108.715 E129.268
G1 Y89.881 E130.207
G1 X122.016 E131.401
;rapid-leaky
G1 F236
G0 X121.616 Y90.281
;bead-skirt/brim
G1 Y108.881 F780 E132.329
G1 X135.482 Y122.747 E133.307
G1 X142.875 Y115.354 E133.828
G1 X146.86 Y119.339 E134.11
G1 X144.687 Y121.512 E134.263
G1 X145.599 Y122.424 E134.327
G1 X140.573 Y127.45 E134.682
G1 X139.661 Y126.538 E134.746
G1 X135.899 Y130.299 E135.012
G1 X115.799 Y110.199 E136.43
G1 X114.535 Y105.902 E136.653
G1 X116.847 E136.769
G1 Y95.24 E137.301
G1 X103.264 E137.978
G1 Y105.902 E138.51
G1 X105.577 E138.626
G1 X104.312 Y110.203 E138.849
G1 X84.094 Y130.181 E140.267
G1 X80.396 Y126.482 E140.528
G1 X79.484 Y127.395 E140.593
G1 X74.458 Y122.368 E140.947
G1 X75.37 Y121.456 E141.012
G1 X73.14 Y119.226 E141.169
G1 X77.125 Y115.242 E141.45
G1 X84.63 Y122.747 E141.979
G1 X98.496 Y108.881 E142.958
G1 Y90.281 E143.886
G1 X121.616 E145.039
;rapid-leaky
G1 F236
G0 X121.216 Y90.681
;bead-skirt/brim
G1 Y109.047 F780 E145.956
G1 X135.482 Y123.313 E146.962
G1 X142.875 Y115.92 E147.484
G1 X146.294 Y119.339 E147.725
G1 X144.121 Y121.512 E147.878
G1 X145.033 Y122.424 E147.943
G1 X140.573 Y126.884 E148.257
G1 X139.661 Y125.972 E148.322
G1 X135.899 Y129.733 E148.587
G1 X116.154 Y109.988 E149.98
G1 X115.07 Y106.302 E150.172
G1 X117.247 E150.28
G1 Y94.84 E150.852
G1 X102.864 E151.57
G1 Y106.302 E152.142
G1 X105.042 E152.25
G1 X103.958 Y109.991 E152.442
G1 X84.096 Y129.617 E153.835
G1 X80.396 Y125.917 E154.096
G1 X79.484 Y126.829 E154.161
G1 X75.024 Y122.368 E154.475
G1 X75.936 Y121.456 E154.54
G1 X73.706 Y119.226 E154.697
G1 X77.125 Y115.808 E154.938
G1 X84.63 Y123.313 E155.468
G1 X98.896 Y109.047 E156.474
G1 Y90.681 E157.391
G1 X121.216 E158.504
;rapid-leaky
G1 F236
G0 X120.816 Y91.081
;bead-skirt/brim
G1 Y109.212 F780 E159.409
G1 X135.482 Y123.878 E160.444
G1 X142.875 Y116.485 E160.965
G1 X145.729 Y119.339 E161.167
G1 X143.555 Y121.512 E161.32
G1 X144.467 Y122.424 E161.384
G1 X140.573 Y126.318 E161.659
G1 X139.661 Y125.406 E161.723
G1 X135.899 Y129.167 E161.989
G1 X116.509 Y109.777 E163.357
G1 X115.604 Y106.702 E163.517
G1 X117.647 E163.619
G1 Y94.44 E164.23
G1 X102.464 E164.988
G1 Y106.702 E165.6
G1 X104.508 E165.702
G1 X103.603 Y109.779 E165.862
G1 X84.097 Y129.053 E167.23
G1 X80.396 Y125.351 E167.491
G1 X79.484 Y126.263 E167.555
G1 X75.589 Y122.369 E167.83
G1 X76.502 Y121.456 E167.894
G1 X74.271 Y119.226 E168.052
G1 X77.125 Y116.374 E168.253
G1 X84.63 Y123.878 E168.783
G1 X99.296 Y109.212 E169.817
G1 Y91.081 E170.722
G1 X120.816 E171.796
;rapid-leaky
G1 F236
G0 X120.416 Y91.481
;bead-skirt/brim
G1 Y109.378 F780 E172.688
G1 X135.482 Y124.444 E173.751
G1 X142.875 Y117.051 E174.273
G1 X145.163 Y119.339 E174.434
G1 X135.899 Y128.602 E175.088
G1 X116.864 Y109.566 E176.431
G1 X116.139 Y107.102 E176.559
G1 X118.047 E176.654
G1 Y94.04 E177.306
G1 X102.064 E178.104
G1 Y107.102 E178.755
G1 X103.973 E178.85
G1 X103.248 Y109.567 E178.979
G1 X84.099 Y128.489 E180.322
G1 X74.837 Y119.226 E180.975
G1 X77.125 Y116.939 E181.137
G1 X84.63 Y124.444 E181.666
G1 X99.696 Y109.378 E182.729
G1 Y91.481 E183.622
G1 X120.416 E184.656
;rapid-leaky
G1 F236
G0 X143.163 Y121.686
;bead-skirt/brim
G1 X143.902 Y122.424 F780 E184.708
G1 X140.573 Y125.753 E184.943
G1 X139.834 Y125.014 E184.995
G1 X140.933 Y123.915 E185.072
G1 X143.163 Y121.686 E185.23
;rapid-leaky
G1 F236
G0 X80.222 Y124.959
;bead-skirt/brim
G1 X79.484 Y125.698 F780 E185.282
G1 X76.155 Y122.369 E185.517
G1 X76.894 Y121.63 E185.569
G1 X77.526 Y122.262 E185.613
G1 X80.222 Y124.959 E185.804
G1 F1800 E175.804
;rapid-dry
G1 F236
G0 X84.63 Y125.526
G1 F1800 E185.804
;bead-perimeter_inner
G1 X100.461 Y109.695 F780 E186.921
G1 Y92.246 E187.791
G1 X119.651 E188.749
G1 Y109.695 E189.619
G1 X135.482 Y125.526 E190.736
G1 X142.875 Y118.133 E191.258
G1 X144.081 Y119.339 E191.343
G1 X135.899 Y127.52 E191.92
G1 X117.542 Y109.163 E193.215
G1 X117.161 Y107.867 E193.283
G1 X118.812 E193.365
G1 Y93.275 E194.093
G1 X101.299 E194.967
G1 Y107.867 E195.695
G1 X102.951 E195.777
G1 X102.57 Y109.162 E195.844
G1 X84.102 Y127.41 E197.14
G1 X75.919 Y119.226 E197.717
G1 X77.125 Y118.021 E197.802
G1 X84.63 Y125.526 E198.332
;rapid-leaky
G1 F236
G0 Y125.01
;bead-perimeter_outer
G1 X100.096 Y109.544 F540 E199.423
G1 Y91.881 E200.304
G1 X120.016 E201.298
G1 Y109.544 E202.179
G1 X135.482 Y125.01 E203.27
G1 X142.875 Y117.617 E203.792
G1 X144.597 Y119.339 E203.913
G1 X135.899 Y128.036 E204.527
G1 X117.218 Y109.356 E205.845
G1 X116.673 Y107.502 E205.942
G1 X118.447 E206.03
G1 Y93.64 E206.722
G1 X101.664 E207.559
G1 Y107.502 E208.25
G1 X103.439 E208.339
G1 X102.894 Y109.355 E208.435
G1 X84.101 Y127.925 E209.753
G1 X75.403 Y119.226 E210.367
G1 X77.125 Y117.505 E210.489
G1 X84.63 Y125.01 E211.018
G1 F1800 E201.018
;rapid-dry
G1 F236
G0 X76.567 Y119.421
G1 F1800 E211.018
;bead-solid_infill
G1 X77.32 Y118.668 F1200 E211.071
G1 X77.603 Y118.951 E211.091
G1 X76.85 Y119.704 E211.144
G1 X77.132 Y119.987 E211.164
G1 X77.885 Y119.234 E211.217
G1 X78.168 Y119.517 E211.237
G1 X77.415 Y120.27 E211.291
G1 X77.698 Y120.553 E211.311
G1 X78.451 Y119.8 E211.364
G1 X78.734 Y120.082 E211.384
G1 X77.981 Y120.836 E211.437
G1 X78.264 Y121.118 E211.457
G1 X79.017 Y120.365 E211.51
G1 X79.3 Y120.648 E211.53
G1 X78.547 Y121.401 E211.583
G1 X78.829 Y121.684 E211.603
G1 X79.582 Y120.931 E211.656
G1 X79.865 Y121.214 E211.676
G1 X79.112 Y121.967 E211.729
G1 X79.395 Y122.25 E211.749
G1 X80.148 Y121.497 E211.802
G1 X80.431 Y121.78 E211.822
G1 X79.678 Y122.533 E211.875
G1 X79.961 Y122.816 E211.895
G1 X80.714 Y122.062 E211.948
G1 X80.736 Y122.085 E211.95
G1 X80.997 Y122.345 E211.968
G1 X80.243 Y123.098 E212.021
G1 X80.526 Y123.381 E212.041
G1 X81.279 Y122.628 E212.095
G1 X81.562 Y122.911 E212.115
G1 X80.809 Y123.664 E212.168
G1 X81.092 Y123.947 E212.188
G1 X81.845 Y123.194 E212.241
G1 X82.128 Y123.477 E212.261
G1 X81.375 Y124.23 E212.314
G1 X81.658 Y124.513 E212.334
G1 X82.411 Y123.759 E212.387
G1 X82.694 Y124.042 E212.407
G1 X81.94 Y124.796 E212.46
G1 X82.223 Y125.078 E212.48
G1 X82.977 Y124.325 E212.533
G1 X83.259 Y124.608 E212.553
G1 X82.506 Y125.361 E212.606
G1 X82.789 Y125.644 E212.626
G1 X83.542 Y124.891 E212.679
G1 X83.825 Y125.174 E212.699
G1 X83.072 Y125.927 E212.753
G1 X83.355 Y126.21 E212.772
G1 X84.108 Y125.456 E212.826
G1 X84.391 Y125.739 E212.846
G1 X83.637 Y126.493 E212.899
G1 X83.92 Y126.776 E212.919
G1 X102.509 Y108.187 E214.23
G1 X101.943 E214.258
G1 X100.781 Y109.349 E214.34
G1 Y108.783 E214.369
G1 X101.377 Y108.187 E214.411
G1 X100.979 E214.431
G1 Y108.02 E214.439
G1 X100.781 Y108.218 E214.453
G1 Y107.652 E214.481
G1 X100.979 Y107.454 E214.495
G1 Y106.888 E214.523
G1 X100.781 Y107.086 E214.537
G1 Y106.521 E214.566
G1 X100.979 Y106.323 E214.579
G1 Y105.757 E214.608
G1 X100.781 Y105.955 E214.622
G1 Y105.389 E214.65
G1 X100.979 Y105.191 E214.664
G1 Y104.626 E214.692
G1 X100.781 Y104.824 E214.706
G1 Y104.258 E214.734
G1 X100.979 Y104.06 E214.748
G1 Y103.494 E214.776
G1 X100.781 Y103.692 E214.79
G1 Y103.127 E214.819
G1 X100.979 Y102.929 E214.833
G1 Y102.363 E214.861
G1 X100.781 Y102.561 E214.875
G1 Y101.995 E214.903
G1 X100.979 Y101.797 E214.917
G1 Y101.231 E214.945
G1 X100.781 Y101.429 E214.959
G1 Y100.864 E214.987
G1 X100.979 Y100.666 E215.001
G1 Y100.1 E215.03
G1 X100.781 Y100.298 E215.044
G1 Y99.732 E215.072
G1 X100.979 Y99.534 E215.086
G1 Y98.969 E215.114
G1 X100.781 Y99.167 E215.128
G1 Y98.601 E215.156
G1 X100.979 Y98.403 E215.17
G1 Y97.837 E215.198
G1 X100.781 Y98.035 E215.212
G1 Y97.47 E215.241
G1 X100.979 Y97.272 E215.255
G1 Y96.706 E215.283
G1 X100.781 Y96.904 E215.297
G1 Y96.338 E215.325
G1 X100.979 Y96.14 E215.339
G1 Y95.575 E215.367
G1 X100.781 Y95.773 E215.381
G1 Y95.207 E215.409
G1 X100.979 Y95.009 E215.423
G1 Y94.443 E215.452
G1 X100.781 Y94.641 E215.466
G1 Y94.076 E215.494
G1 X100.979 Y93.878 E215.508
G1 F1800 E205.508
;rapid-dry
G1 F236
G0 X101.159 Y92.566
G1 F1800 E215.508
;bead-solid_infill
G1 X100.781 Y92.944 F1200 E215.534
G1 Y93.51 E215.563
G1 X100.979 Y93.312 E215.577
G1 Y92.955 E215.594
G1 X101.336 E215.612
G1 X101.725 Y92.566 E215.64
G1 X102.291 E215.668
G1 X101.902 Y92.955 E215.695
G1 X102.467 E215.724
G1 X102.856 Y92.566 E215.751
G1 X103.422 E215.779
G1 X103.033 Y92.955 E215.807
G1 X103.599 E215.835
G1 X103.988 Y92.566 E215.862
G1 X104.553 E215.891
G1 X104.164 Y92.955 E215.918
G1 X104.73 E215.946
G1 X105.119 Y92.566 E215.974
G1 X105.685 E216.002
G1 X105.296 Y92.955 E216.029
G1 X105.861 E216.058
G1 X106.25 Y92.566 E216.085
G1 X106.816 E216.113
G1 X106.427 Y92.955 E216.141
G1 X106.993 E216.169
G1 X107.382 Y92.566 E216.196
G1 X107.947 E216.225
G1 X107.558 Y92.955 E216.252
G1 X108.124 E216.28
G1 X108.513 Y92.566 E216.308
G1 X109.079 E216.336
G1 X108.69 Y92.955 E216.363
G1 X109.255 E216.392
G1 X109.644 Y92.566 E216.419
G1 X110.21 E216.447
G1 X109.821 Y92.955 E216.475
G1 X110.387 E216.503
G1 X110.776 Y92.566 E216.53
G1 X111.342 E216.559
G1 X110.953 Y92.955 E216.586
G1 X111.518 E216.614
G1 X111.907 Y92.566 E216.642
G1 X112.473 E216.67
G1 X112.084 Y92.955 E216.697
G1 X112.65 E216.726
G1 X113.039 Y92.566 E216.753
G1 X113.604 E216.781
G1 X113.215 Y92.955 E216.809
G1 X113.781 E216.837
G1 X114.17 Y92.566 E216.864
G1 X114.736 E216.893
G1 X114.347 Y92.955 E216.92
G1 X114.912 E216.948
G1 X115.301 Y92.566 E216.976
G1 X115.867 E217.004
G1 X115.478 Y92.955 E217.031
G1 X116.044 E217.06
G1 X116.433 Y92.566 E217.087
G1 X116.998 E217.115
G1 X116.609 Y92.955 E217.143
G1 X117.175 E217.171
G1 X117.564 Y92.566 E217.198
G1 X118.13 E217.227
G1 X117.741 Y92.955 E217.254
G1 X118.306 E217.282
G1 X118.695 Y92.566 E217.31
G1 X119.261 E217.338
G1 X118.872 Y92.955 E217.365
G1 X119.132 E217.378
G1 Y93.261 E217.394
G1 X119.331 Y93.062 E217.408
G1 Y93.627 E217.436
G1 X119.132 Y93.826 E217.45
G1 Y94.392 E217.478
G1 X119.331 Y94.193 E217.492
G1 Y94.759 E217.52
G1 X119.132 Y94.958 E217.534
G1 Y95.524 E217.563
G1 X119.331 Y95.325 E217.577
G1 Y95.89 E217.605
G1 X119.132 Y96.089 E217.619
G1 Y96.655 E217.647
G1 X119.331 Y96.456 E217.661
G1 Y97.022 E217.689
G1 X119.132 Y97.221 E217.703
G1 Y97.786 E217.732
G1 X119.331 Y97.587 E217.746
G1 Y98.153 E217.774
G1 X119.132 Y98.352 E217.788
G1 Y98.918 E217.816
G1 X119.331 Y98.719 E217.83
G1 Y99.284 E217.858
G1 X119.132 Y99.483 E217.873
G1 Y100.049 E217.901
G1 X119.331 Y99.85 E217.915
G1 Y100.416 E217.943
G1 X119.132 Y100.615 E217.957
G1 Y101.18 E217.985
G1 X119.331 Y100.981 E217.999
G1 Y101.547 E218.028
G1 X119.132 Y101.746 E218.042
G1 Y102.312 E218.07
G1 X119.331 Y102.113 E218.084
G1 Y102.678 E218.112
G1 X119.132 Y102.877 E218.126
G1 Y103.443 E218.154
G1 X119.331 Y103.244 E218.168
G1 Y103.81 E218.197
G1 X119.132 Y104.009 E218.211
G1 Y104.575 E218.239
G1 X119.331 Y104.376 E218.253
G1 Y104.941 E218.281
G1 X119.132 Y105.14 E218.295
G1 Y105.706 E218.323
G1 X119.331 Y105.507 E218.337
G1 Y106.073 E218.366
G1 X119.132 Y106.272 E218.38
G1 Y106.837 E218.408
G1 X119.331 Y106.638 E218.422
G1 Y107.204 E218.45
G1 X119.132 Y107.403 E218.464
G1 Y107.969 E218.492
G1 X119.331 Y107.77 E218.506
G1 Y108.335 E218.535
G1 X118.249 Y109.417 E218.611
G1 X118.532 Y109.7 E218.631
G1 X119.331 Y108.901 E218.687
G1 Y109.467 E218.716
G1 X118.815 Y109.983 E218.752
G1 X119.097 Y110.266 E218.772
G1 X119.433 Y109.93 E218.796
G1 X119.716 Y110.213 E218.816
G1 X119.38 Y110.549 E218.839
G1 X119.663 Y110.832 E218.859
G1 X119.999 Y110.496 E218.883
G1 X120.282 Y110.779 E218.903
G1 X119.946 Y111.114 E218.927
G1 X120.229 Y111.397 E218.947
G1 X120.565 Y111.061 E218.97
G1 X120.848 Y111.344 E218.99
G1 X120.512 Y111.68 E219.014
G1 X120.795 Y111.963 E219.034
G1 X121.13 Y111.627 E219.058
G1 X121.413 Y111.91 E219.078
G1 X121.077 Y112.246 E219.101
G1 X121.36 Y112.529 E219.121
G1 X121.696 Y112.193 E219.145
G1 X121.979 Y112.476 E219.165
G1 X121.643 Y112.811 E219.189
G1 X121.926 Y113.094 E219.209
G1 X122.262 Y112.758 E219.232
G1 X122.545 Y113.041 E219.252
G1 X122.209 Y113.377 E219.276
G1 X122.492 Y113.66 E219.296
G1 X122.827 Y113.324 E219.32
G1 X123.11 Y113.607 E219.34
G1 X122.774 Y113.943 E219.363
G1 X123.057 Y114.226 E219.383
G1 X123.393 Y113.89 E219.407
G1 X123.676 Y114.173 E219.427
G1 X123.34 Y114.509 E219.451
G1 X123.623 Y114.791 E219.47
G1 X123.959 Y114.455 E219.494
G1 X124.242 Y114.738 E219.514
G1 X123.906 Y115.074 E219.538
G1 X124.189 Y115.357 E219.558
G1 X124.525 Y115.021 E219.581
G1 X124.807 Y115.304 E219.601
G1 X124.471 Y115.64 E219.625
G1 X124.754 Y115.923 E219.645
G1 X125.09 Y115.587 E219.669
G1 X125.373 Y115.87 E219.689
G1 X125.037 Y116.206 E219.712
G1 X125.32 Y116.488 E219.732
G1 X125.656 Y116.153 E219.756
G1 X125.939 Y116.435 E219.776
G1 X125.603 Y116.771 E219.8
G1 X125.886 Y117.054 E219.82
G1 X126.222 Y116.718 E219.843
G1 X126.504 Y117.001 E219.863
G1 X126.169 Y117.337 E219.887
G1 X126.451 Y117.62 E219.907
G1 X126.787 Y117.284 E219.931
G1 X127.07 Y117.567 E219.951
G1 X126.734 Y117.903 E219.974
G1 X127.017 Y118.185 E219.994
G1 X127.353 Y117.85 E220.018
G1 X127.636 Y118.132 E220.038
G1 X127.3 Y118.468 E220.062
G1 X127.583 Y118.751 E220.082
G1 X127.919 Y118.415 E220.105
G1 X128.202 Y118.698 E220.125
G1 X127.866 Y119.034 E220.149
G1 X128.148 Y119.317 E220.169
G1 X128.484 Y118.981 E220.193
G1 X128.767 Y119.264 E220.213
G1 X128.431 Y119.6 E220.236
G1 X128.714 Y119.883 E220.256
G1 X129.05 Y119.547 E220.28
G1 X129.333 Y119.829 E220.3
G1 X128.997 Y120.165 E220.324
G1 X129.28 Y120.448 E220.344
G1 X129.616 Y120.112 E220.367
G1 X129.899 Y120.395 E220.387
G1 X129.563 Y120.731 E220.411
G1 X129.845 Y121.014 E220.431
G1 X130.181 Y120.678 E220.455
G1 X130.464 Y120.961 E220.475
G1 X130.128 Y121.297 E220.498
G1 X130.411 Y121.58 E220.518
G1 X130.747 Y121.244 E220.542
G1 X131.03 Y121.527 E220.562
G1 X130.694 Y121.862 E220.586
G1 X130.977 Y122.145 E220.606
G1 X131.313 Y121.809 E220.629
G1 X131.596 Y122.092 E220.649
G1 X131.26 Y122.428 E220.673
G1 X131.543 Y122.711 E220.693
G1 X131.878 Y122.375 E220.717
G1 X132.161 Y122.658 E220.737
G1 X131.825 Y122.994 E220.76
G1 X132.108 Y123.277 E220.78
G1 X132.444 Y122.941 E220.804
G1 X132.727 Y123.224 E220.824
G1 X132.391 Y123.56 E220.848
G1 X132.674 Y123.842 E220.868
G1 X133.01 Y123.506 E220.891
G1 X133.293 Y123.789 E220.911
G1 X132.957 Y124.125 E220.935
G1 X133.24 Y124.408 E220.955
G1 X133.576 Y124.072 E220.979
G1 X133.858 Y124.355 E220.998
G1 X133.522 Y124.691 E221.022
G1 X133.805 Y124.974 E221.042
G1 X134.141 Y124.638 E221.066
G1 X134.424 Y124.921 E221.086
G1 X134.088 Y125.257 E221.11
G1 X134.371 Y125.539 E221.129
G1 X134.707 Y125.203 E221.153
G1 X134.99 Y125.486 E221.173
G1 X134.654 Y125.822 E221.197
G1 X134.937 Y126.105 E221.217
G1 X135.273 Y125.769 E221.24
G1 X135.482 Y125.979 E221.255
G1 X142.875 Y118.586 E221.777
G1 X142.948 Y118.659 E221.782
G1 X135.219 Y126.388 E222.327
G1 X135.502 Y126.671 E222.347
G1 X143.231 Y118.942 E222.893
G1 X143.514 Y119.225 E222.913
G1 X135.785 Y126.954 E223.458
G1 F1800 E213.458
;rapid-dry
G1 F236
G0 X118.914 Y108.187
G1 F1800 E223.458
;bead-solid_infill
G1 X117.966 Y109.135 F1200 E223.525
G1 X117.826 Y108.995 E223.535
G1 X117.761 Y108.774 E223.546
G1 X118.348 Y108.187 E223.588
G1 X117.782 E223.616
G1 X117.633 Y108.337 E223.626
G1 F1800 E213.626
;rapid-dry
G1 F236
G0 X102.294 Y108.968
G1 F1800 E223.626
;bead-solid_infill
G1 X100.842 Y110.42 F1200 E223.729
G1 F1800 E213.729
;Layer : 2 of 53
M106 S255
;rapid-leaky
G1 F236
G0 X100.461 Y109.695 Z0.5
G1 F1800 E223.729
;bead-perimeter_inner
G1 Y92.246 F1560 E224.309
G1 X119.651 E224.947
G1 Y109.695 E225.528
G1 X135.482 Y125.526 E226.272
G1 X142.875 Y118.133 E226.62
G1 X144.081 Y119.339 E226.677
G1 X135.899 Y127.52 E227.062
G1 X117.542 Y109.163 E227.925
G1 X117.161 Y107.867 E227.97
G1 X118.812 E228.025
G1 Y93.275 E228.51
G1 X101.299 E229.093
G1 Y107.867 E229.578
G1 X102.951 E229.633
G1 X102.57 Y109.162 E229.678
G1 X84.102 Y127.41 E230.541
G1 X75.919 Y119.226 E230.926
G1 X77.125 Y118.021 E230.983
G1 X84.63 Y125.526 E231.336
G1 X100.461 Y109.695 E232.081
;rapid-leaky
G1 F236
G0 X100.096 Y109.544
;bead-perimeter_outer
G1 Y91.881 F1080 E232.668
G1 X120.016 E233.331
G1 Y109.544 E233.918
G1 X135.482 Y125.01 E234.646
G1 X142.875 Y117.617 E234.993
G1 X144.597 Y119.339 E235.074
G1 X135.899 Y128.036 E235.484
G1 X117.218 Y109.356 E236.362
G1 X116.673 Y107.502 E236.426
G1 X118.447 E236.485
G1 Y93.64 E236.947
G1 X101.664 E237.505
G1 Y107.502 E237.966
G1 X103.439 E238.025
G1 X102.894 Y109.355 E238.089
G1 X84.101 Y127.925 E238.968
G1 X75.403 Y119.226 E239.377
G1 X77.125 Y117.505 E239.458
G1 X84.63 Y125.01 E239.811
G1 X100.096 Y109.544 E240.538
G1 F1800 E230.538
;rapid-dry
G1 F236
G0 X102.339 Y108.815
G1 F1800 E240.538
;bead-solid_infill
G1 X101.711 Y108.187 F2400 E240.568
G1 X102.277 E240.587
G1 X102.467 Y108.377 E240.596
G1 F1800 E230.596
;rapid-dry
G1 F236
G0 X76.459 Y119.139
G1 F1800 E240.596
;bead-solid_infill
G1 X84.192 Y126.872 F2400 E240.959
G1 X84.477 Y126.591 E240.973
G1 X76.742 Y118.856 E241.337
G1 X76.748 Y118.85
G1 X77.025 Y118.573 E241.35
G1 X84.761 Y126.31 E241.714
G1 X85.046 Y126.028 E241.727
G1 X84.813 Y125.796 E241.738
G1 X85.096 Y125.513 E241.751
G1 X85.33 Y125.747 E241.762
G1 X85.615 Y125.466 E241.776
G1 X85.379 Y125.23 E241.787
G1 X85.661 Y124.947 E241.8
G1 X85.899 Y125.185 E241.811
G1 X86.184 Y124.904 E241.825
G1 X85.944 Y124.664 E241.836
G1 X86.227 Y124.381 E241.849
G1 X86.468 Y124.623 E241.86
G1 X86.753 Y124.341 E241.874
G1 X86.51 Y124.099 E241.885
G1 X86.793 Y123.816 E241.898
G1 X87.037 Y124.06 E241.91
G1 X87.322 Y123.779 E241.923
G1 X87.076 Y123.533 E241.935
G1 X87.359 Y123.25 E241.948
G1 X87.606 Y123.498 E241.96
G1 X87.891 Y123.217 E241.973
G1 X87.641 Y122.967 E241.985
G1 X87.924 Y122.684 E241.998
G1 X88.176 Y122.936 E242.01
G1 X88.46 Y122.654 E242.023
G1 X88.207 Y122.401 E242.035
G1 X88.49 Y122.119 E242.048
G1 X88.745 Y122.373 E242.06
G1 X89.029 Y122.092 E242.074
G1 X88.773 Y121.836 E242.086
G1 X89.056 Y121.553 E242.099
G1 X89.314 Y121.811 E242.111
G1 X89.598 Y121.53 E242.125
G1 X89.338 Y121.27 E242.137
G1 X89.621 Y120.987 E242.15
G1 X89.883 Y121.249 E242.162
G1 X90.167 Y120.968 E242.176
G1 X89.904 Y120.704 E242.188
G1 X90.187 Y120.422 E242.201
G1 X90.452 Y120.686 E242.214
G1 X90.736 Y120.405 E242.227
G1 X90.47 Y120.139 E242.24
G1 X90.753 Y119.856 E242.253
G1 X91.021 Y120.124 E242.266
G1 X91.305 Y119.843 E242.279
G1 X91.036 Y119.573 E242.292
G1 X91.318 Y119.29 E242.305
G1 X91.59 Y119.562 E242.318
G1 X91.874 Y119.281 E242.331
G1 X91.601 Y119.007 E242.344
G1 X91.884 Y118.725 E242.357
G1 X92.159 Y118.999 E242.37
G1 X92.443 Y118.718 E242.383
G1 X92.167 Y118.442 E242.396
G1 X92.45 Y118.159 E242.41
G1 X92.728 Y118.437 E242.423
G1 X93.013 Y118.156 E242.436
G1 X92.733 Y117.876 E242.449
G1 X93.015 Y117.593 E242.463
G1 X93.297 Y117.875 E242.476
G1 X93.582 Y117.594 E242.489
G1 X93.298 Y117.31 E242.502
G1 X93.581 Y117.027 E242.516
G1 X93.866 Y117.313 E242.529
G1 X94.151 Y117.031 E242.542
G1 X93.864 Y116.745 E242.556
G1 X94.147 Y116.462 E242.569
G1 X94.435 Y116.75 E242.583
G1 X94.72 Y116.469 E242.596
G1 X94.43 Y116.179 E242.61
G1 X94.712 Y115.896 E242.623
G1 X95.004 Y116.188 E242.637
G1 X95.289 Y115.907 E242.65
G1 X94.995 Y115.613 E242.664
G1 X95.278 Y115.33 E242.677
G1 X95.573 Y115.626 E242.691
G1 X95.858 Y115.344 E242.704
G1 X95.561 Y115.048 E242.718
G1 X95.844 Y114.765 E242.732
G1 X96.142 Y115.063 E242.746
G1 X96.427 Y114.782 E242.759
G1 X96.127 Y114.482 E242.773
G1 X96.41 Y114.199 E242.786
G1 X96.711 Y114.501 E242.801
G1 X96.996 Y114.22 E242.814
G1 X96.692 Y113.916 E242.828
G1 X96.975 Y113.633 E242.842
G1 X97.281 Y113.939 E242.856
G1 X97.565 Y113.658 E242.869
G1 X97.258 Y113.351 E242.884
G1 X97.541 Y113.068 E242.897
G1 X97.85 Y113.376 E242.911
G1 X98.134 Y113.095 E242.925
G1 X97.824 Y112.785 E242.939
G1 X98.107 Y112.502 E242.953
G1 X98.419 Y112.814 E242.967
G1 X98.703 Y112.533 E242.981
G1 X98.389 Y112.219 E242.995
G1 X98.672 Y111.936 E243.009
G1 X98.988 Y112.252 E243.024
G1 X99.272 Y111.971 E243.037
G1 X98.955 Y111.653 E243.052
G1 X99.238 Y111.371 E243.065
G1 X99.557 Y111.689 E243.08
G1 X99.841 Y111.408 E243.093
G1 X99.521 Y111.088 E243.108
G1 X99.804 Y110.805 E243.122
G1 X100.126 Y111.127 E243.137
G1 X100.41 Y110.846 E243.15
G1 X100.086 Y110.522 E243.165
G1 X100.369 Y110.239 E243.179
G1 X100.695 Y110.565 E243.194
G1 X100.979 Y110.284 E243.207
G1 X100.652 Y109.956 E243.223
G1 X100.781 Y109.828 E243.229
G1 Y109.52 E243.239
G1 X101.264 Y110.003 E243.262
G1 X101.548 Y109.721 E243.275
G1 X100.781 Y108.954 E243.311
G1 Y108.388 E243.33
G1 X101.833 Y109.44 E243.379
G1 X102.118 Y109.159 E243.393
G1 X101.145 Y108.187 E243.438
G1 X100.979 E243.444
G1 Y108.021 E243.45
G1 X100.781 Y107.823 E243.459
G1 Y107.257 E243.478
G1 X100.979 Y107.455 E243.487
G1 Y106.889 E243.506
G1 X100.781 Y106.691 E243.515
G1 Y106.125 E243.534
G1 X100.979 Y106.323 E243.543
G1 Y105.758 E243.562
G1 X100.781 Y105.56 E243.571
G1 Y104.994 E243.59
G1 X100.979 Y105.192 E243.6
G1 Y104.626 E243.618
G1 X100.781 Y104.428 E243.628
G1 Y103.863 E243.646
G1 X100.979 Y104.061 E243.656
G1 Y103.495 E243.675
G1 X100.781 Y103.297 E243.684
G1 Y102.731 E243.703
G1 X100.979 Y102.929 E243.712
G1 Y102.364 E243.731
G1 X100.781 Y102.166 E243.74
G1 Y101.6 E243.759
G1 X100.979 Y101.798 E243.768
G1 Y101.232 E243.787
G1 X100.781 Y101.034 E243.796
G1 Y100.469 E243.815
G1 X100.979 Y100.667 E243.825
G1 Y100.101 E243.843
G1 X100.781 Y99.903 E243.853
G1 Y99.337 E243.871
G1 X100.979 Y99.535 E243.881
G1 Y98.97 E243.9
G1 X100.781 Y98.772 E243.909
G1 Y98.206 E243.928
G1 X100.979 Y98.404 E243.937
G1 Y97.838 E243.956
G1 X100.781 Y97.64 E243.965
G1 Y97.075 E243.984
G1 X100.979 Y97.273 E243.993
G1 Y96.707 E244.012
G1 X100.781 Y96.509 E244.021
G1 Y95.943 E244.04
G1 X100.979 Y96.141 E244.05
G1 Y95.575 E244.068
G1 X100.781 Y95.377 E244.078
G1 Y94.812 E244.097
G1 X100.979 Y95.01 E244.106
G1 Y94.444 E244.125
G1 X100.781 Y94.246 E244.134
G1 Y93.68 E244.153
G1 X100.979 Y93.878 E244.162
G1 Y93.313 E244.181
G1 X100.781 Y93.115 E244.19
G1 Y92.566 E244.208
G1 X100.798 E244.209
G1 X101.187 Y92.955 E244.227
G1 X101.753 E244.246
G1 X101.364 Y92.566 E244.264
G1 X101.929 E244.283
G1 X102.318 Y92.955 E244.302
G1 X102.884 E244.32
G1 X102.495 Y92.566 E244.339
G1 X103.061 E244.357
G1 X103.45 Y92.955 E244.376
G1 X104.015 E244.395
G1 X103.626 Y92.566 E244.413
G1 X104.192 E244.432
G1 X104.581 Y92.955 E244.45
G1 X105.147 E244.469
G1 X104.758 Y92.566 E244.487
G1 X105.323 E244.506
G1 X105.712 Y92.955 E244.524
G1 X106.278 E244.543
G1 X105.889 Y92.566 E244.561
G1 X106.455 E244.58
G1 X106.844 Y92.955 E244.598
G1 X107.41 E244.617
G1 X107.021 Y92.566 E244.636
G1 X107.586 E244.654
G1 X107.975 Y92.955 E244.673
G1 X108.541 E244.691
G1 X108.152 Y92.566 E244.71
G1 X108.718 E244.729
G1 X109.107 Y92.955 E244.747
G1 X109.672 E244.766
G1 X109.283 Y92.566 E244.784
G1 X109.849 E244.803
G1 X110.238 Y92.955 E244.821
G1 X110.804 E244.84
G1 X110.415 Y92.566 E244.858
G1 X110.98 E244.877
G1 X111.369 Y92.955 E244.895
G1 X111.935 E244.914
G1 X111.546 Y92.566 E244.932
G1 X112.112 E244.951
G1 X112.501 Y92.955 E244.97
G1 X113.066 E244.988
G1 X112.677 Y92.566 E245.007
G1 X113.243 E245.025
G1 X113.632 Y92.955 E245.044
G1 X114.198 E245.063
G1 X113.809 Y92.566 E245.081
G1 X114.374 E245.1
G1 X114.763 Y92.955 E245.118
G1 X115.329 E245.137
G1 X114.94 Y92.566 E245.155
G1 X115.506 E245.174
G1 X115.895 Y92.955 E245.192
G1 X116.46 E245.211
G1 X116.072 Y92.566 E245.229
G1 X116.637 E245.248
G1 X117.026 Y92.955 E245.266
G1 X117.592 E245.285
G1 X117.203 Y92.566 E245.304
G1 X117.769 E245.322
G1 X118.158 Y92.955 E245.341
G1 X118.723 E245.359
G1 X118.334 Y92.566 E245.378
G1 X118.9 E245.397
G1 X119.331 Y92.997 E245.417
G1 Y93.563 E245.436
G1 X119.132 Y93.364 E245.445
G1 Y93.929 E245.464
G1 X119.331 Y94.128 E245.473
G1 Y94.694 E245.492
G1 X119.132 Y94.495 E245.501
G1 Y95.061 E245.52
G1 X119.331 Y95.26 E245.53
G1 Y95.826 E245.548
G1 X119.132 Y95.627 E245.558
G1 Y96.192 E245.577
G1 X119.331 Y96.391 E245.586
G1 Y96.957 E245.605
G1 X119.132 Y96.758 E245.614
G1 Y97.324 E245.633
G1 X119.331 Y97.523 E245.642
G1 Y98.088 E245.661
G1 X119.132 Y97.889 E245.67
G1 Y98.455 E245.689
G1 X119.331 Y98.654 E245.699
G1 Y99.22 E245.717
G1 X119.132 Y99.021 E245.727
G1 Y99.586 E245.746
G1 X119.331 Y99.785 E245.755
G1 Y100.351 E245.774
G1 X119.132 Y100.152 E245.783
G1 Y100.718 E245.802
G1 X119.331 Y100.917 E245.811
G1 Y101.482 E245.83
G1 X119.132 Y101.283 E245.839
G1 Y101.849 E245.858
G1 X119.331 Y102.048 E245.868
G1 Y102.614 E245.886
G1 X119.132 Y102.415 E245.896
G1 Y102.98 E245.915
G1 X119.331 Y103.179 E245.924
G1 Y103.745 E245.943
G1 X119.132 Y103.546 E245.952
G1 Y104.112 E245.971
G1 X119.331 Y104.311 E245.98
G1 Y104.876 E245.999
G1 X119.132 Y104.677 E246.009
G1 Y105.243 E246.027
G1 X119.331 Y105.442 E246.037
G1 Y106.008 E246.056
G1 X119.132 Y105.809 E246.065
G1 Y106.375 E246.084
G1 X119.331 Y106.574 E246.093
G1 Y107.139 E246.112
G1 X119.132 Y106.94 E246.121
G1 Y107.506 E246.14
G1 X119.331 Y107.705 E246.149
G1 Y108.271 E246.168
G1 X119.132 Y108.072 E246.178
G1 Y108.187 E246.181
G1 X118.682 E246.196
G1 X119.331 Y108.836 E246.227
G1 Y109.402 E246.246
G1 X118.116 Y108.187 E246.303
G1 X117.589 E246.32
G1 X117.605 Y108.241 E246.322
G1 X136.165 Y126.802 E247.195
G1 X136.448 Y126.519 E247.209
G1 X135.695 Y125.766 E247.244
G1 X135.978 Y125.483 E247.257
G1 X136.731 Y126.236 E247.293
G1 X137.014 Y125.953 E247.306
G1 X136.26 Y125.2 E247.342
G1 X136.543 Y124.917 E247.355
G1 X137.296 Y125.67 E247.39
G1 X137.579 Y125.387 E247.404
G1 X136.826 Y124.634 E247.439
G1 X137.109 Y124.352 E247.452
G1 X137.862 Y125.105 E247.488
G1 X138.145 Y124.822 E247.501
G1 X137.392 Y124.069 E247.536
G1 X137.675 Y123.786 E247.55
G1 X138.428 Y124.539 E247.585
G1 X138.711 Y124.256 E247.598
G1 X137.958 Y123.503 E247.634
G1 X138.24 Y123.22 E247.647
G1 X138.994 Y123.973 E247.683
G1 X139.276 Y123.69 E247.696
G1 X138.523 Y122.937 E247.731
G1 X138.806 Y122.655 E247.745
G1 X139.559 Y123.408 E247.78
G1 X139.842 Y123.125 E247.793
G1 X139.089 Y122.372 E247.829
G1 X139.372 Y122.089 E247.842
G1 X140.125 Y122.842 E247.878
G1 X140.408 Y122.559 E247.891
G1 X139.655 Y121.806 E247.926
G1 X139.937 Y121.523 E247.94
G1 X140.691 Y122.276 E247.975
G1 X140.974 Y121.994 E247.988
G1 X140.22 Y121.24 E248.024
G1 X140.503 Y120.957 E248.037
G1 X141.256 Y121.711 E248.072
G1 X141.539 Y121.428 E248.086
G1 X140.786 Y120.675 E248.121
G1 X141.069 Y120.392 E248.134
G1 X141.822 Y121.145 E248.17
G1 X142.105 Y120.862 E248.183
G1 X141.352 Y120.109 E248.219
G1 X141.635 Y119.826 E248.232
G1 X142.388 Y120.579 E248.267
G1 X142.671 Y120.297 E248.281
G1 X141.917 Y119.543 E248.316
G1 X142.2 Y119.26 E248.329
G1 X142.954 Y120.014 E248.365
G1 X143.236 Y119.731 E248.378
G1 X142.483 Y118.978 E248.414
G1 X142.766 Y118.695 E248.427
G1 X143.519 Y119.448 E248.462
G1 F1800 E238.462
;Layer : 3 of 53
;rapid-leaky
G1 F236
G0 X144.081 Y119.339 Z0.7
G1 F1800 E248.462
;bead-perimeter_inner
G1 X135.899 Y127.52 F1560 E248.847
G1 X117.542 Y109.163 E249.711
G1 X117.161 Y107.867 E249.756
G1 X118.812 E249.81
G1 Y93.275 E250.296
G1 X101.299 E250.878
G1 Y107.867 E251.364
G1 X102.951 E251.419
G1 X102.57 Y109.162 E251.463
G1 X84.102 Y127.41 E252.327
G1 X75.919 Y119.226 E252.712
G1 X77.125 Y118.021 E252.769
G1 X79.404 Y120.3 E252.876
G1 X80.357 Y121.283 E252.921
G1 X81.551 Y122.448 E252.977
G1 X84.63 Y125.526 E253.122
G1 X100.461 Y109.695 E253.866
G1 Y92.246 E254.447
G1 X119.651 E255.085
G1 Y109.695 E255.665
G1 X135.482 Y125.526 E256.41
G1 X138.504 Y122.504 E256.552
G1 X139.398 Y121.639 E256.593
G1 X140.652 Y120.356 E256.653
G1 X142.875 Y118.133 E256.758
G1 X144.081 Y119.339 E256.814
;rapid-leaky
G1 F236
G0 X144.597
;bead-perimeter_outer
G1 X135.899 Y128.036 F1080 E257.223
G1 X117.218 Y109.356 E258.102
G1 X116.673 Y107.502 E258.166
G1 X118.447 E258.225
G1 Y93.64 E258.686
G1 X101.664 E259.245
G1 Y107.502 E259.706
G1 X103.439 E259.765
G1 X102.894 Y109.355 E259.829
G1 X84.101 Y127.925 E260.708
G1 X75.403 Y119.226 E261.117
G1 X77.125 Y117.505 E261.198
G1 X79.665 Y120.044 E261.317
G1 X80.616 Y121.026 E261.363
G1 X81.807 Y122.188 E261.418
G1 X84.63 Y125.01 E261.551
G1 X100.096 Y109.544 E262.278
G1 Y91.881 E262.866
G1 X120.016 E263.528
G1 Y109.544 E264.116
G1 X135.482 Y125.01 E264.843
G1 X138.248 Y122.244 E264.973
G1 X139.141 Y121.379 E265.015
G1 X140.392 Y120.1 E265.074
G1 X142.875 Y117.617 E265.191
G1 X144.597 Y119.339 E265.272
;rapid-leaky
G1 F236
G0 X135.785 Y126.954
;bead-solid_infill
G1 X143.514 Y119.225 F2400 E265.636
G1 X143.231 Y118.942 E265.649
G1 X135.502 Y126.671 E266.012
G1 X135.219 Y126.388 E266.026
G1 X142.948 Y118.659 E266.389
G1 X142.875 Y118.586 E266.393
G1 X140.88 Y120.581 E266.487
G1 X139.623 Y121.866 E266.546
G1 X138.729 Y122.732 E266.588
G1 X135.482 Y125.979 E266.741
G1 X135.273 Y125.769 E266.75
G1 X134.937 Y126.105 E266.766
G1 X134.654 Y125.822 E266.779
G1 X134.99 Y125.486 E266.795
G1 X134.707 Y125.203 E266.809
G1 X134.371 Y125.539 E266.824
G1 X134.088 Y125.257 E266.838
G1 X134.424 Y124.921 E266.853
G1 X134.141 Y124.638 E266.867
G1 X133.805 Y124.974 E266.883
G1 X133.522 Y124.691 E266.896
G1 X133.858 Y124.355 E266.912
G1 X133.576 Y124.072 E266.925
G1 X133.24 Y124.408 E266.941
G1 X132.957 Y124.125 E266.954
G1 X133.293 Y123.789 E266.97
G1 X133.01 Y123.506 E266.983
G1 X132.674 Y123.842 E266.999
G1 X132.391 Y123.56 E267.012
G1 X132.727 Y123.224 E267.028
G1 X132.444 Y122.941 E267.041
G1 X132.108 Y123.277 E267.057
G1 X131.825 Y122.994 E267.071
G1 X132.161 Y122.658 E267.086
G1 X131.878 Y122.375 E267.1
G1 X131.543 Y122.711 E267.115
G1 X131.26 Y122.428 E267.129
G1 X131.596 Y122.092 E267.145
G1 X131.313 Y121.809 E267.158
G1 X130.977 Y122.145 E267.174
G1 X130.694 Y121.862 E267.187
G1 X131.03 Y121.527 E267.203
G1 X130.747 Y121.244 E267.216
G1 X130.411 Y121.58 E267.232
G1 X130.128 Y121.297 E267.245
G1 X130.464 Y120.961 E267.261
G1 X130.181 Y120.678 E267.274
G1 X129.845 Y121.014 E267.29
G1 X129.563 Y120.731 E267.303
G1 X129.899 Y120.395 E267.319
G1 X129.616 Y120.112 E267.332
G1 X129.28 Y120.448 E267.348
G1 X128.997 Y120.165 E267.362
G1 X129.333 Y119.829 E267.377
G1 X129.05 Y119.547 E267.391
G1 X128.714 Y119.883 E267.406
G1 X128.431 Y119.6 E267.42
G1 X128.767 Y119.264 E267.436
G1 X128.484 Y118.981 E267.449
G1 X128.148 Y119.317 E267.465
G1 X127.866 Y119.034 E267.478
G1 X128.202 Y118.698 E267.494
G1 X127.919 Y118.415 E267.507
G1 X127.583 Y118.751 E267.523
G1 X127.3 Y118.468 E267.536
G1 X127.636 Y118.132 E267.552
G1 X127.353 Y117.85 E267.565
G1 X127.017 Y118.185 E267.581
G1 X126.734 Y117.903 E267.594
G1 X127.07 Y117.567 E267.61
G1 X126.787 Y117.284 E267.624
G1 X126.451 Y117.62 E267.639
G1 X126.169 Y117.337 E267.653
G1 X126.504 Y117.001 E267.668
G1 X126.222 Y116.718 E267.682
G1 X125.886 Y117.054 E267.698
G1 X125.603 Y116.771 E267.711
G1 X125.939 Y116.435 E267.727
G1 X125.656 Y116.153 E267.74
G1 X125.32 Y116.488 E267.756
G1 X125.037 Y116.206 E267.769
G1 X125.373 Y115.87 E267.785
G1 X125.09 Y115.587 E267.798
G1 X124.754 Y115.923 E267.814
G1 X124.471 Y115.64 E267.827
G1 X124.807 Y115.304 E267.843
G1 X124.525 Y115.021 E267.856
G1 X124.189 Y115.357 E267.872
G1 X123.906 Y115.074 E267.885
G1 X124.242 Y114.738 E267.901
G1 X123.959 Y114.455 E267.915
G1 X123.623 Y114.791 E267.93
G1 X123.34 Y114.509 E267.944
G1 X123.676 Y114.173 E267.959
G1 X123.393 Y113.89 E267.973
G1 X123.057 Y114.226 E267.989
G1 X122.774 Y113.943 E268.002
G1 X123.11 Y113.607 E268.018
G1 X122.827 Y113.324 E268.031
G1 X122.492 Y113.66 E268.047
G1 X122.209 Y113.377 E268.06
G1 X122.545 Y113.041 E268.076
G1 X122.262 Y112.758 E268.089
G1 X121.926 Y113.094 E268.105
G1 X121.643 Y112.811 E268.118
G1 X121.979 Y112.476 E268.134
G1 X121.696 Y112.193 E268.147
G1 X121.36 Y112.529 E268.163
G1 X121.077 Y112.246 E268.177
G1 X121.413 Y111.91 E268.192
G1 X121.13 Y111.627 E268.206
G1 X120.795 Y111.963 E268.221
G1 X120.512 Y111.68 E268.235
G1 X120.848 Y111.344 E268.251
G1 X120.565 Y111.061 E268.264
G1 X120.229 Y111.397 E268.28
G1 X119.946 Y111.114 E268.293
G1 X120.282 Y110.779 E268.309
G1 X119.999 Y110.496 E268.322
G1 X119.663 Y110.832 E268.338
G1 X119.38 Y110.549 E268.351
G1 X119.716 Y110.213 E268.367
G1 X119.433 Y109.93 E268.38
G1 X119.097 Y110.266 E268.396
G1 X118.815 Y109.983 E268.409
G1 X119.331 Y109.467 E268.434
G1 Y108.901 E268.452
G1 X118.532 Y109.7 E268.49
G1 X118.249 Y109.417 E268.503
G1 X119.331 Y108.335 E268.554
G1 Y107.77 E268.573
G1 X119.132 Y107.969 E268.582
G1 Y107.403 E268.601
G1 X119.331 Y107.204 E268.611
G1 Y106.638 E268.629
G1 X119.132 Y106.837 E268.639
G1 Y106.272 E268.658
G1 X119.331 Y106.073 E268.667
G1 Y105.507 E268.686
G1 X119.132 Y105.706 E268.695
G1 Y105.14 E268.714
G1 X119.331 Y104.941 E268.723
G1 Y104.376 E268.742
G1 X119.132 Y104.575 E268.751
G1 Y104.009 E268.77
G1 X119.331 Y103.81 E268.78
G1 Y103.244 E268.798
G1 X119.132 Y103.443 E268.808
G1 Y102.877 E268.827
G1 X119.331 Y102.678 E268.836
G1 Y102.113 E268.855
G1 X119.132 Y102.312 E268.864
G1 Y101.746 E268.883
G1 X119.331 Y101.547 E268.892
G1 Y100.981 E268.911
G1 X119.132 Y101.18 E268.921
G1 Y100.615 E268.939
G1 X119.331 Y100.416 E268.949
G1 Y99.85 E268.967
G1 X119.132 Y100.049 E268.977
G1 Y99.483 E268.996
G1 X119.331 Y99.284 E269.005
G1 Y98.719 E269.024
G1 X119.132 Y98.918 E269.033
G1 Y98.352 E269.052
G1 X119.331 Y98.153 E269.061
G1 Y97.587 E269.08
G1 X119.132 Y97.786 E269.09
G1 Y97.221 E269.108
G1 X119.331 Y97.022 E269.118
G1 Y96.456 E269.137
G1 X119.132 Y96.655 E269.146
G1 Y96.089 E269.165
G1 X119.331 Y95.89 E269.174
G1 Y95.325 E269.193
G1 X119.132 Y95.524 E269.202
G1 Y94.958 E269.221
G1 X119.331 Y94.759 E269.23
G1 Y94.193 E269.249
G1 X119.132 Y94.392 E269.259
G1 Y93.826 E269.277
G1 X119.331 Y93.627 E269.287
G1 Y93.062 E269.306
G1 X119.132 Y93.261 E269.315
G1 Y92.955 E269.325
G1 X118.872 E269.334
G1 X119.261 Y92.566 E269.352
G1 X118.695 E269.371
G1 X118.306 Y92.955 E269.389
G1 X117.741 E269.408
G1 X118.13 Y92.566 E269.426
G1 X117.564 E269.445
G1 X117.175 Y92.955 E269.463
G1 X116.609 E269.482
G1 X116.998 Y92.566 E269.501
G1 X116.433 E269.519
G1 X116.044 Y92.955 E269.538
G1 X115.478 E269.556
G1 X115.867 Y92.566 E269.575
G1 X115.301 E269.594
G1 X114.912 Y92.955 E269.612
G1 X114.347 E269.631
G1 X114.736 Y92.566 E269.649
G1 X114.17 E269.668
G1 X113.781 Y92.955 E269.686
G1 X113.215 E269.705
G1 X113.604 Y92.566 E269.723
G1 X113.039 E269.742
G1 X112.65 Y92.955 E269.76
G1 X112.084 E269.779
G1 X112.473 Y92.566 E269.797
G1 X111.907 E269.816
G1 X111.518 Y92.955 E269.835
G1 X110.953 E269.853
G1 X111.342 Y92.566 E269.872
G1 X110.776 E269.89
G1 X110.387 Y92.955 E269.909
G1 X109.821 E269.928
G1 X110.21 Y92.566 E269.946
G1 X109.644 E269.965
G1 X109.255 Y92.955 E269.983
G1 X108.69 E270.002
G1 X109.079 Y92.566 E270.02
G1 X108.513 E270.039
G1 X108.124 Y92.955 E270.057
G1 X107.558 E270.076
G1 X107.947 Y92.566 E270.094
G1 X107.382 E270.113
G1 X106.993 Y92.955 E270.131
G1 X106.427 E270.15
G1 X106.816 Y92.566 E270.169
G1 X106.25 E270.187
G1 X105.861 Y92.955 E270.206
G1 X105.296 E270.224
G1 X105.685 Y92.566 E270.243
G1 X105.119 E270.262
G1 X104.73 Y92.955 E270.28
G1 X104.164 E270.299
G1 X104.553 Y92.566 E270.317
G1 X103.988 E270.336
G1 X103.599 Y92.955 E270.354
G1 X103.033 E270.373
G1 X103.422 Y92.566 E270.391
G1 X102.856 E270.41
G1 X102.467 Y92.955 E270.428
G1 X101.902 E270.447
G1 X102.291 Y92.566 E270.465
G1 X101.725 E270.484
G1 X101.336 Y92.955 E270.503
G1 X100.979 E270.514
G1 Y93.312 E270.526
G1 X100.781 Y93.51 E270.536
G1 Y92.944 E270.554
G1 X101.159 Y92.566 E270.572
G1 F1800 E260.572
;rapid-dry
G1 F236
G0 X100.979 Y93.878
G1 F1800 E270.572
;bead-solid_infill
G1 X100.781 Y94.076 F2400 E270.582
G1 Y94.641 E270.6
G1 X100.979 Y94.443 E270.61
G1 Y95.009 E270.628
G1 X100.781 Y95.207 E270.638
G1 Y95.773 E270.657
G1 X100.979 Y95.575 E270.666
G1 Y96.14 E270.685
G1 X100.781 Y96.338 E270.694
G1 Y96.904 E270.713
G1 X100.979 Y96.706 E270.722
G1 Y97.272 E270.741
G1 X100.781 Y97.47 E270.75
G1 Y98.035 E270.769
G1 X100.979 Y97.837 E270.778
G1 Y98.403 E270.797
G1 X100.781 Y98.601 E270.807
G1 Y99.167 E270.825
G1 X100.979 Y98.969 E270.835
G1 Y99.534 E270.853
G1 X100.781 Y99.732 E270.863
G1 Y100.298 E270.882
G1 X100.979 Y100.1 E270.891
G1 Y100.666 E270.91
G1 X100.781 Y100.864 E270.919
G1 Y101.429 E270.938
G1 X100.979 Y101.231 E270.947
G1 Y101.797 E270.966
G1 X100.781 Y101.995 E270.975
G1 Y102.561 E270.994
G1 X100.979 Y102.363 E271.003
G1 Y102.929 E271.022
G1 X100.781 Y103.127 E271.032
G1 Y103.692 E271.05
G1 X100.979 Y103.494 E271.06
G1 Y104.06 E271.079
G1 X100.781 Y104.258 E271.088
G1 Y104.824 E271.107
G1 X100.979 Y104.626 E271.116
G1 Y105.191 E271.135
G1 X100.781 Y105.389 E271.144
G1 Y105.955 E271.163
G1 X100.979 Y105.757 E271.172
G1 Y106.323 E271.191
G1 X100.781 Y106.521 E271.2
G1 Y107.086 E271.219
G1 X100.979 Y106.888 E271.228
G1 Y107.454 E271.247
G1 X100.781 Y107.652 E271.257
G1 Y108.218 E271.275
G1 X100.979 Y108.02 E271.285
G1 Y108.187 E271.29
G1 X101.377 E271.304
G1 X100.781 Y108.783 E271.332
G1 Y109.349 E271.35
G1 X101.943 Y108.187 E271.405
G1 X102.509 E271.424
G1 X83.92 Y126.776 E272.298
G1 X83.637 Y126.493 E272.312
G1 X84.391 Y125.739 E272.347
G1 X84.108 Y125.456 E272.36
G1 X83.355 Y126.21 E272.396
G1 X83.072 Y125.927 E272.409
G1 X83.825 Y125.174 E272.444
G1 X83.542 Y124.891 E272.458
G1 X82.789 Y125.644 E272.493
G1 X82.506 Y125.361 E272.507
G1 X83.259 Y124.608 E272.542
G1 X82.976 Y124.325 E272.555
G1 X82.223 Y125.078 E272.591
G1 X81.94 Y124.796 E272.604
G1 X82.693 Y124.042 E272.639
G1 X82.411 Y123.76 E272.653
G1 X81.658 Y124.513 E272.688
G1 X81.375 Y124.23 E272.701
G1 X82.128 Y123.477 E272.737
G1 X81.845 Y123.194 E272.75
G1 X81.092 Y123.947 E272.786
G1 X80.809 Y123.664 E272.799
G1 X81.562 Y122.911 E272.834
G1 X81.327 Y122.676 E272.845
G1 X81.278 Y122.629 E272.848
G1 X80.526 Y123.381 E272.883
G1 X80.243 Y123.098 E272.896
G1 X80.992 Y122.35 E272.931
G1 X80.706 Y122.07 E272.945
G1 X79.961 Y122.816 E272.98
G1 X79.678 Y122.533 E272.993
G1 X80.419 Y121.791 E273.028
G1 X80.133 Y121.512 E273.041
G1 X79.395 Y122.25 E273.076
G1 X79.112 Y121.967 E273.089
G1 X79.855 Y121.225 E273.124
G1 X79.576 Y120.937 E273.138
G1 X78.829 Y121.684 E273.173
G1 X78.546 Y121.401 E273.186
G1 X79.298 Y120.65 E273.221
G1 X79.176 Y120.525 E273.227
G1 X79.017 Y120.365 E273.235
G1 X78.264 Y121.118 E273.27
G1 X77.981 Y120.836 E273.283
G1 X78.734 Y120.082 E273.319
G1 X78.451 Y119.8 E273.332
G1 X77.698 Y120.553 E273.367
G1 X77.415 Y120.27 E273.381
G1 X78.168 Y119.517 E273.416
G1 X77.885 Y119.234 E273.43
G1 X77.132 Y119.987 E273.465
G1 X76.85 Y119.704 E273.478
G1 X77.603 Y118.951 E273.514
G1 X77.32 Y118.668 E273.527
G1 X76.567 Y119.421 E273.562
G1 F1800 E263.562
;rapid-dry
G1 F236
G0 X100.842 Y110.42
G1 F1800 E273.562
;bead-solid_infill
G1 X102.294 Y108.968 F2400 E273.631
G1 F1800 E263.631
;rapid-dry
G1 F236
G0 X117.633 Y108.337
G1 F1800 E273.631
;bead-solid_infill
G1 X117.782 Y108.187 F2400 E273.638
G1 X118.348 E273.656
G1 X117.761 Y108.774 E273.684
G1 X117.826 Y108.995 E273.692
G1 X117.966 Y109.135 E273.698
G1 X118.914 Y108.187 E273.743
G1 F1800 E263.743
;Layer : 4 of 53
;rapid-leaky
G1 F236
G0 X118.812 Y107.867 Z0.9
G1 F1800 E273.743
;bead-perimeter_inner
G1 Y93.275 F1560 E274.228
G1 X101.299 E274.811
G1 Y107.867 E275.296
G1 X102.951 E275.351
G1 X102.57 Y109.162 E275.396
G1 X84.102 Y127.41 E276.259
G1 X75.919 Y119.226 E276.644
G1 X77.125 Y118.021 E276.701
G1 X79.039 Y119.936 E276.791
G1 X80.449 Y121.4 E276.859
G1 X81.916 Y122.813 E276.926
G1 X84.63 Y125.526 E277.054
G1 X100.461 Y109.695 E277.799
G1 Y92.246 E278.379
G1 X119.651 E279.017
G1 Y109.695 E279.598
G1 X135.482 Y125.526 E280.342
G1 X138.14 Y122.869 E280.467
G1 X139.447 Y121.615 E280.528
G1 X140.124 Y120.931 E280.56
G1 X141.017 Y119.993 E280.603
G1 X142.875 Y118.133 E280.69
G1 X144.081 Y119.339 E280.747
G1 X135.899 Y127.52 E281.132
G1 X117.542 Y109.163 E281.995
G1 X117.161 Y107.867 E282.04
G1 X118.812 E282.095
;rapid-leaky
G1 F236
G0 X118.447 Y107.502
;bead-perimeter_outer
G1 Y93.64 F1080 E282.556
G1 X101.664 E283.114
G1 Y107.502 E283.575
G1 X103.439 E283.634
G1 X102.894 Y109.355 E283.699
G1 X84.101 Y127.925 E284.577
G1 X75.403 Y119.226 E284.986
G1 X77.125 Y117.505 E285.067
G1 X79.301 Y119.681 E285.17
G1 X80.707 Y121.141 E285.237
G1 X82.17 Y122.551 E285.305
G1 X84.63 Y125.01 E285.42
G1 X100.096 Y109.544 E286.148
G1 Y91.881 E286.735
G1 X120.016 E287.398
G1 Y109.544 E287.985
G1 X135.482 Y125.01 E288.713
G1 X137.885 Y122.607 E288.826
G1 X139.19 Y121.356 E288.886
G1 X139.862 Y120.677 E288.918
G1 X140.755 Y119.738 E288.961
G1 X142.875 Y117.617 E289.061
G1 X144.597 Y119.339 E289.142
G1 X135.899 Y128.036 E289.551
G1 X117.218 Y109.356 E290.429
G1 X116.673 Y107.502 E290.494
G1 X118.447 E290.553
;rapid-leaky
G1 F236
G0 X123.351 Y114.519
;bead-sparse_infill
G1 X123.446 Y114.35 F3600 E290.559
G1 X123.394 Y113.89 E290.575
G1 X126.805 Y117.302 E290.735
G1 X126.564 Y117.732 E290.751
G1 F1800 E280.751
;rapid-dry
G1 F236
G0 X136.472 Y124.989
G1 F1800 E290.751
;bead-sparse_infill
G1 X136.721 Y125.21 F3600 E290.762
G1 X137.089 Y125.878 E290.788
G1 X141.852 Y121.115 E291.012
G1 X141.317 Y120.145 E291.049
G1 F1800 E281.049
;rapid-dry
G1 F236
G0 X119.331 Y107.361
G1 F1800 E291.049
;bead-sparse_infill
G1 X119.19 Y107.111 F3600 E291.058
G1 X119.331 Y105.874 E291.1
G1 Y92.882 E291.532
G1 X119.19 Y92.631 E291.541
G1 X119.198 Y92.566 E291.544
G1 X113.519 Y92.955 E291.733
G1 X113.155 Y92.631 E291.749
G1 X113.119 Y92.566 E291.752
G1 X104.893 Y92.955 E292.025
G1 X104.711 Y92.631 E292.038
G1 X104.718 Y92.566 E292.04
G1 F1800 E282.04
;rapid-dry
G1 F236
G0 X100.781 Y94.568
G1 F1800 E292.04
;bead-sparse_infill
G1 X100.979 Y94.921 F3600 E292.053
G1 Y99.044 E292.191
G1 X100.781 Y99.402 E292.204
G1 Y109.048 E292.525
G1 X101.299 Y109.968 E292.56
G1 X90.388 Y120.221 E293.058
G1 X90.32 Y120.817 E293.078
G1 X86.582 Y124.026 E293.242
G1 X86.757 Y124.337 E293.254
G1 F1800 E283.254
;Layer : 5 of 53
;rapid-leaky
G1 F236
G0 X84.63 Y125.526 Z1.1
G1 F1800 E293.254
;bead-perimeter_inner
G1 X100.461 Y109.695 F1560 E293.998
G1 Y92.246 E294.579
G1 X119.651 E295.217
G1 Y109.695 E295.797
G1 X135.482 Y125.526 E296.542
G1 X137.863 Y123.146 E296.654
G1 X138.664 Y122.398 E296.69
G1 X139.139 Y121.978 E296.712
G1 X139.616 Y121.519 E296.734
G1 X140.126 Y120.992 E296.758
G1 X140.546 Y120.516 E296.779
G1 X141.294 Y119.715 E296.816
G1 X142.875 Y118.133 E296.89
G1 X144.081 Y119.339 E296.947
G1 X135.899 Y127.52 E297.331
G1 X117.542 Y109.163 E298.195
G1 X117.161 Y107.867 E298.24
G1 X118.812 E298.295
G1 Y93.275 E298.78
G1 X101.299 E299.363
G1 Y107.867 E299.848
G1 X102.951 E299.903
G1 X102.57 Y109.162 E299.948
G1 X84.102 Y127.41 E300.811
G1 X75.919 Y119.226 E301.196
G1 X77.125 Y118.021 E301.253
G1 X78.761 Y119.658 E301.33
G1 X80.09 Y121.107 E301.395
G1 X80.414 Y121.439 E301.411
G1 X80.745 Y121.761 E301.426
G1 X82.194 Y123.09 E301.491
G1 X84.63 Y125.526 E301.606
;rapid-leaky
G1 F236
G0 Y125.01
;bead-perimeter_outer
G1 X100.096 Y109.544 F1080 E302.333
G1 Y91.881 E302.921
G1 X120.016 E303.583
G1 Y109.544 E304.171
G1 X135.482 Y125.01 E304.898
G1 X137.609 Y122.884 E304.998
G1 X138.418 Y122.128 E305.035
G1 X138.892 Y121.71 E305.056
G1 X139.358 Y121.261 E305.078
G1 X139.858 Y120.744 E305.102
G1 X140.276 Y120.27 E305.123
G1 X141.032 Y119.461 E305.16
G1 X142.875 Y117.617 E305.246
G1 X144.597 Y119.339 E305.327
G1 X135.899 Y128.036 E305.736
G1 X117.218 Y109.356 E306.615
G1 X116.673 Y107.502 E306.679
G1 X118.447 E306.738
G1 Y93.64 E307.199
G1 X101.664 E307.758
G1 Y107.502 E308.219
G1 X103.439 E308.278
G1 X102.894 Y109.355 E308.342
G1 X84.101 Y127.925 E309.221
G1 X75.403 Y119.226 E309.63
G1 X77.125 Y117.505 E309.711
G1 X79.024 Y119.405 E309.8
G1 X80.355 Y120.856 E309.866
G1 X80.672 Y121.181 E309.881
G1 X80.996 Y121.496 E309.896
G1 X82.447 Y122.827 E309.961
G1 X84.63 Y125.01 E310.064
;rapid-leaky
G1 F236
G0 X86.917 Y124.179
;bead-sparse_infill
G1 X86.755 Y123.854 F3600 E310.076
G1 X90.163 Y120.972 E310.224
G1 X90.284 Y120.324 E310.246
G1 X101.454 Y109.815 E310.756
G1 X101.007 Y108.921 E310.79
G1 X100.781 Y108.739 E310.799
G1 Y99.324 E311.112
G1 X100.979 Y99.008 E311.125
G1 Y94.419 E311.278
G1 X100.781 Y94.259 E311.286
G1 F1800 E301.286
;rapid-dry
G1 F236
G0 X104.538 Y92.566
G1 F1800 E311.286
;bead-sparse_infill
G1 X104.526 Y92.631 F3600 E311.288
G1 X104.688 Y92.955 E311.3
G1 X113.198 Y92.566 E311.584
G1 X113.239 Y92.631 E311.586
G1 X113.641 Y92.955 E311.603
G1 X119.018 Y92.566 E311.783
G1 X119.005 Y92.631 E311.785
G1 X119.331 Y93.283 E311.809
G1 Y105.375 E312.211
G1 X119.132 Y106.435 E312.247
G1 Y107.364 E312.278
G1 X119.331 Y107.762 E312.293
G1 F1800 E302.293
;rapid-dry
G1 F236
G0 X123.58 Y114.076
G1 F1800 E312.293
;bead-sparse_infill
G1 X123.631 Y114.35 F3600 E312.302
G1 X123.481 Y114.65 E312.313
G1 X126.655 Y117.151 E312.448
G1 X126.431 Y117.599 E312.464
G1 F1800 E302.464
;rapid-dry
G1 F236
G0 X136.423 Y125.038
G1 F1800 E312.464
;bead-sparse_infill
G1 X136.637 Y125.21 F3600 E312.473
G1 X137.068 Y125.899 E312.5
G1 X141.882 Y121.085 E312.727
G1 X141.308 Y120.169 E312.763
G1 F1800 E302.763
;Layer : 6 of 53
;rapid-leaky
G1 F236
G0 X140.931 Y120.13 Z1.3
G1 F1800 E312.763
;bead-perimeter_inner
G1 X141.533 Y119.476 F1560 E312.792
G1 X142.875 Y118.133 E312.855
G1 X144.081 Y119.339 E312.912
G1 X135.899 Y127.52 E313.297
G1 X117.542 Y109.163 E314.16
G1 X117.161 Y107.867 E314.205
G1 X118.812 E314.26
G1 Y93.275 E314.746
G1 X101.299 E315.328
G1 Y107.867 E315.813
G1 X102.951 E315.868
G1 X102.57 Y109.162 E315.913
G1 X84.102 Y127.41 E316.777
G1 X75.919 Y119.226 E317.162
G1 X77.125 Y118.021 E317.218
G1 X78.523 Y119.42 E317.284
G1 X79.115 Y120.064 E317.313
G1 X79.759 Y120.826 E317.347
G1 X80.35 Y121.451 E317.375
G1 X81.025 Y122.092 E317.406
G1 X81.788 Y122.737 E317.439
G1 X82.432 Y123.329 E317.468
G1 X84.63 Y125.526 E317.572
G1 X100.461 Y109.695 E318.316
G1 Y92.246 E318.897
G1 X119.651 E319.535
G1 Y109.695 E320.115
G1 X135.482 Y125.526 E320.86
G1 X137.624 Y123.385 E320.961
G1 X138.278 Y122.784 E320.99
G1 X138.854 Y122.304 E321.015
G1 X139.524 Y121.688 E321.046
G1 X140.142 Y121.052 E321.075
G1 X140.452 Y120.706 E321.09
G1 X140.931 Y120.13 E321.115
;rapid-leaky
G1 F236
G0 X140.657 Y119.89
;bead-perimeter_outer
G1 X141.269 Y119.223 F1080 E321.146
G1 X142.875 Y117.617 E321.221
G1 X144.597 Y119.339 E321.302
G1 X135.899 Y128.036 E321.711
G1 X117.218 Y109.356 E322.59
G1 X116.673 Y107.502 E322.654
G1 X118.447 E322.713
G1 Y93.64 E323.174
G1 X101.664 E323.732
G1 Y107.502 E324.193
G1 X103.439 E324.252
G1 X102.894 Y109.355 E324.317
G1 X84.101 Y127.925 E325.195
G1 X75.403 Y119.226 E325.605
G1 X77.125 Y117.505 E325.686
G1 X78.787 Y119.167 E325.764
G1 X79.39 Y119.824 E325.793
G1 X80.031 Y120.582 E325.826
G1 X80.609 Y121.193 E325.854
G1 X81.269 Y121.82 E325.885
G1 X82.028 Y122.462 E325.918
G1 X82.685 Y123.065 E325.947
G1 X84.63 Y125.01 E326.039
G1 X100.096 Y109.544 E326.766
G1 Y91.881 E327.354
G1 X120.016 E328.016
G1 Y109.544 E328.604
G1 X135.482 Y125.01 E329.331
G1 X137.371 Y123.121 E329.42
G1 X138.038 Y122.51 E329.45
G1 X138.616 Y122.027 E329.475
G1 X139.269 Y121.426 E329.505
G1 X139.874 Y120.805 E329.534
G1 X140.175 Y120.468 E329.549
G1 X140.657 Y119.89 E329.574
;rapid-leaky
G1 F236
G0 X141.299 Y120.203
;bead-sparse_infill
G1 X141.906 Y121.062 F3600 E329.609
G1 X137.053 Y125.914 E329.837
G1 X136.556 Y125.21 E329.866
G1 X136.378 Y125.083 E329.873
G1 F1800 E319.873
;rapid-dry
G1 F236
G0 X126.262 Y117.431
G1 F1800 E329.873
;bead-sparse_infill
G1 X126.458 Y116.955 F3600 E329.89
G1 X123.645 Y114.814 E330.008
G1 X123.836 Y114.35 E330.024
G1 X123.83 Y114.326 E330.025
G1 F1800 E320.025
;rapid-dry
G1 F236
G0 X119.331 Y108.398
G1 F1800 E330.025
;bead-sparse_infill
G1 X119.132 Y107.915 F3600 E330.042
G1 Y105.866 E330.111
G1 X119.283 Y105.301 E330.13
G1 X119.331 Y105.232 E330.133
G1 Y93.919 E330.509
G1 X119.132 Y93.436 E330.526
G1 X118.934 Y92.955 E330.544
G1 X118.8 Y92.631 E330.555
G1 X118.818 Y92.566 E330.558
G1 X113.772 Y92.955 E330.726
G1 X113.32 Y92.631 E330.744
G1 X113.274 Y92.566 E330.747
G1 X104.454 Y92.955 E331.041
G1 X104.321 Y92.631 E331.052
G1 X104.338 Y92.566 E331.055
G1 F1800 E321.055
;rapid-dry
G1 F236
G0 X100.781 Y94.02
G1 F1800 E331.055
;bead-sparse_infill
G1 X100.979 Y94.161 F3600 E331.063
G1 Y98.991 E331.223
G1 X100.781 Y99.272 E331.235
G1 Y108.499 E331.542
G1 X101.371 Y108.921 E331.566
G1 X101.657 Y109.614 E331.591
G1 X90.141 Y120.468 E332.117
G1 X89.95 Y121.182 E332.142
G1 X86.984 Y123.624 E332.269
G1 X87.127 Y123.971 E332.282
G1 F1800 E322.282
;Layer : 7 of 53
;rapid-leaky
G1 F236
G0 X84.63 Y125.526 Z1.5
G1 F1800 E332.282
;bead-perimeter_inner
G1 X100.461 Y109.695 F1560 E333.027
G1 Y92.246 E333.607
G1 X119.651 E334.245
G1 Y109.695 E334.826
G1 X135.482 Y125.526 E335.57
G1 X137.427 Y123.582 E335.662
G1 X137.99 Y123.07 E335.687
G1 X139.267 Y122.038 E335.742
G1 X139.702 Y121.632 E335.761
G1 X140.188 Y121.116 E335.785
G1 X141.218 Y119.842 E335.839
G1 X141.73 Y119.279 E335.865
G1 X142.875 Y118.133 E335.919
G1 X144.081 Y119.339 E335.975
G1 X135.899 Y127.52 E336.36
G1 X117.542 Y109.163 E337.224
G1 X117.161 Y107.867 E337.269
G1 X118.812 E337.323
G1 Y93.275 E337.809
G1 X101.299 E338.391
G1 Y107.867 E338.877
G1 X102.951 E338.932
G1 X102.57 Y109.162 E338.976
G1 X84.102 Y127.41 E339.84
G1 X75.919 Y119.226 E340.225
G1 X77.125 Y118.021 E340.282
G1 X78.326 Y119.223 E340.338
G1 X78.829 Y119.778 E340.363
G1 X79.724 Y120.888 E340.41
G1 X80.013 Y121.225 E340.425
G1 X80.314 Y121.539 E340.44
G1 X80.627 Y121.837 E340.454
G1 X80.963 Y122.128 E340.469
G1 X82.075 Y123.023 E340.516
G1 X82.629 Y123.525 E340.541
G1 X84.63 Y125.526 E340.635
;rapid-leaky
G1 F236
G0 Y125.01
;bead-perimeter_outer
G1 X100.096 Y109.544 F1080 E341.363
G1 Y91.881 E341.95
G1 X120.016 E342.613
G1 Y109.544 E343.2
G1 X135.482 Y125.01 E343.928
G1 X137.175 Y123.318 E344.007
G1 X137.754 Y122.792 E344.033
G1 X139.026 Y121.763 E344.088
G1 X139.448 Y121.37 E344.107
G1 X139.912 Y120.877 E344.129
G1 X140.94 Y119.606 E344.184
G1 X141.466 Y119.027 E344.21
G1 X142.875 Y117.617 E344.276
G1 X144.597 Y119.339 E344.357
G1 X135.899 Y128.036 E344.766
G1 X117.218 Y109.356 E345.645
G1 X116.673 Y107.502 E345.709
G1 X118.447 E345.768
G1 Y93.64 E346.229
G1 X101.664 E346.787
G1 Y107.502 E347.249
G1 X103.439 E347.308
G1 X102.894 Y109.355 E347.372
G1 X84.101 Y127.925 E348.251
G1 X75.403 Y119.226 E348.66
G1 X77.125 Y117.505 E348.741
G1 X78.59 Y118.971 E348.81
G1 X79.108 Y119.542 E348.835
G1 X80.006 Y120.656 E348.883
G1 X80.284 Y120.979 E348.897
G1 X80.572 Y121.281 E348.911
G1 X81.195 Y121.846 E348.939
G1 X82.31 Y122.744 E348.986
G1 X82.881 Y123.261 E349.012
G1 X84.63 Y125.01 E349.094
;rapid-leaky
G1 F236
G0 X87.453 Y123.649
;bead-sparse_infill
G1 X87.387 Y123.4 F3600 E349.103
G1 X87.277 Y123.332 E349.107
G1 X89.653 Y121.475 E349.208
G1 X89.936 Y120.673 E349.236
G1 X94.165 Y116.444 E349.435
G1 X94.627 Y116.16 E349.453
G1 X94.691 Y115.918 E349.461
G1 X101.969 Y109.306 E349.788
G1 X101.866 Y108.921 E349.801
G1 X100.781 Y108.254 E349.844
G1 Y99.237 E350.144
G1 X100.979 Y98.986 E350.154
G1 Y93.897 E350.324
G1 X100.781 Y93.775 E350.331
;rapid-leaky
G1 F236
G0 X104.115 Y92.566
;bead-sparse_infill
G1 X104.092 Y92.631 F3600 E350.334
G1 X104.178 Y92.955 E350.345
G1 X113.345 Y92.566 E350.65
G1 X113.397 Y92.631 E350.653
G1 X113.924 Y92.955 E350.673
G1 X118.594 Y92.566 E350.829
G1 X118.571 Y92.631 E350.832
G1 X118.657 Y92.955 E350.843
;rapid-leaky
G1 F236
G0 X119.132 Y94.491
;bead-sparse_infill
G1 X119.331 Y94.613 F3600 E350.85
G1 Y105.145 E351.201
G1 X119.208 Y105.301 E351.207
G1 X119.132 Y105.518 E351.215
G1 X118.857 Y108.187 E351.304
G1 X119.051 Y108.921 E351.329
G1 X119.331 Y109.092 E351.34
;rapid-leaky
G1 F236
G0 X124.021 Y114.517
;bead-sparse_infill
G1 X123.88 Y115.048 F3600 E351.359
G1 X126.159 Y116.656 E351.451
G1 X126.019 Y117.187 E351.47
G1 F1800 E341.47
;rapid-dry
G1 F236
G0 X136.338 Y125.123
G1 F1800 E351.47
;bead-sparse_infill
G1 X136.479 Y125.21 F3600 E351.475
G1 X137.043 Y125.924 E351.505
G1 X141.924 Y121.043 E351.735
G1 X141.299 Y120.251 E351.769
G1 F1800 E341.769
;Layer : 8 of 53
;rapid-leaky
G1 F236
G0 X140.939 Y120.276 Z1.7
G1 F1800 E351.769
;bead-perimeter_inner
G1 X141.449 Y119.611 F1560 E351.796
G1 X141.904 Y119.105 E351.819
G1 X142.875 Y118.133 E351.865
G1 X144.081 Y119.339 E351.922
G1 X135.899 Y127.52 E352.306
G1 X117.542 Y109.163 E353.17
G1 X117.161 Y107.867 E353.215
G1 X118.812 E353.27
G1 Y93.275 E353.755
G1 X101.299 E354.337
G1 Y107.867 E354.823
G1 X102.951 E354.878
G1 X102.57 Y109.162 E354.923
G1 X84.102 Y127.41 E355.786
G1 X75.919 Y119.226 E356.171
G1 X77.125 Y118.021 E356.228
G1 X78.152 Y119.049 E356.276
G1 X78.603 Y119.55 E356.299
G1 X79.686 Y120.986 E356.358
G1 X80.222 Y121.578 E356.385
G1 X80.546 Y121.889 E356.4
G1 X80.865 Y122.166 E356.414
G1 X82.302 Y123.249 E356.474
G1 X82.803 Y123.7 E356.496
G1 X84.63 Y125.526 E356.582
G1 X100.461 Y109.695 E357.327
G1 Y92.246 E357.907
G1 X119.651 E358.545
G1 Y109.695 E359.126
G1 X135.482 Y125.526 E359.87
G1 X137.253 Y123.756 E359.954
G1 X137.759 Y123.301 E359.976
G1 X138.424 Y122.791 E360.004
G1 X139.022 Y122.358 E360.029
G1 X139.353 Y122.084 E360.043
G1 X139.925 Y121.542 E360.069
G1 X140.232 Y121.205 E360.084
G1 X140.506 Y120.874 E360.099
G1 X140.939 Y120.276 E360.123
;rapid-leaky
G1 F236
G0 X140.643 Y120.062
;bead-perimeter_outer
G1 X141.168 Y119.378 F1080 E360.152
G1 X141.639 Y118.854 E360.175
G1 X142.875 Y117.617 E360.233
G1 X144.597 Y119.339 E360.314
G1 X135.899 Y128.036 E360.724
G1 X117.218 Y109.356 E361.602
G1 X116.673 Y107.502 E361.667
G1 X118.447 E361.726
G1 Y93.64 E362.187
G1 X101.664 E362.745
G1 Y107.502 E363.206
G1 X103.439 E363.265
G1 X102.894 Y109.355 E363.329
G1 X84.101 Y127.925 E364.208
G1 X75.403 Y119.226 E364.617
G1 X77.125 Y117.505 E364.698
G1 X78.417 Y118.798 E364.759
G1 X78.885 Y119.319 E364.782
G1 X79.968 Y120.753 E364.842
G1 X80.48 Y121.32 E364.867
G1 X80.792 Y121.619 E364.882
G1 X81.098 Y121.884 E364.895
G1 X82.533 Y122.967 E364.955
G1 X83.054 Y123.435 E364.978
G1 X84.63 Y125.01 E365.052
G1 X100.096 Y109.544 E365.78
G1 Y91.881 E366.367
G1 X120.016 E367.03
G1 Y109.544 E367.617
G1 X135.482 Y125.01 E368.345
G1 X137.002 Y123.491 E368.416
G1 X137.526 Y123.02 E368.44
G1 X138.21 Y122.495 E368.468
G1 X138.796 Y122.071 E368.492
G1 X139.114 Y121.808 E368.506
G1 X139.662 Y121.289 E368.531
G1 X139.956 Y120.966 E368.546
G1 X140.219 Y120.648 E368.559
G1 X140.643 Y120.062 E368.583
;rapid-leaky
G1 F236
G0 X141.311 Y120.316
;bead-sparse_infill
G1 X141.938 Y121.029 F3600 E368.615
;rapid-leaky
G1 F236
G0 X140.553 Y121.573
;bead-solid_infill
G1 X140.436 Y121.456 F2400 E368.621
G1 X140.307 Y121.598 E368.627
G1 X140.167 Y121.752 E368.634
G1 X140.297 Y121.883 E368.64
G1 X140.03 Y122.151 E368.653
G1 X140.014 Y122.165
G1 X139.877 Y122.028 E368.66
G1 X139.587 Y122.304 E368.673
G1 X139.703 Y122.42 E368.679
;rapid-leaky
G1 F236
G0 X136.299 Y125.161
;bead-sparse_infill
G1 X136.404 Y125.21 F3600 E368.682
G1 X137.037 Y125.93 E368.714
;rapid-leaky
G1 F236
G0 X133.266 Y123.763
;bead-sparse_infill
G1 X132.479 Y123.4 F3600 E368.743
G1 X132.542 Y123.039 E368.755
G1 X125.292 Y116.46 E369.081
G1 X125.24 Y116.16 E369.091
G1 X125.53 Y116.026 E369.102
G1 X124.561 Y115.73 E369.135
G1 X124.42 Y114.916 E369.163
G1 X118.128 Y108.187 E369.469
G1 X118 Y108.921 E369.494
G1 X119.331 Y109.534 E369.543
;rapid-leaky
G1 F236
G0 X119.132 Y105.289
;bead-sparse_infill
G1 X119.331 Y105.062 F3600 E369.553
G1 Y95.055 E369.886
G1 X119.132 Y94.963 E369.893
;rapid-leaky
G1 F236
G0 X118.259 Y92.955
;bead-sparse_infill
G1 X118.315 Y92.631 F3600 E369.904
G1 X118.344 Y92.566 E369.906
G1 X114.173 Y92.955 E370.046
G1 X113.472 Y92.631 E370.071
G1 X113.414 Y92.566 E370.074
G1 X103.865 E370.392
G1 X103.836 Y92.631 E370.394
G1 X103.78 Y92.955 E370.405
;rapid-leaky
G1 F236
G0 X100.979 Y93.548
;bead-sparse_infill
G1 X100.781 Y93.456 F3600 E370.412
G1 X100.979 Y98.991 E370.596
G1 X100.781 Y99.217 E370.606
G1 Y107.936 E370.896
G1 X100.979 Y108.027 E370.904
G1 X101.326 Y108.187 E370.916
G1 X102.38 Y108.673 E370.955
G1 X95.495 Y115.113 E371.269
G1 X95.583 Y115.616 E371.286
G1 X94.468 Y116.718 E371.338
G1 X93.396 Y117.212 E371.377
G1 X89.628 Y120.98 E371.554
G1 X89.357 Y121.59 E371.576
G1 X89.319 Y121.806 E371.584
G1 X87.939 Y123.17 E371.648
G1 X87.597 Y123.012 E371.661
G1 F1800 E361.661
;Layer : 9 of 53
;rapid-leaky
G1 F236
G0 X84.63 Y125.526 Z1.9
G1 F1800 E371.661
;bead-perimeter_inner
G1 X100.461 Y109.695 F1560 E372.405
G1 Y92.246 E372.986
G1 X119.651 E373.624
G1 Y109.695 E374.204
G1 X135.482 Y125.526 E374.949
G1 X137.102 Y123.907 E375.025
G1 X137.56 Y123.499 E375.046
G1 X138.138 Y123.073 E375.069
G1 X138.397 Y122.911 E375.08
G1 X139.109 Y122.416 E375.108
G1 X139.448 Y122.162 E375.123
G1 X139.756 Y121.895 E375.136
G1 X140.043 Y121.608 E375.15
G1 X140.31 Y121.3 E375.163
G1 X140.796 Y120.635 E375.191
G1 X141.219 Y119.993 E375.216
G1 X141.647 Y119.412 E375.24
G1 X142.055 Y118.954 E375.26
G1 X142.875 Y118.133 E375.299
G1 X144.081 Y119.339 E375.356
G1 X135.899 Y127.52 E375.741
G1 X117.542 Y109.163 E376.604
G1 X117.161 Y107.867 E376.649
G1 X118.812 E376.704
G1 Y93.275 E377.189
G1 X101.299 E377.772
G1 Y107.867 E378.257
G1 X102.951 E378.312
G1 X102.57 Y109.162 E378.357
G1 X84.103 Y127.41 E379.22
G1 X75.919 Y119.226 E379.605
G1 X77.125 Y118.021 E379.662
G1 X78.001 Y118.898 E379.703
G1 X78.411 Y119.36 E379.724
G1 X78.833 Y119.933 E379.747
G1 X79.127 Y120.389 E379.766
G1 X79.618 Y121.08 E379.794
G1 X79.876 Y121.401 E379.807
G1 X80.154 Y121.699 E379.821
G1 X80.451 Y121.975 E379.834
G1 X80.771 Y122.233 E379.848
G1 X81.463 Y122.725 E379.876
G1 X81.919 Y123.02 E379.894
G1 X82.492 Y123.44 E379.918
G1 X82.954 Y123.851 E379.939
G1 X84.63 Y125.526 E380.017
;rapid-leaky
G1 F236
G0 X80.614 Y122.728
;bead-solid_infill
G1 X80.739 Y122.603 F2400 E380.023
G1 X80.578 Y122.489 E380.03
G1 X80.521 Y122.442 E380.032
G1 X80.417 Y122.359 E380.037
G1 X80.24 Y122.536 E380.045
G1 X80.012 Y122.39 E380.054
G1 X79.909 Y122.301 E380.059
G1 X80.113 Y122.098 E380.068
G1 X80.07 Y122.058 E380.07
G1 X79.927 Y121.926 E380.077
G1 X79.827 Y121.818 E380.082
G1 X79.621 Y122.024 E380.091
G1 X79.461 Y121.838 E380.099
G1 X79.375 Y121.704 E380.105
G1 X79.56 Y121.519 E380.113
G1 X79.363 Y121.273 E380.124
G1 X79.312 Y121.201 E380.127
G1 X79.172 Y121.342 E380.133
G1 X78.993 Y120.955 E380.148
G1 X79.059 Y120.888 E380.151
;rapid-leaky
G1 F236
G0 X84.63 Y125.01
;bead-perimeter_outer
G1 X100.096 Y109.544 F1080 E380.878
G1 Y91.881 E381.466
G1 X120.016 E382.128
G1 Y109.544 E382.716
G1 X135.482 Y125.01 E383.443
G1 X136.851 Y123.642 E383.508
G1 X137.33 Y123.216 E383.529
G1 X137.933 Y122.771 E383.554
G1 X138.57 Y122.352 E383.579
G1 X139.219 Y121.878 E383.606
G1 X139.507 Y121.627 E383.619
G1 X139.775 Y121.359 E383.631
G1 X140.026 Y121.071 E383.644
G1 X140.265 Y120.752 E383.657
G1 X140.639 Y120.218 E383.679
G1 X140.919 Y119.786 E383.696
G1 X141.364 Y119.182 E383.721
G1 X141.79 Y118.703 E383.742
G1 X142.875 Y117.617 E383.793
G1 X144.597 Y119.339 E383.874
G1 X135.899 Y128.036 E384.283
G1 X117.218 Y109.356 E385.162
G1 X116.673 Y107.502 E385.226
G1 X118.447 E385.285
G1 Y93.64 E385.746
G1 X101.664 E386.305
G1 Y107.502 E386.766
G1 X103.439 E386.825
G1 X102.894 Y109.355 E386.889
G1 X84.101 Y127.925 E387.768
G1 X75.403 Y119.226 E388.177
G1 X77.125 Y117.505 E388.258
G1 X78.266 Y118.647 E388.311
G1 X78.695 Y119.13 E388.333
G1 X79.133 Y119.726 E388.357
G1 X79.429 Y120.184 E388.376
G1 X79.909 Y120.86 E388.403
G1 X80.153 Y121.162 E388.416
G1 X80.412 Y121.441 E388.429
G1 X80.69 Y121.698 E388.441
G1 X80.992 Y121.942 E388.454
G1 X81.668 Y122.423 E388.482
G1 X82.126 Y122.719 E388.5
G1 X82.722 Y123.156 E388.525
G1 X83.205 Y123.586 E388.546
G1 X84.63 Y125.01 E388.613
;rapid-leaky
G1 F236
G0 X88.422 Y122.187
;bead-sparse_infill
G1 X88.74 Y122.109 F3600 E388.624
G1 X89.105 Y121.504 E388.648
G1 X93.278 Y117.331 E388.844
G1 X94.17 Y117.009 E388.875
G1 X94.172 Y117.01
G1 X95.889 Y114.72 E388.971
G1 X95.979 Y114.87 E388.976
G1 X96.267 Y114.94 E388.986
G1 F1800 E378.986
;rapid-dry
G1 F236
G0 X100.979 Y107.916
G1 F1800 E388.986
;bead-sparse_infill
G1 X100.781 Y107.845 F3600 E388.993
G1 Y99.236 E389.28
G1 X100.979 Y99.078 E389.288
G1 X100.781 Y93.366 E389.478
G1 X100.979 Y93.437 E389.485
;rapid-leaky
G1 F236
G0 X103.337 Y92.955
;bead-sparse_infill
G1 X103.572 Y92.566 F3600 E389.5
G1 X113.61 E389.834
G1 X114.079 Y92.939 E389.854
G1 X114.122 Y92.955 E389.856
G1 X117.816 E389.979
G1 X118.051 Y92.566 E389.994
;rapid-leaky
G1 F236
G0 X119.331 Y95.334
;bead-sparse_infill
G1 X119.132 Y95.382 F3600 E390
G1 X119.331 Y104.921 E390.318
G1 X119.132 Y105.251 E390.331
G1 X119.331 Y109.813 E390.482
G1 X118.779 Y109.947 E390.501
G1 X131.183 Y122.352 E391.085
G1 X131.724 Y122.22 E391.103
G1 X133.798 Y124.295 E391.201
G1 X133.258 Y124.427 E391.219
;rapid-leaky
G1 F236
G0 X136.221 Y125.24
;bead-sparse_infill
G1 X137.059 Y125.908 F3600 E391.255
;rapid-leaky
G1 F236
G0 X139.295 Y122.878
;bead-solid_infill
G1 X141.026 Y121.147 F2400 E391.336
;rapid-leaky
G1 F236
G0 X141.274 Y120.491
;bead-sparse_infill
G1 X141.942 Y121.025 F3600 E391.365
G1 F1800 E381.365
;Layer : 10 of 53
;rapid-leaky
G1 F236
G0 X141.448 Y119.759 Z2.1
G1 F1800 E391.365
;bead-perimeter_inner
G1 X141.813 Y119.246 F1560 E391.386
G1 X142.195 Y118.814 E391.405
G1 X142.875 Y118.133 E391.437
G1 X144.081 Y119.339 E391.494
G1 X135.899 Y127.52 E391.879
G1 X117.542 Y109.163 E392.742
G1 X117.161 Y107.867 E392.787
G1 X118.812 E392.842
G1 Y93.275 E393.327
G1 X101.299 E393.91
G1 Y107.867 E394.395
G1 X102.951 E394.45
G1 X102.57 Y109.162 E394.495
G1 X84.102 Y127.41 E395.358
G1 X75.919 Y119.226 E395.743
G1 X77.125 Y118.021 E395.8
G1 X77.861 Y118.758 E395.835
G1 X78.241 Y119.188 E395.854
G1 X78.605 Y119.702 E395.875
G1 X79.31 Y120.871 E395.92
G1 X79.546 Y121.208 E395.934
G1 X79.79 Y121.513 E395.947
G1 X80.053 Y121.799 E395.96
G1 X80.339 Y122.062 E395.973
G1 X80.851 Y122.453 E395.994
G1 X82.15 Y123.247 E396.045
G1 X82.664 Y123.611 E396.066
G1 X83.094 Y123.991 E396.085
G1 X84.63 Y125.526 E396.157
G1 X100.461 Y109.695 E396.902
G1 Y92.246 E397.482
G1 X119.651 E398.12
G1 Y109.695 E398.701
G1 X135.482 Y125.526 E399.445
G1 X136.962 Y124.047 E399.515
G1 X137.394 Y123.665 E399.534
G1 X137.907 Y123.3 E399.555
G1 X138.891 Y122.713 E399.593
G1 X139.248 Y122.482 E399.607
G1 X139.571 Y122.24 E399.621
G1 X139.86 Y121.987 E399.633
G1 X140.133 Y121.714 E399.646
G1 X140.388 Y121.423 E399.659
G1 X140.63 Y121.1 E399.672
G1 X140.861 Y120.743 E399.687
G1 X141.448 Y119.759 E399.725
;rapid-leaky
G1 F236
G0 X141.141 Y119.562
;bead-perimeter_outer
G1 X141.527 Y119.019 F1080 E399.747
G1 X141.929 Y118.564 E399.767
G1 X142.875 Y117.617 E399.812
G1 X144.597 Y119.339 E399.893
G1 X135.899 Y128.036 E400.302
G1 X117.218 Y109.356 E401.18
G1 X116.673 Y107.502 E401.245
G1 X118.447 E401.304
G1 Y93.64 E401.765
G1 X101.664 E402.323
G1 Y107.502 E402.784
G1 X103.439 E402.843
G1 X102.894 Y109.355 E402.907
G1 X84.101 Y127.925 E403.786
G1 X75.403 Y119.226 E404.195
G1 X77.125 Y117.505 E404.276
G1 X78.127 Y118.508 E404.323
G1 X78.527 Y118.96 E404.343
G1 X78.911 Y119.502 E404.365
G1 X79.616 Y120.672 E404.411
G1 X79.838 Y120.989 E404.424
G1 X80.067 Y121.275 E404.436
G1 X80.311 Y121.541 E404.448
G1 X80.577 Y121.785 E404.46
G1 X81.06 Y122.153 E404.48
G1 X82.35 Y122.941 E404.53
G1 X82.892 Y123.325 E404.553
G1 X83.344 Y123.725 E404.573
G1 X84.63 Y125.01 E404.633
G1 X100.096 Y109.544 E405.361
G1 Y91.881 E405.948
G1 X120.016 E406.611
G1 Y109.544 E407.198
G1 X135.482 Y125.01 E407.925
G1 X136.712 Y123.781 E407.983
G1 X137.167 Y123.379 E408.003
G1 X137.71 Y122.993 E408.026
G1 X138.703 Y122.4 E408.064
G1 X139.039 Y122.182 E408.077
G1 X139.341 Y121.956 E408.09
G1 X139.611 Y121.72 E408.102
G1 X139.866 Y121.465 E408.114
G1 X140.104 Y121.193 E408.126
G1 X140.33 Y120.891 E408.138
G1 X140.548 Y120.555 E408.152
G1 X141.141 Y119.562 E408.19
;rapid-leaky
G1 F236
G0 X141.933 Y121.034
;bead-sparse_infill
G1 X141.733 Y120.892 F3600 E408.198
;rapid-leaky
G1 F236
G0 X141.372 Y120.695
;bead-solid_infill
G1 X141.303 Y120.626 F2400 E408.202
G1 X141.132 Y120.913 E408.213
G1 X141.09 Y120.978 E408.215
G1 X141.251 Y121.14 E408.223
G1 X141.224 Y121.238 E408.226
G1 X141.1 Y121.554 E408.238
G1 X140.865 Y121.32 E408.249
G1 X140.637 Y121.625 E408.261
G1 X140.622 Y121.642 E408.262
G1 X140.911 Y121.931 E408.276
G1 X140.906 Y121.94
G1 X140.698 Y122.26 E408.289
G1 X140.686 Y122.272
G1 X140.357 Y121.943 E408.305
G1 X140.079 Y122.22 E408.318
G1 X140.074 Y122.225
G1 X140.403 Y122.554 E408.334
G1 X140.087 Y122.758 E408.346
G1 X140.057 Y122.774 E408.347
G1 X139.772 Y122.489 E408.361
G1 X139.449 Y122.731 E408.374
G1 X139.678 Y122.961 E408.385
G1 X139.386 Y123.076 E408.395
G1 X139.262 Y123.11 E408.4
G1 X139.106 Y122.955 E408.407
G1 X139.06 Y122.984 E408.409
G1 X138.754 Y123.168 E408.421
G1 X138.817 Y123.231 E408.423
;rapid-leaky
G1 F236
G0 X136.198 Y125.263
;bead-sparse_infill
G1 X137.077 Y125.89 F3600 E408.459
;rapid-leaky
G1 F236
G0 X133.505 Y124.674
;bead-sparse_infill
G1 X133.985 Y124.481 F3600 E408.477
G1 X131.406 Y121.903 E408.598
G1 X130.927 Y122.095 E408.615
G1 X119.505 Y110.002 E409.168
G1 X119.026 Y110.194 E409.185
G1 X119.132 Y105.083 E409.356
G1 X119.331 Y104.801 E409.367
G1 X119.132 Y95.673 E409.671
G1 X119.331 Y95.593 E409.678
G1 F1800 E399.678
;rapid-dry
G1 F236
G0 X117.747 Y92.566
G1 F1800 E409.678
;bead-sparse_infill
G1 X117.698 Y92.635 F3600 E409.681
G1 X116.9 Y92.955 E409.709
G1 X114.41 E409.792
G1 X114.079 Y92.864 E409.803
G1 X113.661 Y92.566 E409.821
G1 X103.267 E410.166
G1 X103.219 Y92.635 E410.169
G1 X102.421 Y92.955 E410.198
G1 X100.979 Y93.243 E410.247
G1 X100.781 Y93.189 E410.253
G1 X100.979 Y99.119 E410.451
G1 X100.781 Y99.26 E410.459
G1 X100.979 Y107.722 E410.74
G1 X100.781 Y107.668 E410.747
G1 F1800 E400.747
;rapid-dry
G1 F236
G0 X96.606 Y114.605
G1 F1800 E410.747
;bead-sparse_infill
G1 X96.176 Y114.432 F3600 E410.763
G1 X93.85 Y117.328 E410.886
G1 X93.065 Y117.544 E410.913
G1 F1800 E400.913
;rapid-dry
G1 F236
G0 X81.016 Y123.13
G1 F1800 E410.913
;bead-solid_infill
G1 X80.388 Y122.502 F2400 E410.943
G1 X80.133 Y122.307 E410.953
G1 X79.827 Y122.025 E410.967
G1 X79.547 Y121.722 E410.981
G1 X79.303 Y121.417 E410.994
G1 X78.722 Y120.836 E411.021
G1 X78.901 Y121.379 E411.04
G1 X79.068 Y121.736 E411.053
G1 X79.089 Y121.768 E411.055
G1 X80.083 Y122.763 E411.102
G1 F1800 E401.102
;Layer : 11 of 53
;rapid-leaky
G1 F236
G0 X80.511 Y122.427 Z2.3
G1 F1800 E411.102
;bead-perimeter_inner
G1 X80.862 Y122.637 F1560 E411.115
G1 X81.762 Y123.105 E411.149
G1 X82.34 Y123.433 E411.171
G1 X82.812 Y123.758 E411.19
G1 X83.211 Y124.108 E411.208
G1 X84.63 Y125.526 E411.274
G1 X100.461 Y109.695 E412.019
G1 Y92.246 E412.599
G1 X119.651 E413.238
G1 Y109.695 E413.818
G1 X135.482 Y125.526 E414.563
G1 X136.844 Y124.164 E414.627
G1 X137.245 Y123.813 E414.644
G1 X137.719 Y123.487 E414.664
G1 X138.288 Y123.166 E414.685
G1 X138.675 Y122.978 E414.7
G1 X139.373 Y122.591 E414.726
G1 X139.708 Y122.371 E414.74
G1 X140.007 Y122.126 E414.752
G1 X140.273 Y121.858 E414.765
G1 X140.518 Y121.561 E414.778
G1 X140.739 Y121.225 E414.791
G1 X141.126 Y120.527 E414.818
G1 X141.314 Y120.14 E414.832
G1 X141.635 Y119.571 E414.854
G1 X141.961 Y119.097 E414.873
G1 X142.312 Y118.696 E414.891
G1 X142.875 Y118.133 E414.917
G1 X144.081 Y119.339 E414.974
G1 X135.899 Y127.52 E415.359
G1 X117.542 Y109.163 E416.222
G1 X117.161 Y107.867 E416.267
G1 X118.812 E416.322
G1 Y93.275 E416.807
G1 X101.299 E417.39
G1 Y107.867 E417.875
G1 X102.951 E417.93
G1 X102.57 Y109.162 E417.975
G1 X84.102 Y127.41 E418.838
G1 X75.919 Y119.226 E419.223
G1 X77.125 Y118.021 E419.28
G1 X77.744 Y118.64 E419.309
G1 X78.092 Y119.039 E419.327
G1 X78.419 Y119.512 E419.346
G1 X78.747 Y120.09 E419.368
G1 X79.035 Y120.663 E419.389
G1 X79.425 Y121.341 E419.415
G1 X79.655 Y121.655 E419.428
G1 X79.911 Y121.94 E419.441
G1 X80.195 Y122.196 E419.454
G1 X80.511 Y122.427 E419.467
;rapid-leaky
G1 F236
G0 X80.712 Y122.122
;bead-perimeter_outer
G1 X81.367 Y122.497 F1080 E419.492
G1 X81.931 Y122.781 E419.513
G1 X82.533 Y123.122 E419.536
G1 X83.037 Y123.47 E419.556
G1 X83.46 Y123.841 E419.575
G1 X84.63 Y125.01 E419.63
G1 X100.096 Y109.544 E420.357
G1 Y91.881 E420.945
G1 X120.016 E421.607
G1 Y109.544 E422.195
G1 X135.482 Y125.01 E422.922
G1 X136.595 Y123.897 E422.975
G1 X137.021 Y123.524 E422.994
G1 X137.525 Y123.177 E423.014
G1 X138.119 Y122.842 E423.037
G1 X138.505 Y122.655 E423.051
G1 X139.187 Y122.276 E423.077
G1 X139.492 Y122.076 E423.089
G1 X139.761 Y121.855 E423.1
G1 X140.002 Y121.613 E423.112
G1 X140.224 Y121.344 E423.123
G1 X140.424 Y121.039 E423.136
G1 X140.803 Y120.357 E423.162
G1 X140.99 Y119.971 E423.176
G1 X141.325 Y119.377 E423.198
G1 X141.672 Y118.873 E423.219
G1 X142.045 Y118.447 E423.238
G1 X142.875 Y117.617 E423.277
G1 X144.597 Y119.339 E423.358
G1 X135.899 Y128.036 E423.767
G1 X117.218 Y109.356 E424.646
G1 X116.673 Y107.502 E424.71
G1 X118.447 E424.769
G1 Y93.64 E425.23
G1 X101.664 E425.788
G1 Y107.502 E426.249
G1 X103.439 E426.308
G1 X102.894 Y109.355 E426.372
G1 X84.101 Y127.925 E427.251
G1 X75.403 Y119.226 E427.66
G1 X77.125 Y117.505 E427.741
G1 X78.011 Y118.391 E427.783
G1 X78.381 Y118.815 E427.802
G1 X78.73 Y119.319 E427.822
G1 X79.071 Y119.921 E427.845
G1 X79.354 Y120.484 E427.866
G1 X79.73 Y121.14 E427.891
G1 X79.938 Y121.425 E427.903
G1 X80.169 Y121.682 E427.914
G1 X80.426 Y121.912 E427.926
G1 X80.712 Y122.122 E427.938
;rapid-leaky
G1 F236
G0 X81.266 Y123.207
;bead-solid_infill
G1 X81.123 Y123.35 F2400 E427.944
G1 X81.03 Y123.337 E427.947
G1 X80.668 Y123.258 E427.96
G1 X80.652 Y123.255
G1 X80.894 Y123.014 E427.972
G1 X80.706 Y122.916 E427.979
G1 X80.574 Y122.837 E427.984
G1 X80.531 Y122.811 E427.986
G1 X80.243 Y123.098 E427.999
G1 X79.961 Y122.816 E428.012
G1 X80.189 Y122.588 E428.023
G1 X79.993 Y122.445 E428.031
G1 X79.903 Y122.363 E428.035
G1 X79.874 Y122.337 E428.036
G1 X79.678 Y122.533 E428.046
G1 X79.395 Y122.25 E428.059
G1 X79.587 Y122.058 E428.068
G1 X79.406 Y121.857 E428.077
G1 X79.328 Y121.751 E428.081
G1 X79.112 Y121.967 E428.091
G1 X78.829 Y121.684 E428.105
G1 X79.099 Y121.415 E428.117
G1 X78.892 Y121.056 E428.131
G1 X78.614 Y121.334 E428.144
G1 X78.595 Y121.184 E428.149
G1 X78.522 Y120.86 E428.16
G1 X78.691 Y120.691 E428.168
G1 X78.502 Y120.314 E428.182
G1 X78.455 Y120.362 E428.185
G1 F1800 E418.185
;rapid-dry
G1 F236
G0 X92.916 Y117.693
G1 F1800 E428.185
;bead-sparse_infill
G1 X93.621 Y117.555 F3600 E428.208
G1 X96.414 Y114.195 E428.354
G1 X96.819 Y114.394 E428.369
G1 F1800 E418.369
;rapid-dry
G1 F236
G0 X100.781 Y107.51
G1 F1800 E428.369
;bead-sparse_infill
G1 X100.979 Y107.549 F3600 E428.376
G1 X100.781 Y99.291 E428.65
G1 X100.979 Y99.165 E428.658
G1 Y93.07 E428.861
G1 X100.781 Y93.031 E428.868
G1 X101.813 Y92.955 E428.902
G1 X102.602 Y92.566 E428.931
G1 X113.709 E429.301
G1 X114.079 Y92.8 E429.315
G1 X114.87 Y92.955 E429.342
G1 X116.292 E429.389
G1 X117.081 Y92.566 E429.419
G1 F1800 E419.419
;rapid-dry
G1 F236
G0 X119.331 Y95.816
G1 F1800 E429.419
;bead-sparse_infill
G1 X119.132 Y95.914 F3600 E429.426
G1 X119.331 Y104.692 E429.718
G1 X119.132 Y104.942 E429.729
G1 X119.194 Y110.363 E429.909
G1 X119.508 Y110.208 E429.921
G1 X119.761 Y110.257 E429.929
G1 X130.754 Y121.922 E430.462
G1 X131.204 Y121.7 E430.479
G1 X133.674 Y124.842 E430.612
G1 X133.987 Y124.687 E430.623
G1 X134.24 Y124.737 E430.632
;rapid-leaky
G1 F236
G0 X137.1 Y125.867
;bead-sparse_infill
G1 X136.178 Y125.282 F3600 E430.668
;rapid-leaky
G1 F236
G0 X139.021 Y123.152
;bead-solid_infill
G1 X138.739 Y123.434 F2400 E430.682
G1 X139.248 Y123.35 E430.699
G1 X139.389 Y123.311 E430.704
G1 X139.43 Y123.308 E430.705
G1 X141.456 Y121.282 E430.8
G1 X141.459 Y121.241 E430.802
G1 X141.498 Y121.1 E430.806
G1 X141.582 Y120.591 E430.824
G1 X141.3 Y120.873 E430.837
G1 F1800 E420.837
;Layer : 12 of 53
;rapid-leaky
G1 F236
G0 X141.034 Y121.06 Z2.5
G1 F1800 E430.837
;bead-perimeter_inner
G1 X141.523 Y119.922 F1560 E430.878
G1 X141.8 Y119.402 E430.898
G1 X142.094 Y118.963 E430.915
G1 X142.429 Y118.579 E430.932
G1 X142.875 Y118.133 E430.953
G1 X144.081 Y119.339 E431.01
G1 X135.899 Y127.52 E431.395
G1 X117.542 Y109.163 E432.258
G1 X117.161 Y107.867 E432.303
G1 X118.812 E432.358
G1 Y93.275 E432.843
G1 X101.299 E433.426
G1 Y107.867 E433.911
G1 X102.951 E433.966
G1 X102.57 Y109.162 E434.011
G1 X84.103 Y127.41 E434.875
G1 X75.919 Y119.226 E435.26
G1 X77.125 Y118.021 E435.316
G1 X77.627 Y118.523 E435.34
G1 X77.964 Y118.91 E435.357
G1 X78.26 Y119.351 E435.375
G1 X78.531 Y119.861 E435.394
G1 X78.812 Y120.49 E435.417
G1 X78.934 Y120.81 E435.428
G1 X79.113 Y121.181 E435.442
G1 X79.276 Y121.484 E435.453
G1 X79.489 Y121.817 E435.466
G1 X79.741 Y122.11 E435.479
G1 X80.033 Y122.362 E435.492
G1 X80.368 Y122.576 E435.505
G1 X81.042 Y122.919 E435.53
G1 X81.361 Y123.039 E435.542
G1 X81.987 Y123.319 E435.565
G1 X82.505 Y123.594 E435.584
G1 X82.941 Y123.887 E435.602
G1 X83.328 Y124.225 E435.619
G1 X84.63 Y125.526 E435.68
G1 X100.461 Y109.695 E436.424
G1 Y92.246 E437.005
G1 X119.651 E437.643
G1 Y109.695 E438.223
G1 X135.482 Y125.526 E438.968
G1 X136.727 Y124.281 E439.027
G1 X137.111 Y123.946 E439.044
G1 X137.55 Y123.652 E439.061
G1 X138.07 Y123.375 E439.081
G1 X139.208 Y122.886 E439.122
G1 X139.861 Y122.53 E439.147
G1 X140.173 Y122.297 E439.16
G1 X140.444 Y122.024 E439.172
G1 X140.678 Y121.713 E439.185
G1 X141.034 Y121.06 E439.21
;rapid-leaky
G1 F236
G0 X140.705 Y120.9
;bead-perimeter_outer
G1 X140.907 Y120.404 F1080 E439.228
G1 X141.193 Y119.765 E439.251
G1 X141.487 Y119.214 E439.272
G1 X141.804 Y118.741 E439.291
G1 X142.162 Y118.33 E439.309
G1 X142.875 Y117.617 E439.343
G1 X144.597 Y119.339 E439.424
G1 X135.899 Y128.036 E439.833
G1 X117.218 Y109.356 E440.711
G1 X116.673 Y107.502 E440.776
G1 X118.447 E440.835
G1 Y93.64 E441.296
G1 X101.664 E441.854
G1 Y107.502 E442.315
G1 X103.439 E442.374
G1 X102.894 Y109.355 E442.438
G1 X84.101 Y127.925 E443.317
G1 X75.403 Y119.226 E443.726
G1 X77.125 Y117.505 E443.807
G1 X77.894 Y118.273 E443.843
G1 X78.254 Y118.688 E443.862
G1 X78.573 Y119.163 E443.881
G1 X78.863 Y119.708 E443.901
G1 X79.149 Y120.349 E443.924
G1 X79.269 Y120.665 E443.936
G1 X79.435 Y121.009 E443.948
G1 X79.597 Y121.308 E443.96
G1 X79.782 Y121.599 E443.971
G1 X80 Y121.851 E443.982
G1 X80.252 Y122.069 E443.993
G1 X80.544 Y122.255 E444.005
G1 X81.186 Y122.583 E444.029
G1 X81.502 Y122.702 E444.04
G1 X82.142 Y122.988 E444.063
G1 X82.69 Y123.279 E444.084
G1 X83.164 Y123.597 E444.103
G1 X83.577 Y123.958 E444.121
G1 X84.63 Y125.01 E444.171
G1 X100.096 Y109.544 E444.898
G1 Y91.881 E445.486
G1 X120.016 E446.148
G1 Y109.544 E446.736
G1 X135.482 Y125.01 E447.463
G1 X136.478 Y124.014 E447.51
G1 X136.889 Y123.656 E447.528
G1 X137.362 Y123.339 E447.547
G1 X137.913 Y123.045 E447.568
G1 X138.552 Y122.759 E447.591
G1 X139.048 Y122.557 E447.609
G1 X139.663 Y122.222 E447.632
G1 X139.933 Y122.021 E447.643
G1 X140.168 Y121.785 E447.654
G1 X140.37 Y121.515 E447.666
G1 X140.705 Y120.9 E447.689
G1 F1800 E437.689
;rapid-dry
G1 F236
G0 X141.768 Y120.526
G1 F1800 E447.689
;bead-solid_infill
G1 X141.659 Y120.416 F2400 E447.694
G1 X141.489 Y120.812 E447.708
G1 X141.74 Y121.063 E447.72
G1 X141.745 Y121.222 E447.726
G1 X141.566 Y121.402 E447.734
G1 X141.539 Y121.428 E447.735
G1 X141.318 Y121.207 E447.746
G1 X141.119 Y121.573 E447.76
G1 X141.256 Y121.711 E447.766
G1 X140.974 Y121.994 E447.779
G1 X140.913 Y121.933 E447.782
G1 X140.687 Y122.234 E447.795
G1 X140.668 Y122.254 E447.796
G1 X140.691 Y122.276 E447.797
G1 X140.408 Y122.559 E447.81
G1 X140.386 Y122.537 E447.811
G1 X140.383 Y122.54
G1 X140.062 Y122.779 E447.824
G1 X140.125 Y122.842 E447.827
G1 X139.842 Y123.125 E447.841
G1 X139.7 Y122.982 E447.847
G1 X139.348 Y123.174 E447.861
G1 X139.332 Y123.181
G1 X139.559 Y123.408 E447.872
G1 X139.37 Y123.597 E447.881
G1 X139.177 Y123.591 E447.887
G1 X138.937 Y123.351 E447.899
G1 X138.541 Y123.521 E447.913
G1 X138.643 Y123.623 E447.918
;rapid-leaky
G1 F236
G0 X137.129 Y125.838
;bead-sparse_infill
G1 X136.163 Y125.298 F3600 E447.955
;rapid-leaky
G1 F236
G0 X134.431 Y124.928
;bead-sparse_infill
G1 X133.987 Y124.874 F3600 E447.969
G1 X133.807 Y124.975 E447.976
G1 X131.049 Y121.546 E448.123
G1 X130.618 Y121.786 E448.139
G1 X119.952 Y110.449 E448.657
G1 X119.508 Y110.395 E448.672
G1 X119.327 Y110.496 E448.679
G1 X119.132 Y104.813 E448.868
G1 X119.331 Y104.587 E448.878
G1 X119.132 Y96.125 E449.159
G1 X119.331 Y96.014 E449.167
G1 F1800 E439.167
;rapid-dry
G1 F236
G0 X116.609 Y92.566
G1 F1800 E449.167
;bead-sparse_infill
G1 X115.91 Y92.955 F3600 E449.193
G1 X115.789 E449.197
G1 X114.079 Y92.748 E449.255
G1 X113.753 Y92.566 E449.267
G1 X102.129 E449.654
G1 X101.431 Y92.955 E449.68
G1 X101.309 E449.684
G1 X100.781 Y92.891 E449.702
G1 X100.979 Y99.216 E449.913
G1 X100.781 Y99.327 E449.92
G1 X100.979 Y107.394 E450.189
G1 X100.781 Y107.37 E450.195
G1 F1800 E440.195
;rapid-dry
G1 F236
G0 X96.98 Y114.235
G1 F1800 E450.195
;bead-sparse_infill
G1 X96.59 Y114.018 F3600 E450.21
G1 X93.452 Y117.721 E450.371
G1 X92.809 Y117.799 E450.393
G1 F1800 E440.393
;rapid-dry
G1 F236
G0 X81.21 Y123.324
G1 F1800 E450.393
;bead-solid_infill
G1 X81.389 Y123.503 F2400 E450.401
G1 X80.859 Y123.539 E450.419
G1 X80.113 Y122.792 E450.454
G1 X79.06 Y121.739 E450.504
G1 X78.312 Y120.992 E450.539
G1 X78.35 Y120.464 E450.557
G1 X78.527 Y120.641 E450.565
G1 F1800 E440.565
;Layer : 13 of 53
;rapid-leaky
G1 F236
G0 X78.567 Y120.224 Z2.7
G1 F1800 E450.565
;bead-perimeter_inner
G1 X78.934 Y121.366 F1560 E450.605
G1 X79.099 Y121.72 E450.618
G1 X79.264 Y122.017 E450.629
G1 X79.52 Y122.333 E450.643
G1 X79.836 Y122.587 E450.656
G1 X80.131 Y122.752 E450.667
G1 X80.485 Y122.918 E450.68
G1 X81.628 Y123.285 E450.72
G1 X82.169 Y123.493 E450.739
G1 X82.646 Y123.734 E450.757
G1 X83.062 Y124.008 E450.774
G1 X83.421 Y124.318 E450.79
G1 X84.63 Y125.526 E450.846
G1 X100.461 Y109.695 E451.591
G1 Y92.246 E452.171
G1 X119.651 E452.81
G1 Y109.695 E453.39
G1 X135.482 Y125.526 E454.135
G1 X136.635 Y124.374 E454.189
G1 X136.999 Y124.059 E454.205
G1 X137.41 Y123.788 E454.221
G1 X137.884 Y123.551 E454.239
G1 X138.432 Y123.337 E454.258
G1 X138.605 Y123.291 E454.264
G1 X139.095 Y123.119 E454.282
G1 X139.375 Y123.043 E454.291
G1 X139.746 Y122.897 E454.305
G1 X140.07 Y122.728 E454.317
G1 X140.386 Y122.523 E454.329
G1 X140.671 Y122.238 E454.343
G1 X140.876 Y121.922 E454.355
G1 X141.045 Y121.598 E454.367
G1 X141.191 Y121.227 E454.381
G1 X141.267 Y120.947 E454.39
G1 X141.439 Y120.457 E454.408
G1 X141.485 Y120.284 E454.414
G1 X141.699 Y119.736 E454.433
G1 X141.936 Y119.262 E454.451
G1 X142.207 Y118.851 E454.467
G1 X142.522 Y118.487 E454.483
G1 X142.875 Y118.133 E454.5
G1 X144.081 Y119.339 E454.556
G1 X135.899 Y127.52 E454.941
G1 X117.542 Y109.163 E455.805
G1 X117.161 Y107.867 E455.85
G1 X118.812 E455.905
G1 Y93.275 E456.39
G1 X101.299 E456.972
G1 Y107.867 E457.458
G1 X102.951 E457.513
G1 X102.57 Y109.162 E457.558
G1 X84.102 Y127.41 E458.421
G1 X75.919 Y119.226 E458.806
G1 X77.125 Y118.021 E458.863
G1 X77.534 Y118.431 E458.882
G1 X77.843 Y118.788 E458.898
G1 X78.117 Y119.205 E458.914
G1 X78.358 Y119.684 E458.932
G1 X78.567 Y120.224 E458.951
;rapid-leaky
G1 F236
G0 X78.913 Y120.105
;bead-perimeter_outer
G1 X79.274 Y121.231 F1080 E458.991
G1 X79.42 Y121.544 E459.002
G1 X79.573 Y121.818 E459.013
G1 X79.779 Y122.073 E459.024
G1 X80.034 Y122.278 E459.034
G1 X80.307 Y122.432 E459.045
G1 X80.62 Y122.578 E459.056
G1 X81.747 Y122.939 E459.096
G1 X82.317 Y123.159 E459.116
G1 X82.83 Y123.417 E459.135
G1 X83.283 Y123.717 E459.153
G1 X83.67 Y124.051 E459.17
G1 X84.63 Y125.01 E459.215
G1 X100.096 Y109.544 E459.943
G1 Y91.881 E460.53
G1 X120.016 E461.193
G1 Y109.544 E461.78
G1 X135.482 Y125.01 E462.508
G1 X136.386 Y124.106 E462.55
G1 X136.778 Y123.767 E462.567
G1 X137.228 Y123.472 E462.585
G1 X137.739 Y123.216 E462.604
G1 X138.314 Y122.991 E462.625
G1 X138.499 Y122.942 E462.631
G1 X138.975 Y122.773 E462.648
G1 X139.26 Y122.696 E462.658
G1 X139.594 Y122.564 E462.67
G1 X139.886 Y122.412 E462.681
G1 X140.155 Y122.237 E462.691
G1 X140.385 Y122.007 E462.702
G1 X140.56 Y121.738 E462.713
G1 X140.712 Y121.446 E462.724
G1 X140.844 Y121.112 E462.736
G1 X140.921 Y120.827 E462.746
G1 X141.09 Y120.351 E462.762
G1 X141.139 Y120.166 E462.769
G1 X141.364 Y119.591 E462.789
G1 X141.62 Y119.08 E462.808
G1 X141.915 Y118.63 E462.826
G1 X142.254 Y118.238 E462.844
G1 X142.875 Y117.617 E462.873
G1 X144.597 Y119.339 E462.954
G1 X135.899 Y128.036 E463.363
G1 X117.218 Y109.356 E464.242
G1 X116.673 Y107.502 E464.306
G1 X118.447 E464.365
G1 Y93.64 E464.826
G1 X101.664 E465.384
G1 Y107.502 E465.845
G1 X103.439 E465.904
G1 X102.894 Y109.355 E465.968
G1 X84.101 Y127.925 E466.847
G1 X75.403 Y119.226 E467.256
G1 X77.125 Y117.505 E467.337
G1 X77.801 Y118.182 E467.369
G1 X78.135 Y118.568 E467.386
G1 X78.434 Y119.022 E467.404
G1 X78.692 Y119.535 E467.423
G1 X78.913 Y120.105 E467.444
;rapid-leaky
G1 F236
G0 X78.594 Y121.354
;bead-solid_infill
G1 X78.546 Y121.401 F2400 E467.446
G1 X78.264 Y121.118 E467.459
G1 X78.457 Y120.926 E467.468
G1 X78.319 Y120.497 E467.483
G1 X78.113 Y120.703 E467.493
G1 F1800 E457.493
;rapid-dry
G1 F236
G0 X80.243 Y121.267 Z3
G1 F1800 E467.493
;bead-support-structure
G1 X80.583 Y121.607 F4200 E467.505
G1 F1800 E457.505
G1 F236
G0 X80.243 Y121.267
G0 X80.583 Y121.607
;rapid-dry
G1 F236
G0 X80.613 Y123.295 Z2.7
G1 F1800 E467.505
;bead-solid_infill
G1 X80.526 Y123.381 F2400 E467.509
G1 X80.809 Y123.664 E467.522
G1 X81.041 Y123.432 E467.533
G1 X81.469 Y123.57 E467.548
G1 X81.326 Y123.713 E467.555
G1 F1800 E457.555
;rapid-dry
G1 F236
G0 X92.732 Y117.877
G1 F1800 E467.555
;bead-sparse_infill
G1 X93.326 Y117.847 F3600 E467.575
G1 X96.733 Y113.875 E467.749
G1 X97.112 Y114.105 E467.763
G1 F1800 E457.763
;rapid-dry
G1 F236
G0 X100.781 Y107.245
G1 F1800 E467.763
;bead-sparse_infill
G1 X100.979 Y107.255 F3600 E467.77
G1 X100.781 Y99.37 E468.032
G1 X100.979 Y99.273 E468.04
G1 X100.781 Y92.766 E468.256
G1 X101.409 Y92.798 E468.277
G1 X101.791 Y92.566 E468.292
G1 X113.791 E468.691
G1 X114.079 Y92.706 E468.702
G1 X115.888 Y92.798 E468.762
G1 X116.27 Y92.566 E468.777
G1 F1800 E458.777
;rapid-dry
G1 F236
G0 X119.331 Y96.193
G1 F1800 E468.777
;bead-sparse_infill
G1 X119.132 Y96.313 F3600 E468.785
G1 X119.331 Y104.483 E469.056
G1 X119.132 Y104.689 E469.066
G1 X119.438 Y110.607 E469.263
G1 X119.508 Y110.564 E469.266
G1 X120.098 Y110.594 E469.285
G1 X130.505 Y121.673 E469.791
G1 X130.923 Y121.419 E469.807
G1 X133.917 Y125.086 E469.965
G1 X133.987 Y125.043 E469.967
G1 X134.577 Y125.073 E469.987
;rapid-leaky
G1 F236
G0 X137.165 Y125.802
;bead-sparse_infill
G1 X136.152 Y125.308 F3600 E470.024
;rapid-leaky
G1 F236
G0 X138.531 Y123.642
;bead-solid_infill
G1 X138.452 Y123.721 F2400 E470.028
G1 X138.876 Y123.794 E470.042
G1 X138.938 Y123.801 E470.044
G1 X139.36 Y123.379 E470.064
;rapid-leaky
G1 F236
G0 X141.527 Y121.212
;bead-solid_infill
G1 X141.949 Y120.79 F2400 E470.084
G1 X141.942 Y120.728 E470.086
G1 X141.869 Y120.304 E470.101
G1 X141.79 Y120.383 E470.104
G1 F1800 E460.104
;Layer : 14 of 53
;rapid-leaky
G1 F236
G0 X141.677 Y120.073 Z2.9
G1 F1800 E470.104
;bead-perimeter_inner
G1 X141.85 Y119.577 F1560 E470.122
G1 X142.059 Y119.137 E470.138
G1 X142.315 Y118.741 E470.154
G1 X142.612 Y118.397 E470.169
G1 X142.875 Y118.133 E470.181
G1 X144.081 Y119.339 E470.238
G1 X141.216 Y122.204 E470.373
G1 X141.244 Y122.14 E470.375
G1 X141.261 Y122.004 E470.379
G1 X141.322 Y121.85 E470.385
G1 X141.411 Y121.43 E470.399
G1 X141.425 Y121.236 E470.406
G1 X141.464 Y121.093 E470.411
G1 X141.541 Y120.623 E470.426
G1 X141.677 Y120.073 E470.445
G1 F1800 E460.445
;rapid-dry
G1 F236
G0 X140.351 Y123.068
G1 F1800 E470.445
;bead-perimeter_inner
G1 X135.899 Y127.52 F1560 E470.655
G1 X117.542 Y109.163 E471.518
G1 X117.161 Y107.867 E471.563
G1 X118.812 E471.618
G1 Y93.275 E472.103
G1 X101.299 E472.686
G1 Y107.867 E473.171
G1 X102.951 E473.226
G1 X102.57 Y109.162 E473.271
G1 X84.102 Y127.41 E474.135
G1 X79.697 Y123.004 E474.342
G1 X80.259 Y123.169 E474.361
G1 X80.674 Y123.223 E474.375
G1 X81.036 Y123.303 E474.388
G1 X81.282 Y123.335 E474.396
G1 X81.836 Y123.474 E474.415
G1 X82.328 Y123.645 E474.432
G1 X82.771 Y123.856 E474.448
G1 X83.161 Y124.107 E474.464
G1 X83.512 Y124.409 E474.479
G1 X84.63 Y125.526 E474.532
G1 X100.461 Y109.695 E475.276
G1 Y92.246 E475.857
G1 X119.651 E476.495
G1 Y109.695 E477.075
G1 X135.482 Y125.526 E477.82
G1 X136.545 Y124.464 E477.87
G1 X136.889 Y124.167 E477.885
G1 X137.285 Y123.911 E477.901
G1 X137.725 Y123.702 E477.917
G1 X138.221 Y123.529 E477.935
G1 X138.771 Y123.393 E477.953
G1 X139.241 Y123.316 E477.969
G1 X139.384 Y123.277 E477.974
G1 X139.578 Y123.263 E477.981
G1 X139.998 Y123.174 E477.995
G1 X140.152 Y123.113 E478
G1 X140.288 Y123.096 E478.005
G1 X140.351 Y123.068 E478.007
G1 F1800 E468.007
;rapid-dry
G1 F236
G0 X81.481 Y122.015 Z3.2
G1 F1800 E478.007
;bead-support-structure
G1 X80.898 Y121.922 F4200 E478.022
G1 X80.586 Y121.61 E478.033
G1 F1800 E468.033
G1 F236
G0 X80.898 Y121.922
G0 X81.252 Y121.979
G0 X80.898 Y121.922
G0 X80.586 Y121.61
;rapid-dry
G1 F236
G0 Z2.9
G1 F1800 E478.033
;bead-support-structure
G1 X80.24 Y121.264 F4200 E478.045
G1 F1800 E468.045
G1 F236
G0 X80.586 Y121.61
G0 X80.24 Y121.264
;rapid-dry
G1 F236
G0 Z3.2
G1 F1800 E478.045
;bead-support-structure
G1 X79.93 Y120.954 F4200 E478.056
G1 X79.838 Y120.371 E478.071
G1 X79.75 Y120.641 E478.078
G1 F1800 E468.078
G1 F236
G0 X79.838 Y120.371
G0 X79.919 Y120.881
G0 X79.838 Y120.371
G0 X79.75 Y120.641
;rapid-dry
G1 F236
G0 X78.548 Y120.815 Z2.9
G1 F1800 E478.078
;bead-perimeter_inner
G1 X78.629 Y121.178 F1560 E478.09
G1 X78.683 Y121.592 E478.104
G1 X78.847 Y122.154 E478.124
G1 X75.919 Y119.226 E478.261
G1 X77.125 Y118.021 E478.318
G1 X77.444 Y118.341 E478.333
G1 X77.745 Y118.69 E478.348
G1 X77.995 Y119.079 E478.364
G1 X78.206 Y119.524 E478.38
G1 X78.378 Y120.017 E478.398
G1 X78.516 Y120.568 E478.416
G1 X78.548 Y120.815 E478.425
;rapid-leaky
G1 F236
G0 X78.244 Y120.924
;bead-solid_infill
G1 X77.936 Y120.616 F2400 E478.439
G1 X78.021 Y120.193 E478.454
G1 X78.09 Y120.204 E478.456
G1 X78.096 Y120.21
;rapid-leaky
G1 F236
G0 X78.729 Y119.915
;bead-perimeter_outer
G1 X78.875 Y120.492 F1080 E478.476
G1 X78.908 Y120.752 E478.485
G1 X78.989 Y121.115 E478.497
G1 X79.041 Y121.514 E478.51
G1 X79.224 Y122.156 E478.533
G1 X79.416 Y122.436 E478.544
G1 X79.695 Y122.627 E478.555
G1 X80.338 Y122.811 E478.577
G1 X80.737 Y122.863 E478.591
G1 X81.099 Y122.943 E478.603
G1 X81.358 Y122.977 E478.612
G1 X81.937 Y123.123 E478.632
G1 X82.467 Y123.306 E478.65
G1 X82.949 Y123.537 E478.668
G1 X83.38 Y123.814 E478.685
G1 X83.76 Y124.141 E478.702
G1 X84.63 Y125.01 E478.743
G1 X100.096 Y109.544 E479.47
G1 Y91.881 E480.058
G1 X120.016 E480.72
G1 Y109.544 E481.308
G1 X135.482 Y125.01 E482.035
G1 X136.296 Y124.197 E482.073
G1 X136.67 Y123.874 E482.09
G1 X137.107 Y123.592 E482.107
G1 X137.589 Y123.362 E482.125
G1 X138.121 Y123.177 E482.144
G1 X138.695 Y123.036 E482.163
G1 X139.163 Y122.959 E482.179
G1 X139.322 Y122.915 E482.185
G1 X139.527 Y122.901 E482.191
G1 X139.893 Y122.823 E482.204
G1 X140.061 Y122.757 E482.21
G1 X140.189 Y122.741 E482.214
G1 X140.509 Y122.6 E482.226
G1 X140.612 Y122.499 E482.231
G1 X140.748 Y122.361 E482.237
G1 X140.889 Y122.041 E482.249
G1 X140.905 Y121.913 E482.253
G1 X140.971 Y121.745 E482.259
G1 X141.049 Y121.379 E482.271
G1 X141.063 Y121.174 E482.278
G1 X141.107 Y121.015 E482.284
G1 X141.184 Y120.547 E482.299
G1 X141.325 Y119.973 E482.319
G1 X141.51 Y119.441 E482.338
G1 X141.74 Y118.959 E482.356
G1 X142.022 Y118.522 E482.373
G1 X142.345 Y118.148 E482.389
G1 X142.875 Y117.617 E482.414
G1 X144.597 Y119.339 E482.495
G1 X135.899 Y128.036 E482.904
G1 X117.218 Y109.356 E483.783
G1 X116.673 Y107.502 E483.847
G1 X118.447 E483.906
G1 Y93.64 E484.367
G1 X101.664 E484.926
G1 Y107.502 E485.387
G1 X103.439 E485.446
G1 X102.894 Y109.355 E485.51
G1 X84.101 Y127.925 E486.389
G1 X75.403 Y119.226 E486.798
G1 X77.125 Y117.505 E486.879
G1 X77.711 Y118.092 E486.906
G1 X78.038 Y118.471 E486.923
G1 X78.315 Y118.901 E486.94
G1 X78.545 Y119.385 E486.958
G1 X78.729 Y119.915 E486.977
G1 F1800 E476.977
;rapid-dry
G1 F236
G0 X80.927 Y123.607
G1 F1800 E486.977
;bead-solid_infill
G1 X81.236 Y123.916 F2400 E486.991
G1 F1800 E476.991
;rapid-dry
G1 F236
G0 X92.675 Y117.933
G1 F1800 E486.991
;bead-sparse_infill
G1 X93.229 Y117.942 F3600 E487.009
G1 X96.855 Y113.754 E487.194
G1 X97.224 Y113.994 E487.208
G1 F1800 E477.208
;rapid-dry
G1 F236
G0 X100.781 Y107.133
G1 F1800 E487.208
;bead-sparse_infill
G1 X100.979 Y107.13 F3600 E487.215
G1 X100.781 Y99.419 E487.472
G1 X100.979 Y99.336 E487.479
G1 X100.781 Y92.654 E487.701
G1 X101.409 Y92.644 E487.722
G1 X101.528 Y92.566 E487.727
G1 X113.821 E488.136
G1 X114.079 Y92.674 E488.145
G1 X115.888 Y92.644 E488.205
G1 X116.008 Y92.566 E488.21
G1 F1800 E478.21
;rapid-dry
G1 F236
G0 X119.331 Y96.355
G1 F1800 E488.21
;bead-sparse_infill
G1 X119.132 Y96.484 F3600 E488.218
G1 X119.331 Y104.376 E488.48
G1 X119.132 Y104.567 E488.489
G1 X119.549 Y110.718 E488.694
G1 X120.21 Y110.707 E488.716
G1 X130.408 Y121.576 E489.212
G1 X130.815 Y121.311 E489.228
G1 X134.029 Y125.197 E489.396
G1 X134.689 Y125.186 E489.418
;rapid-leaky
G1 F236
G0 X136.147 Y125.314
;bead-sparse_infill
G1 X137.208 Y125.758 F3600 E489.456
;rapid-leaky
G1 F236
G0 X138.749 Y123.728
;bead-solid_infill
G1 X138.994 Y123.973 F2400 E489.468
G1 X139.276 Y123.69 E489.481
G1 X139.228 Y123.642 E489.483
G1 F1800 E479.483
;rapid-dry
G1 F236
G0 X141.785 Y121.108
G1 F1800 E489.483
;bead-solid_infill
G1 X141.822 Y121.145 F2400 E489.485
G1 X141.979 Y120.988 E489.492
G1 X142.105 Y120.862 E489.498
G1 X141.87 Y120.627 E489.509
G1 F1800 E479.509
;Layer : 15 of 53
;rapid-leaky
G1 F236
G0 X141.742 Y120.379 Z3.1
G1 F1800 E489.509
;bead-perimeter_inner
G1 X141.837 Y119.894 F1560 E489.526
G1 X141.979 Y119.444 E489.542
G1 X142.169 Y119.024 E489.557
G1 X142.403 Y118.654 E489.571
G1 X142.696 Y118.313 E489.586
G1 X142.875 Y118.133 E489.595
G1 X144.081 Y119.339 E489.652
G1 X141.764 Y121.656 E489.761
G1 X141.712 Y121.395 E489.769
G1 X141.7 Y120.888 E489.786
G1 X141.742 Y120.379 E489.803
;rapid-leaky
G1 F236
G0 X142.217 Y120.522
;bead-solid_infill
G1 X142.036 Y120.702 F2400 E489.812
;rapid-leaky
G1 F236
G0 X141.378 Y120.336
;bead-perimeter_outer
G1 X141.48 Y119.811 F1080 E489.83
G1 X141.637 Y119.313 E489.847
G1 X141.847 Y118.85 E489.864
G1 X142.108 Y118.436 E489.88
G1 X142.428 Y118.065 E489.896
G1 X142.875 Y117.617 E489.917
G1 X144.597 Y119.339 E489.998
G1 X141.648 Y122.288 E490.137
G1 X141.603 Y122.243 E490.139
G1 X141.428 Y121.893 E490.152
G1 X141.344 Y121.418 E490.168
G1 X141.334 Y120.877 E490.186
G1 X141.378 Y120.336 E490.204
G1 F1800 E480.204
;rapid-dry
G1 F236
G0 X140.665 Y122.259 Z3.4
G1 F1800 E490.204
;bead-support-structure
G1 X140.567 Y122.417 F4200 E490.209
G1 X140.407 Y122.517 E490.214
G1 F1800 E480.214
G1 F236
G0 X140.567 Y122.417
G0 X140.665 Y122.259
G0 X140.567 Y122.417
G0 X140.407 Y122.517
;rapid-dry
G1 F236
G0 X139.804 Y123.616 Z3.1
G1 F1800 E490.214
;bead-perimeter_inner
G1 X135.899 Y127.52 F1560 E490.397
G1 X117.542 Y109.163 E491.261
G1 X117.161 Y107.867 E491.306
G1 X118.812 E491.361
G1 Y93.275 E491.846
G1 X101.299 E492.429
G1 Y107.867 E492.914
G1 X102.951 E492.969
G1 X102.57 Y109.162 E493.014
G1 X84.102 Y127.41 E493.877
G1 X80.249 Y123.557 E494.058
G1 X80.539 Y123.503 E494.068
G1 X80.79 Y123.508 E494.077
G1 X81.014 Y123.493 E494.084
G1 X81.511 Y123.536 E494.101
G1 X82.009 Y123.63 E494.118
G1 X82.462 Y123.772 E494.133
G1 X82.88 Y123.963 E494.149
G1 X83.258 Y124.203 E494.164
G1 X83.595 Y124.492 E494.178
G1 X84.63 Y125.526 E494.227
G1 X100.461 Y109.695 E494.972
G1 Y92.246 E495.552
